P3
400 225
255
204 226 255
204 226 255
204 226 255
204 226 255
204 226 255
204 226 255
204 226 255
204 226 255
204 226 255
204 226 255
204 226 255
204 226 255
204 226 255
204 226 255
204 226 255
203 226 255
203 226 255
203 226 255
203 226 255
203 226 255
203 226 255
203 226 255
203 226 255
203 225 255
203 225 255
203 225 255
203 225 255
203 225 255
203 225 255
203 225 255
203 225 255
203 225 255
202 225 255
202 225 255
202 225 255
202 225 255
202 225 255
202 225 255
202 225 255
202 225 255
202 225 255
202 225 255
202 225 255
202 225 255
202 225 255
202 225 255
202 225 255
202 225 255
201 225 255
201 225 255
201 225 255
201 225 255
201 224 255
201 224 255
201 224 255
201 224 255
201 224 255
201 224 255
201 224 255
201 224 255
201 224 255
201 224 255
201 224 255
200 224 255
200 224 255
200 224 255
200 224 255
200 224 255
200 224 255
200 224 255
200 224 255
200 224 255
200 224 255
200 224 255
200 224 255
200 224 255
200 224 255
200 224 255
199 224 255
199 224 255
199 223 255
199 223 255
199 223 255
199 223 255
199 223 255
199 223 255
199 223 255
199 223 255
199 223 255
199 223 255
199 223 255
199 223 255
198 223 255
198 223 255
198 223 255
198 223 255
198 223 255
198 223 255
198 223 255
198 223 255
198 223 255
198 223 255
198 223 255
198 223 255
198 223 255
198 223 255
197 222 255
197 222 255
197 222 255
197 222 255
197 222 255
197 222 255
197 222 255
197 222 255
197 222 255
197 222 255
197 222 255
197 222 255
197 222 255
197 222 255
197 222 255
196 222 255
196 222 255
196 222 255
196 222 255
196 222 255
196 222 255
196 222 255
196 222 255
196 222 255
196 222 255
196 222 255
196 222 255
196 222 255
196 222 255
196 221 255
196 221 255
195 221 255
195 221 255
195 221 255
195 221 255
195 221 255
195 221 255
195 221 255
195 221 255
195 221 255
195 221 255
195 221 255
195 221 255
195 221 255
195 221 255
195 221 255
195 221 255
195 221 255
195 221 255
194 221 255
194 221 255
194 221 255
194 221 255
194 221 255
194 221 255
194 221 255
194 221 255
194 221 255
194 221 255
194 221 255
194 221 255
194 221 255
194 221 255
194 221 255
194 221 255
194 221 255
194 221 255
194 221 255
194 221 255
194 221 255
194 221 255
194 220 255
194 220 255
194 220 255
194 220 255
194 220 255
194 220 255
194 220 255
194 220 255
194 220 255
193 220 255
193 220 255
193 220 255
193 220 255
193 220 255
193 220 255
193 220 255
193 220 255
193 220 255
193 220 255
193 220 255
193 220 255
193 220 255
193 220 255
193 220 255
193 220 255
193 220 255
193 220 255
193 220 255
193 220 255
193 220 255
193 220 255
193 220 255
193 220 255
193 220 255
193 220 255
193 220 255
193 220 255
194 220 255
194 220 255
194 220 255
194 220 255
194 220 255
194 220 255
194 220 255
194 220 255
194 220 255
194 221 255
194 221 255
194 221 255
194 221 255
194 221 255
194 221 255
194 221 255
194 221 255
194 221 255
194 221 255
194 221 255
194 221 255
194 221 255
194 221 255
194 221 255
194 221 255
194 221 255
194 221 255
194 221 255
194 221 255
194 221 255
194 221 255
195 221 255
195 221 255
195 221 255
195 221 255
195 221 255
195 221 255
195 221 255
195 221 255
195 221 255
195 221 255
195 221 255
195 221 255
195 221 255
195 221 255
195 221 255
195 221 255
195 221 255
195 221 255
196 221 255
196 221 255
196 222 255
196 222 255
196 222 255
196 222 255
196 222 255
196 222 255
196 222 255
196 222 255
196 222 255
196 222 255
196 222 255
196 222 255
196 222 255
196 222 255
197 222 255
197 222 255
197 222 255
197 222 255
197 222 255
197 222 255
197 222 255
197 222 255
197 222 255
197 222 255
197 222 255
197 222 255
197 222 255
197 222 255
197 223 255
198 223 255
198 223 255
198 223 255
198 223 255
198 223 255
198 223 255
198 223 255
198 223 255
198 223 255
198 223 255
198 223 255
198 223 255
198 223 255
198 223 255
199 223 255
199 223 255
199 223 255
199 223 255
199 223 255
199 223 255
199 223 255
199 223 255
199 223 255
199 223 255
199 223 255
199 223 255
199 224 255
199 224 255
199 224 255
200 224 255
200 224 255
200 224 255
200 224 255
200 224 255
200 224 255
200 224 255
200 224 255
200 224 255
200 224 255
200 224 255
200 224 255
200 224 255
200 224 255
201 224 255
201 224 255
201 224 255
201 224 255
201 224 255
201 224 255
201 224 255
201 224 255
201 224 255
201 224 255
201 225 255
201 225 255
201 225 255
201 225 255
201 225 255
202 225 255
202 225 255
202 225 255
202 225 255
202 225 255
202 225 255
202 225 255
202 225 255
202 225 255
202 225 255
202 225 255
202 225 255
202 225 255
202 225 255
202 225 255
202 225 255
203 225 255
203 225 255
203 225 255
203 225 255
203 225 255
203 225 255
203 225 255
203 225 255
203 225 255
203 226 255
203 226 255
203 226 255
203 226 255
203 226 255
203 226 255
203 226 255
203 226 255
204 226 255
204 226 255
204 226 255
204 226 255
204 226 255
204 226 255
204 226 255
204 226 255
204 226 255
204 226 255
204 226 255
204 226 255
204 226 255
204 226 255
204 226 255
204 226 255
204 226 255
204 226 255
204 226 255
204 226 255
204 226 255
204 226 255
204 226 255
204 226 255
204 226 255
204 226 255
204 226 255
204 226 255
204 226 255
204 226 255
204 226 255
204 226 255
204 226 255
203 226 255
203 226 255
203 226 255
203 226 255
203 226 255
203 226 255
203 226 255
203 225 255
203 225 255
203 225 255
203 225 255
203 225 255
203 225 255
203 225 255
203 225 255
203 225 255
202 225 255
202 225 255
202 225 255
202 225 255
202 225 255
202 225 255
202 225 255
202 225 255
202 225 255
202 225 255
202 225 255
202 225 255
202 225 255
202 225 255
202 225 255
202 225 255
201 225 255
201 225 255
201 225 255
201 225 255
201 224 255
201 224 255
201 224 255
201 224 255
201 224 255
201 224 255
201 224 255
201 224 255
201 224 255
201 224 255
201 224 255
200 224 255
200 224 255
200 224 255
200 224 255
200 224 255
200 224 255
200 224 255
200 224 255
200 224 255
200 224 255
200 224 255
200 224 255
200 224 255
200 224 255
200 224 255
199 224 255
199 224 255
199 223 255
199 223 255
199 223 255
199 223 255
199 223 255
199 223 255
199 223 255
199 223 255
199 223 255
199 223 255
199 223 255
199 223 255
198 223 255
198 223 255
198 223 255
198 223 255
198 223 255
198 223 255
198 223 255
198 223 255
198 223 255
198 223 255
198 223 255
198 223 255
198 223 255
198 223 255
197 223 255
197 222 255
197 222 255
197 222 255
197 222 255
197 222 255
197 222 255
197 222 255
197 222 255
197 222 255
197 222 255
197 222 255
197 222 255
197 222 255
197 222 255
196 222 255
196 222 255
196 222 255
196 222 255
196 222 255
196 222 255
196 222 255
196 222 255
196 222 255
196 222 255
196 222 255
196 222 255
196 222 255
196 222 255
196 222 255
196 221 255
195 221 255
195 221 255
195 221 255
195 221 255
195 221 255
195 221 255
195 221 255
195 221 255
195 221 255
195 221 255
195 221 255
195 221 255
195 221 255
195 221 255
195 221 255
195 221 255
195 221 255
195 221 255
195 221 255
194 221 255
194 221 255
194 221 255
194 221 255
194 221 255
194 221 255
194 221 255
194 221 255
194 221 255
194 221 255
194 221 255
194 221 255
194 221 255
194 221 255
194 221 255
194 221 255
194 221 255
194 221 255
194 221 255
194 221 255
194 221 255
194 221 255
194 221 255
194 221 255
194 221 255
194 220 255
194 220 255
194 220 255
194 220 255
194 220 255
194 220 255
194 220 255
194 220 255
194 220 255
194 220 255
194 220 255
194 220 255
194 220 255
194 220 255
194 220 255
194 220 255
194 220 255
194 220 255
194 220 255
194 220 255
194 220 255
194 220 255
194 220 255
194 220 255
194 220 255
194 220 255
194 220 255
194 220 255
194 220 255
194 220 255
194 220 255
194 220 255
194 220 255
194 220 255
194 221 255
194 221 255
194 221 255
194 221 255
194 221 255
194 221 255
194 221 255
194 221 255
194 221 255
194 221 255
194 221 255
194 221 255
194 221 255
194 221 255
194 221 255
194 221 255
194 221 255
194 221 255
194 221 255
194 221 255
194 221 255
194 221 255
194 221 255
194 221 255
194 221 255
195 221 255
195 221 255
195 221 255
195 221 255
195 221 255
195 221 255
195 221 255
195 221 255
195 221 255
195 221 255
195 221 255
195 221 255
195 221 255
195 221 255
195 221 255
195 221 255
195 221 255
195 221 255
195 221 255
196 221 255
196 222 255
196 222 255
196 222 255
196 222 255
196 222 255
196 222 255
196 222 255
196 222 255
196 222 255
196 222 255
196 222 255
196 222 255
196 222 255
196 222 255
196 222 255
197 222 255
197 222 255
197 222 255
197 222 255
197 222 255
197 222 255
197 222 255
197 222 255
197 222 255
197 222 255
197 222 255
197 222 255
197 222 255
197 222 255
197 223 255
198 223 255
198 223 255
198 223 255
198 223 255
198 223 255
198 223 255
198 223 255
198 223 255
198 223 255
198 223 255
198 223 255
198 223 255
198 223 255
198 223 255
199 223 255
199 223 255
199 223 255
199 223 255
199 223 255
199 223 255
199 223 255
199 223 255
199 223 255
199 223 255
199 223 255
199 223 255
199 224 255
199 224 255
199 224 255
200 224 255
200 224 255
200 224 255
200 224 255
200 224 255
200 224 255
200 224 255
200 224 255
200 224 255
200 224 255
200 224 255
200 224 255
200 224 255
200 224 255
201 224 255
201 224 255
201 224 255
201 224 255
201 224 255
201 224 255
201 224 255
201 224 255
201 224 255
201 224 255
201 225 255
201 225 255
201 225 255
201 225 255
201 225 255
202 225 255
202 225 255
202 225 255
202 225 255
202 225 255
202 225 255
202 225 255
202 225 255
202 225 255
202 225 255
202 225 255
202 225 255
202 225 255
202 225 255
202 225 255
202 225 255
203 225 255
203 225 255
203 225 255
203 225 255
203 225 255
203 225 255
203 225 255
203 225 255
203 225 255
203 226 255
203 226 255
203 226 255
203 226 255
203 226 255
203 226 255
203 226 255
204 226 255
204 226 255
204 226 255
204 226 255
204 226 255
204 226 255
204 226 255
204 226 255
204 226 255
204 226 255
204 226 255
204 226 255
204 226 255
204 226 255
204 226 255
204 226 255
204 226 255
204 226 255
205 226 255
205 226 255
204 226 255
204 226 255
204 226 255
204 226 255
204 226 255
204 226 255
204 226 255
204 226 255
204 226 255
204 226 255
204 226 255
204 226 255
204 226 255
204 226 255
204 226 255
204 226 255
204 226 255
204 226 255
203 226 255
203 226 255
203 226 255
203 226 255
203 226 255
203 226 255
203 226 255
203 225 255
203 225 255
203 225 255
203 225 255
203 225 255
203 225 255
203 225 255
203 225 255
203 225 255
203 225 255
202 225 255
202 225 255
202 225 255
202 225 255
202 225 255
202 225 255
202 225 255
202 225 255
202 225 255
202 225 255
202 225 255
202 225 255
202 225 255
202 225 255
202 225 255
201 225 255
201 225 255
201 225 255
201 225 255
201 225 255
201 224 255
201 224 255
201 224 255
201 224 255
201 224 255
201 224 255
201 224 255
201 224 255
201 224 255
201 224 255
200 224 255
200 224 255
200 224 255
200 224 255
200 224 255
200 224 255
200 224 255
200 224 255
200 224 255
200 224 255
200 224 255
200 224 255
200 224 255
200 224 255
200 224 255
199 224 255
199 224 255
199 223 255
199 223 255
199 223 255
199 223 255
199 223 255
199 223 255
199 223 255
199 223 255
199 223 255
199 223 255
199 223 255
199 223 255
198 223 255
198 223 255
198 223 255
198 223 255
198 223 255
198 223 255
198 223 255
198 223 255
198 223 255
198 223 255
198 223 255
198 223 255
198 223 255
198 223 255
197 223 255
197 222 255
197 222 255
197 222 255
197 222 255
197 222 255
197 222 255
197 222 255
197 222 255
197 222 255
197 222 255
197 222 255
197 222 255
197 222 255
197 222 255
196 222 255
196 222 255
196 222 255
196 222 255
196 222 255
196 222 255
196 222 255
196 222 255
196 222 255
196 222 255
196 222 255
196 222 255
196 222 255
196 222 255
196 222 255
196 221 255
195 221 255
195 221 255
195 221 255
195 221 255
195 221 255
195 221 255
195 221 255
195 221 255
195 221 255
195 221 255
195 221 255
195 221 255
195 221 255
195 221 255
195 221 255
195 221 255
195 221 255
195 221 255
195 221 255
195 221 255
195 221 255
194 221 255
194 221 255
194 221 255
194 221 255
194 221 255
194 221 255
194 221 255
194 221 255
194 221 255
194 221 255
194 221 255
194 221 255
194 221 255
194 221 255
194 221 255
194 221 255
194 221 255
194 221 255
194 221 255
194 221 255
194 221 255
194 221 255
194 221 255
194 221 255
194 221 255
194 221 255
194 221 255
194 221 255
194 221 255
194 221 255
194 221 255
194 220 255
194 220 255
194 220 255
194 220 255
194 220 255
194 220 255
194 220 255
194 220 255
194 220 255
194 220 255
194 220 255
194 220 255
194 220 255
194 220 255
194 220 255
194 221 255
194 221 255
194 221 255
194 221 255
194 221 255
194 221 255
194 221 255
194 221 255
194 221 255
194 221 255
194 221 255
194 221 255
194 221 255
194 221 255
194 221 255
194 221 255
194 221 255
194 221 255
194 221 255
194 221 255
194 221 255
194 221 255
194 221 255
194 221 255
194 221 255
194 221 255
194 221 255
194 221 255
194 221 255
194 221 255
194 221 255
195 221 255
195 221 255
195 221 255
195 221 255
195 221 255
195 221 255
195 221 255
195 221 255
195 221 255
195 221 255
195 221 255
195 221 255
195 221 255
195 221 255
195 221 255
195 221 255
195 221 255
195 221 255
195 221 255
195 221 255
196 221 255
196 222 255
196 222 255
196 222 255
196 222 255
196 222 255
196 222 255
196 222 255
196 222 255
196 222 255
196 222 255
196 222 255
196 222 255
196 222 255
196 222 255
196 222 255
197 222 255
197 222 255
197 222 255
197 222 255
197 222 255
197 222 255
197 222 255
197 222 255
197 222 255
197 222 255
197 222 255
197 222 255
197 222 255
197 222 255
197 223 255
198 223 255
198 223 255
198 223 255
198 223 255
198 223 255
198 223 255
198 223 255
198 223 255
198 223 255
198 223 255
198 223 255
198 223 255
198 223 255
198 223 255
199 223 255
199 223 255
199 223 255
199 223 255
199 223 255
199 223 255
199 223 255
199 223 255
199 223 255
199 223 255
199 223 255
199 223 255
199 224 255
199 224 255
200 224 255
200 224 255
200 224 255
200 224 255
200 224 255
200 224 255
200 224 255
200 224 255
200 224 255
200 224 255
200 224 255
200 224 255
200 224 255
200 224 255
200 224 255
201 224 255
201 224 255
201 224 255
201 224 255
201 224 255
201 224 255
201 224 255
201 224 255
201 224 255
201 224 255
201 225 255
201 225 255
201 225 255
201 225 255
201 225 255
202 225 255
202 225 255
202 225 255
202 225 255
202 225 255
202 225 255
202 225 255
202 225 255
202 225 255
202 225 255
202 225 255
202 225 255
202 225 255
202 225 255
202 225 255
203 225 255
203 225 255
203 225 255
203 225 255
203 225 255
203 225 255
203 225 255
203 225 255
203 225 255
203 225 255
203 226 255
203 226 255
203 226 255
203 226 255
203 226 255
203 226 255
203 226 255
204 226 255
204 226 255
204 226 255
204 226 255
204 226 255
204 226 255
204 226 255
204 226 255
204 226 255
204 226 255
204 226 255
204 226 255
204 226 255
204 226 255
204 226 255
204 226 255
204 226 255
204 226 255
205 226 255
205 226 255
205 226 255
205 226 255
205 226 255
205 226 255
204 226 255
204 226 255
204 226 255
204 226 255
204 226 255
204 226 255
204 226 255
204 226 255
204 226 255
204 226 255
204 226 255
204 226 255
204 226 255
204 226 255
204 226 255
204 226 255
204 226 255
204 226 255
203 226 255
203 226 255
203 226 255
203 226 255
203 226 255
203 226 255
203 226 255
203 226 255
203 225 255
203 225 255
203 225 255
203 225 255
203 225 255
203 225 255
203 225 255
203 225 255
203 225 255
202 225 255
202 225 255
202 225 255
202 225 255
202 225 255
202 225 255
202 225 255
202 225 255
202 225 255
202 225 255
202 225 255
202 225 255
202 225 255
202 225 255
202 225 255
201 225 255
201 225 255
201 225 255
201 225 255
201 225 255
201 224 255
201 224 255
201 224 255
201 224 255
201 224 255
201 224 255
201 224 255
201 224 255
201 224 255
201 224 255
200 224 255
200 224 255
200 224 255
200 224 255
200 224 255
200 224 255
200 224 255
200 224 255
200 224 255
200 224 255
200 224 255
200 224 255
200 224 255
200 224 255
200 224 255
199 224 255
199 224 255
199 223 255
199 223 255
199 223 255
199 223 255
199 223 255
199 223 255
199 223 255
199 223 255
199 223 255
199 223 255
199 223 255
199 223 255
198 223 255
198 223 255
198 223 255
198 223 255
198 223 255
198 223 255
198 223 255
198 223 255
198 223 255
198 223 255
198 223 255
198 223 255
198 223 255
198 223 255
197 223 255
197 222 255
197 222 255
197 222 255
197 222 255
197 222 255
197 222 255
197 222 255
197 222 255
197 222 255
197 222 255
197 222 255
197 222 255
197 222 255
197 222 255
196 222 255
196 222 255
196 222 255
196 222 255
196 222 255
196 222 255
196 222 255
196 222 255
196 222 255
196 222 255
196 222 255
196 222 255
196 222 255
196 222 255
196 222 255
196 221 255
196 221 255
195 221 255
195 221 255
195 221 255
195 221 255
195 221 255
195 221 255
195 221 255
195 221 255
195 221 255
195 221 255
195 221 255
195 221 255
195 221 255
195 221 255
195 221 255
195 221 255
195 221 255
195 221 255
195 221 255
195 221 255
195 221 255
194 221 255
194 221 255
194 221 255
194 221 255
194 221 255
194 221 255
194 221 255
194 221 255
194 221 255
194 221 255
194 221 255
194 221 255
194 221 255
194 221 255
194 221 255
194 221 255
194 221 255
194 221 255
194 221 255
194 221 255
194 221 255
194 221 255
194 221 255
194 221 255
194 221 255
194 221 255
194 221 255
194 221 255
194 221 255
194 221 255
194 221 255
194 221 255
194 221 255
194 221 255
194 221 255
194 221 255
194 221 255
194 221 255
194 221 255
194 221 255
194 221 255
194 221 255
194 221 255
194 221 255
194 221 255
194 221 255
194 221 255
194 221 255
194 221 255
194 221 255
194 221 255
194 221 255
194 221 255
194 221 255
194 221 255
194 221 255
194 221 255
194 221 255
194 221 255
194 221 255
194 221 255
194 221 255
194 221 255
194 221 255
194 221 255
194 221 255
194 221 255
194 221 255
194 221 255
194 221 255
195 221 255
195 221 255
195 221 255
195 221 255
195 221 255
195 221 255
195 221 255
195 221 255
195 221 255
195 221 255
195 221 255
195 221 255
195 221 255
195 221 255
195 221 255
195 221 255
195 221 255
195 221 255
195 221 255
195 221 255
195 221 255
196 221 255
196 222 255
196 222 255
196 222 255
196 222 255
196 222 255
196 222 255
196 222 255
196 222 255
196 222 255
196 222 255
196 222 255
196 222 255
196 222 255
196 222 255
196 222 255
196 222 255
197 222 255
197 222 255
197 222 255
197 222 255
197 222 255
197 222 255
197 222 255
197 222 255
197 222 255
197 222 255
197 222 255
197 222 255
197 222 255
197 222 255
197 223 255
198 223 255
198 223 255
198 223 255
198 223 255
198 223 255
198 223 255
198 223 255
198 223 255
198 223 255
198 223 255
198 223 255
198 223 255
198 223 255
198 223 255
199 223 255
199 223 255
199 223 255
199 223 255
199 223 255
199 223 255
199 223 255
199 223 255
199 223 255
199 223 255
199 223 255
199 223 255
199 224 255
199 224 255
200 224 255
200 224 255
200 224 255
200 224 255
200 224 255
200 224 255
200 224 255
200 224 255
200 224 255
200 224 255
200 224 255
200 224 255
200 224 255
200 224 255
200 224 255
201 224 255
201 224 255
201 224 255
201 224 255
201 224 255
201 224 255
201 224 255
201 224 255
201 224 255
201 224 255
201 225 255
201 225 255
201 225 255
201 225 255
201 225 255
202 225 255
202 225 255
202 225 255
202 225 255
202 225 255
202 225 255
202 225 255
202 225 255
202 225 255
202 225 255
202 225 255
202 225 255
202 225 255
202 225 255
202 225 255
203 225 255
203 225 255
203 225 255
203 225 255
203 225 255
203 225 255
203 225 255
203 225 255
203 225 255
203 226 255
203 226 255
203 226 255
203 226 255
203 226 255
203 226 255
203 226 255
203 226 255
204 226 255
204 226 255
204 226 255
204 226 255
204 226 255
204 226 255
204 226 255
204 226 255
204 226 255
204 226 255
204 226 255
204 226 255
204 226 255
204 226 255
204 226 255
204 226 255
204 226 255
204 226 255
205 226 255
205 226 255
205 226 255
205 226 255
205 226 255
205 226 255
205 226 255
205 226 255
205 226 255
205 226 255
205 226 255
204 226 255
204 226 255
204 226 255
204 226 255
204 226 255
204 226 255
204 226 255
204 226 255
204 226 255
204 226 255
204 226 255
204 226 255
204 226 255
204 226 255
204 226 255
204 226 255
204 226 255
204 226 255
203 226 255
203 226 255
203 226 255
203 226 255
203 226 255
203 226 255
203 226 255
203 225 255
203 225 255
203 225 255
203 225 255
203 225 255
203 225 255
203 225 255
203 225 255
203 225 255
202 225 255
202 225 255
202 225 255
202 225 255
202 225 255
202 225 255
202 225 255
202 225 255
202 225 255
202 225 255
202 225 255
202 225 255
202 225 255
202 225 255
202 225 255
202 225 255
201 225 255
201 225 255
201 225 255
201 225 255
201 224 255
201 224 255
201 224 255
201 224 255
201 224 255
201 224 255
201 224 255
201 224 255
201 224 255
201 224 255
200 224 255
200 224 255
200 224 255
200 224 255
200 224 255
200 224 255
200 224 255
200 224 255
200 224 255
200 224 255
200 224 255
200 224 255
200 224 255
200 224 255
200 224 255
199 224 255
199 224 255
199 223 255
199 223 255
199 223 255
199 223 255
199 223 255
199 223 255
199 223 255
199 223 255
199 223 255
199 223 255
199 223 255
199 223 255
198 223 255
198 223 255
198 223 255
198 223 255
198 223 255
198 223 255
198 223 255
198 223 255
198 223 255
198 223 255
198 223 255
198 223 255
198 223 255
198 223 255
197 223 255
197 222 255
197 222 255
197 222 255
197 222 255
197 222 255
197 222 255
197 222 255
197 222 255
197 222 255
197 222 255
197 222 255
197 222 255
197 222 255
197 222 255
197 222 255
196 222 255
196 222 255
196 222 255
196 222 255
196 222 255
196 222 255
196 222 255
196 222 255
196 222 255
196 222 255
196 222 255
196 222 255
196 222 255
196 222 255
196 222 255
196 221 255
196 221 255
195 221 255
195 221 255
195 221 255
195 221 255
195 221 255
195 221 255
195 221 255
195 221 255
195 221 255
195 221 255
195 221 255
195 221 255
195 221 255
195 221 255
195 221 255
195 221 255
195 221 255
195 221 255
195 221 255
195 221 255
195 221 255
195 221 255
194 221 255
194 221 255
194 221 255
194 221 255
194 221 255
194 221 255
194 221 255
194 221 255
194 221 255
194 221 255
194 221 255
194 221 255
194 221 255
194 221 255
194 221 255
194 221 255
194 221 255
194 221 255
194 221 255
194 221 255
194 221 255
194 221 255
194 221 255
194 221 255
194 221 255
194 221 255
194 221 255
194 221 255
194 221 255
194 221 255
194 221 255
194 221 255
194 221 255
194 221 255
194 221 255
194 221 255
194 221 255
194 221 255
194 221 255
194 221 255
194 221 255
194 221 255
194 221 255
194 221 255
194 221 255
194 221 255
194 221 255
194 221 255
194 221 255
194 221 255
194 221 255
194 221 255
194 221 255
194 221 255
194 221 255
194 221 255
194 221 255
194 221 255
194 221 255
194 221 255
194 221 255
194 221 255
195 221 255
195 221 255
195 221 255
195 221 255
195 221 255
195 221 255
195 221 255
195 221 255
195 221 255
195 221 255
195 221 255
195 221 255
195 221 255
195 221 255
195 221 255
195 221 255
195 221 255
195 221 255
195 221 255
195 221 255
195 221 255
195 221 255
196 221 255
196 221 255
196 222 255
196 222 255
196 222 255
196 222 255
196 222 255
196 222 255
196 222 255
196 222 255
196 222 255
196 222 255
196 222 255
196 222 255
196 222 255
196 222 255
196 222 255
197 222 255
197 222 255
197 222 255
197 222 255
197 222 255
197 222 255
197 222 255
197 222 255
197 222 255
197 222 255
197 222 255
197 222 255
197 222 255
197 222 255
197 222 255
197 223 255
198 223 255
198 223 255
198 223 255
198 223 255
198 223 255
198 223 255
198 223 255
198 223 255
198 223 255
198 223 255
198 223 255
198 223 255
198 223 255
198 223 255
199 223 255
199 223 255
199 223 255
199 223 255
199 223 255
199 223 255
199 223 255
199 223 255
199 223 255
199 223 255
199 223 255
199 223 255
199 224 255
199 224 255
200 224 255
200 224 255
200 224 255
200 224 255
200 224 255
200 224 255
200 224 255
200 224 255
200 224 255
200 224 255
200 224 255
200 224 255
200 224 255
200 224 255
200 224 255
201 224 255
201 224 255
201 224 255
201 224 255
201 224 255
201 224 255
201 224 255
201 224 255
201 224 255
201 224 255
201 225 255
201 225 255
201 225 255
201 225 255
202 225 255
202 225 255
202 225 255
202 225 255
202 225 255
202 225 255
202 225 255
202 225 255
202 225 255
202 225 255
202 225 255
202 225 255
202 225 255
202 225 255
202 225 255
202 225 255
203 225 255
203 225 255
203 225 255
203 225 255
203 225 255
203 225 255
203 225 255
203 225 255
203 225 255
203 226 255
203 226 255
203 226 255
203 226 255
203 226 255
203 226 255
203 226 255
203 226 255
204 226 255
204 226 255
204 226 255
204 226 255
204 226 255
204 226 255
204 226 255
204 226 255
204 226 255
204 226 255
204 226 255
204 226 255
204 226 255
204 226 255
204 226 255
204 226 255
204 226 255
205 226 255
205 226 255
205 226 255
205 226 255
205 226 255
205 226 255
205 226 255
205 227 255
205 227 255
205 226 255
205 226 255
205 226 255
205 226 255
205 226 255
205 226 255
205 226 255
204 226 255
204 226 255
204 226 255
204 226 255
204 226 255
204 226 255
204 226 255
204 226 255
204 226 255
204 226 255
204 226 255
204 226 255
204 226 255
204 226 255
204 226 255
204 226 255
204 226 255
204 226 255
203 226 255
203 226 255
203 226 255
203 226 255
203 226 255
203 226 255
203 226 255
203 225 255
203 225 255
203 225 255
203 225 255
203 225 255
203 225 255
203 225 255
203 225 255
203 225 255
202 225 255
202 225 255
202 225 255
202 225 255
202 225 255
202 225 255
202 225 255
202 225 255
202 225 255
202 225 255
202 225 255
202 225 255
202 225 255
202 225 255
202 225 255
202 225 255
201 225 255
201 225 255
201 225 255
201 225 255
201 224 255
201 224 255
201 224 255
201 224 255
201 224 255
201 224 255
201 224 255
201 224 255
201 224 255
201 224 255
200 224 255
200 224 255
200 224 255
200 224 255
200 224 255
200 224 255
200 224 255
200 224 255
200 224 255
200 224 255
200 224 255
200 224 255
200 224 255
200 224 255
200 224 255
199 224 255
199 224 255
199 223 255
199 223 255
199 223 255
199 223 255
199 223 255
199 223 255
199 223 255
199 223 255
199 223 255
199 223 255
199 223 255
199 223 255
198 223 255
198 223 255
198 223 255
198 223 255
198 223 255
198 223 255
198 223 255
198 223 255
198 223 255
198 223 255
198 223 255
198 223 255
198 223 255
198 223 255
198 223 255
197 222 255
197 222 255
197 222 255
197 222 255
197 222 255
197 222 255
197 222 255
197 222 255
197 222 255
197 222 255
197 222 255
197 222 255
197 222 255
197 222 255
197 222 255
196 222 255
196 222 255
196 222 255
196 222 255
196 222 255
196 222 255
196 222 255
196 222 255
196 222 255
196 222 255
196 222 255
196 222 255
196 222 255
196 222 255
196 222 255
196 222 255
196 221 255
195 221 255
195 221 255
195 221 255
195 221 255
195 221 255
195 221 255
195 221 255
195 221 255
195 221 255
195 221 255
195 221 255
195 221 255
195 221 255
195 221 255
195 221 255
195 221 255
195 221 255
195 221 255
195 221 255
195 221 255
195 221 255
195 221 255
195 221 255
195 221 255
194 221 255
194 221 255
194 221 255
194 221 255
194 221 255
194 221 255
194 221 255
194 221 255
194 221 255
194 221 255
194 221 255
194 221 255
194 221 255
194 221 255
194 221 255
194 221 255
194 221 255
194 221 255
194 221 255
194 221 255
194 221 255
194 221 255
194 221 255
194 221 255
194 221 255
194 221 255
194 221 255
194 221 255
194 221 255
194 221 255
194 221 255
194 221 255
194 221 255
194 221 255
194 221 255
194 221 255
194 221 255
194 221 255
194 221 255
194 221 255
194 221 255
194 221 255
194 221 255
194 221 255
194 221 255
194 221 255
194 221 255
194 221 255
194 221 255
194 221 255
194 221 255
194 221 255
194 221 255
194 221 255
195 221 255
195 221 255
195 221 255
195 221 255
195 221 255
195 221 255
195 221 255
195 221 255
195 221 255
195 221 255
195 221 255
195 221 255
195 221 255
195 221 255
195 221 255
195 221 255
195 221 255
195 221 255
195 221 255
195 221 255
195 221 255
195 221 255
195 221 255
195 221 255
196 221 255
196 222 255
196 222 255
196 222 255
196 222 255
196 222 255
196 222 255
196 222 255
196 222 255
196 222 255
196 222 255
196 222 255
196 222 255
196 222 255
196 222 255
196 222 255
196 222 255
197 222 255
197 222 255
197 222 255
197 222 255
197 222 255
197 222 255
197 222 255
197 222 255
197 222 255
197 222 255
197 222 255
197 222 255
197 222 255
197 222 255
197 222 255
198 223 255
198 223 255
198 223 255
198 223 255
198 223 255
198 223 255
198 223 255
198 223 255
198 223 255
198 223 255
198 223 255
198 223 255
198 223 255
198 223 255
198 223 255
199 223 255
199 223 255
199 223 255
199 223 255
199 223 255
199 223 255
199 223 255
199 223 255
199 223 255
199 223 255
199 223 255
199 223 255
199 224 255
199 224 255
200 224 255
200 224 255
200 224 255
200 224 255
200 224 255
200 224 255
200 224 255
200 224 255
200 224 255
200 224 255
200 224 255
200 224 255
200 224 255
200 224 255
200 224 255
201 224 255
201 224 255
201 224 255
201 224 255
201 224 255
201 224 255
201 224 255
201 224 255
201 224 255
201 224 255
201 225 255
201 225 255
201 225 255
201 225 255
202 225 255
202 225 255
202 225 255
202 225 255
202 225 255
202 225 255
202 225 255
202 225 255
202 225 255
202 225 255
202 225 255
202 225 255
202 225 255
202 225 255
202 225 255
202 225 255
203 225 255
203 225 255
203 225 255
203 225 255
203 225 255
203 225 255
203 225 255
203 225 255
203 225 255
203 226 255
203 226 255
203 226 255
203 226 255
203 226 255
203 226 255
203 226 255
204 226 255
204 226 255
204 226 255
204 226 255
204 226 255
204 226 255
204 226 255
204 226 255
204 226 255
204 226 255
204 226 255
204 226 255
204 226 255
204 226 255
204 226 255
204 226 255
204 226 255
204 226 255
205 226 255
205 226 255
205 226 255
205 226 255
205 226 255
205 226 255
205 226 255
205 227 255
205 227 255
205 227 255
205 227 255
205 227 255
205 227 255
205 226 255
205 226 255
205 226 255
205 226 255
205 226 255
205 226 255
205 226 255
205 226 255
204 226 255
204 226 255
204 226 255
204 226 255
204 226 255
204 226 255
204 226 255
204 226 255
204 226 255
204 226 255
204 226 255
204 226 255
204 226 255
204 226 255
204 226 255
204 226 255
204 226 255
203 226 255
203 226 255
203 226 255
203 226 255
203 226 255
203 226 255
203 226 255
203 225 255
203 225 255
203 225 255
203 225 255
203 225 255
203 225 255
203 225 255
203 225 255
203 225 255
202 225 255
202 225 255
202 225 255
202 225 255
202 225 255
202 225 255
202 225 255
202 225 255
202 225 255
202 225 255
202 225 255
202 225 255
202 225 255
202 225 255
202 225 255
202 225 255
201 225 255
201 225 255
201 225 255
201 225 255
201 224 255
201 224 255
201 224 255
201 224 255
201 224 255
201 224 255
201 224 255
201 224 255
201 224 255
201 224 255
200 224 255
200 224 255
200 224 255
200 224 255
200 224 255
200 224 255
200 224 255
200 224 255
200 224 255
200 224 255
200 224 255
200 224 255
200 224 255
200 224 255
200 224 255
199 224 255
199 224 255
199 223 255
199 223 255
199 223 255
199 223 255
199 223 255
199 223 255
199 223 255
199 223 255
199 223 255
199 223 255
199 223 255
199 223 255
198 223 255
198 223 255
198 223 255
198 223 255
198 223 255
198 223 255
198 223 255
198 223 255
198 223 255
198 223 255
198 223 255
198 223 255
198 223 255
198 223 255
198 223 255
197 222 255
197 222 255
197 222 255
197 222 255
197 222 255
197 222 255
197 222 255
197 222 255
197 222 255
197 222 255
197 222 255
197 222 255
197 222 255
197 222 255
197 222 255
196 222 255
196 222 255
196 222 255
196 222 255
196 222 255
196 222 255
196 222 255
196 222 255
196 222 255
196 222 255
196 222 255
196 222 255
196 222 255
196 222 255
196 222 255
196 222 255
196 222 255
196 221 255
195 221 255
195 221 255
195 221 255
195 221 255
195 221 255
195 221 255
195 221 255
195 221 255
195 221 255
195 221 255
195 221 255
195 221 255
195 221 255
195 221 255
195 221 255
195 221 255
195 221 255
195 221 255
195 221 255
195 221 255
195 221 255
195 221 255
195 221 255
195 221 255
195 221 255
195 221 255
194 221 255
194 221 255
194 221 255
194 221 255
194 221 255
194 221 255
194 221 255
194 221 255
194 221 255
194 221 255
194 221 255
194 221 255
194 221 255
194 221 255
194 221 255
194 221 255
194 221 255
194 221 255
194 221 255
194 221 255
194 221 255
194 221 255
194 221 255
194 221 255
194 221 255
194 221 255
194 221 255
194 221 255
194 221 255
194 221 255
194 221 255
194 221 255
194 221 255
194 221 255
194 221 255
194 221 255
194 221 255
194 221 255
194 221 255
194 221 255
194 221 255
194 221 255
194 221 255
194 221 255
195 221 255
195 221 255
195 221 255
195 221 255
195 221 255
195 221 255
195 221 255
195 221 255
195 221 255
195 221 255
195 221 255
195 221 255
195 221 255
195 221 255
195 221 255
195 221 255
195 221 255
195 221 255
195 221 255
195 221 255
195 221 255
195 221 255
195 221 255
195 221 255
195 221 255
195 221 255
196 221 255
196 222 255
196 222 255
196 222 255
196 222 255
196 222 255
196 222 255
196 222 255
196 222 255
196 222 255
196 222 255
196 222 255
196 222 255
196 222 255
196 222 255
196 222 255
196 222 255
196 222 255
197 222 255
197 222 255
197 222 255
197 222 255
197 222 255
197 222 255
197 222 255
197 222 255
197 222 255
197 222 255
197 222 255
197 222 255
197 222 255
197 222 255
197 222 255
198 223 255
198 223 255
198 223 255
198 223 255
198 223 255
198 223 255
198 223 255
198 223 255
198 223 255
198 223 255
198 223 255
198 223 255
198 223 255
198 223 255
198 223 255
199 223 255
199 223 255
199 223 255
199 223 255
199 223 255
199 223 255
199 223 255
199 223 255
199 223 255
199 223 255
199 223 255
199 223 255
199 224 255
199 224 255
200 224 255
200 224 255
200 224 255
200 224 255
200 224 255
200 224 255
200 224 255
200 224 255
200 224 255
200 224 255
200 224 255
200 224 255
200 224 255
200 224 255
200 224 255
201 224 255
201 224 255
201 224 255
201 224 255
201 224 255
201 224 255
201 224 255
201 224 255
201 224 255
201 224 255
201 225 255
201 225 255
201 225 255
201 225 255
202 225 255
202 225 255
202 225 255
202 225 255
202 225 255
202 225 255
202 225 255
202 225 255
202 225 255
202 225 255
202 225 255
202 225 255
202 225 255
202 225 255
202 225 255
202 225 255
203 225 255
203 225 255
203 225 255
203 225 255
203 225 255
203 225 255
203 225 255
203 225 255
203 225 255
203 226 255
203 226 255
203 226 255
203 226 255
203 226 255
203 226 255
203 226 255
204 226 255
204 226 255
204 226 255
204 226 255
204 226 255
204 226 255
204 226 255
204 226 255
204 226 255
204 226 255
204 226 255
204 226 255
204 226 255
204 226 255
204 226 255
204 226 255
204 226 255
204 226 255
205 226 255
205 226 255
205 226 255
205 226 255
205 226 255
205 226 255
205 226 255
205 227 255
205 227 255
205 227 255
205 227 255
205 227 255
205 227 255
205 227 255
205 227 255
205 227 255
205 227 255
205 227 255
205 226 255
205 226 255
205 226 255
205 226 255
205 226 255
205 226 255
205 226 255
204 226 255
204 226 255
204 226 255
204 226 255
204 226 255
204 226 255
204 226 255
204 226 255
204 226 255
204 226 255
204 226 255
204 226 255
204 226 255
204 226 255
204 226 255
204 226 255
204 226 255
203 226 255
203 226 255
203 226 255
203 226 255
203 226 255
203 226 255
203 226 255
203 226 255
203 225 255
203 225 255
203 225 255
203 225 255
203 225 255
203 225 255
203 225 255
203 225 255
202 225 255
202 225 255
202 225 255
202 225 255
202 225 255
202 225 255
202 225 255
202 225 255
202 225 255
202 225 255
202 225 255
202 225 255
202 225 255
202 225 255
202 225 255
202 225 255
201 225 255
201 225 255
201 225 255
201 225 255
201 224 255
201 224 255
201 224 255
201 224 255
201 224 255
201 224 255
201 224 255
201 224 255
201 224 255
201 224 255
201 224 255
200 224 255
200 224 255
200 224 255
200 224 255
200 224 255
200 224 255
200 224 255
200 224 255
200 224 255
200 224 255
200 224 255
200 224 255
200 224 255
200 224 255
199 224 255
199 224 255
199 223 255
199 223 255
199 223 255
199 223 255
199 223 255
199 223 255
199 223 255
199 223 255
199 223 255
199 223 255
199 223 255
199 223 255
198 223 255
198 223 255
198 223 255
198 223 255
198 223 255
198 223 255
198 223 255
198 223 255
198 223 255
198 223 255
198 223 255
198 223 255
198 223 255
198 223 255
198 223 255
197 223 255
197 222 255
197 222 255
197 222 255
197 222 255
197 222 255
197 222 255
197 222 255
197 222 255
197 222 255
197 222 255
197 222 255
197 222 255
197 222 255
197 222 255
197 222 255
196 222 255
196 222 255
196 222 255
196 222 255
196 222 255
196 222 255
196 222 255
196 222 255
196 222 255
196 222 255
196 222 255
196 222 255
196 222 255
196 222 255
196 222 255
196 222 255
196 222 255
196 221 255
195 221 255
195 221 255
195 221 255
195 221 255
195 221 255
195 221 255
195 221 255
195 221 255
195 221 255
195 221 255
195 221 255
195 221 255
195 221 255
195 221 255
195 221 255
195 221 255
195 221 255
195 221 255
195 221 255
195 221 255
195 221 255
195 221 255
195 221 255
195 221 255
195 221 255
195 221 255
195 221 255
195 221 255
195 221 255
195 221 255
194 221 255
194 221 255
194 221 255
194 221 255
194 221 255
194 221 255
194 221 255
194 221 255
194 221 255
194 221 255
194 221 255
194 221 255
194 221 255
194 221 255
194 221 255
194 221 255
194 221 255
194 221 255
194 221 255
194 221 255
194 221 255
194 221 255
194 221 255
194 221 255
194 221 255
194 221 255
194 221 255
194 221 255
194 221 255
194 221 255
195 221 255
195 221 255
195 221 255
195 221 255
195 221 255
195 221 255
195 221 255
195 221 255
195 221 255
195 221 255
195 221 255
195 221 255
195 221 255
195 221 255
195 221 255
195 221 255
195 221 255
195 221 255
195 221 255
195 221 255
195 221 255
195 221 255
195 221 255
195 221 255
195 221 255
195 221 255
195 221 255
195 221 255
195 221 255
195 221 255
196 221 255
196 222 255
196 222 255
196 222 255
196 222 255
196 222 255
196 222 255
196 222 255
196 222 255
196 222 255
196 222 255
196 222 255
196 222 255
196 222 255
196 222 255
196 222 255
196 222 255
196 222 255
197 222 255
197 222 255
197 222 255
197 222 255
197 222 255
197 222 255
197 222 255
197 222 255
197 222 255
197 222 255
197 222 255
197 222 255
197 222 255
197 222 255
197 222 255
197 223 255
198 223 255
198 223 255
198 223 255
198 223 255
198 223 255
198 223 255
198 223 255
198 223 255
198 223 255
198 223 255
198 223 255
198 223 255
198 223 255
198 223 255
198 223 255
199 223 255
199 223 255
199 223 255
199 223 255
199 223 255
199 223 255
199 223 255
199 223 255
199 223 255
199 223 255
199 223 255
199 223 255
199 224 255
199 224 255
200 224 255
200 224 255
200 224 255
200 224 255
200 224 255
200 224 255
200 224 255
200 224 255
200 224 255
200 224 255
200 224 255
200 224 255
200 224 255
200 224 255
201 224 255
201 224 255
201 224 255
201 224 255
201 224 255
201 224 255
201 224 255
201 224 255
201 224 255
201 224 255
201 224 255
201 225 255
201 225 255
201 225 255
201 225 255
202 225 255
202 225 255
202 225 255
202 225 255
202 225 255
202 225 255
202 225 255
202 225 255
202 225 255
202 225 255
202 225 255
202 225 255
202 225 255
202 225 255
202 225 255
203 225 255
203 225 255
203 225 255
203 225 255
203 225 255
203 225 255
203 225 255
203 225 255
203 225 255
203 226 255
203 226 255
203 226 255
203 226 255
203 226 255
203 226 255
203 226 255
203 226 255
204 226 255
204 226 255
204 226 255
204 226 255
204 226 255
204 226 255
204 226 255
204 226 255
204 226 255
204 226 255
204 226 255
204 226 255
204 226 255
204 226 255
204 226 255
204 226 255
204 226 255
205 226 255
205 226 255
205 226 255
205 226 255
205 226 255
205 226 255
205 226 255
205 227 255
205 227 255
205 227 255
205 227 255
205 227 255
205 227 255
205 227 255
205 227 255
205 227 255
205 227 255
205 227 255
205 227 255
205 227 255
205 227 255
205 227 255
205 227 255
205 226 255
205 226 255
205 226 255
205 226 255
205 226 255
205 226 255
205 226 255
204 226 255
204 226 255
204 226 255
204 226 255
204 226 255
204 226 255
204 226 255
204 226 255
204 226 255
204 226 255
204 226 255
204 226 255
204 226 255
204 226 255
204 226 255
204 226 255
204 226 255
204 226 255
203 226 255
203 226 255
203 226 255
203 226 255
203 226 255
203 226 255
203 226 255
203 225 255
203 225 255
203 225 255
203 225 255
203 225 255
203 225 255
203 225 255
203 225 255
203 225 255
202 225 255
202 225 255
202 225 255
202 225 255
202 225 255
202 225 255
202 225 255
202 225 255
202 225 255
202 225 255
202 225 255
202 225 255
202 225 255
202 225 255
202 225 255
201 225 255
201 225 255
201 225 255
201 225 255
201 224 255
201 224 255
201 224 255
201 224 255
201 224 255
201 224 255
201 224 255
201 224 255
201 224 255
201 224 255
201 224 255
200 224 255
200 224 255
200 224 255
200 224 255
200 224 255
200 224 255
200 224 255
200 224 255
200 224 255
200 224 255
200 224 255
200 224 255
200 224 255
200 224 255
199 224 255
199 224 255
199 223 255
199 223 255
199 223 255
199 223 255
199 223 255
199 223 255
199 223 255
199 223 255
199 223 255
199 223 255
199 223 255
199 223 255
199 223 255
198 223 255
198 223 255
198 223 255
198 223 255
198 223 255
198 223 255
198 223 255
198 223 255
198 223 255
198 223 255
198 223 255
198 223 255
198 223 255
198 223 255
197 223 255
197 222 255
197 222 255
197 222 255
197 222 255
197 222 255
197 222 255
197 222 255
197 222 255
197 222 255
197 222 255
197 222 255
197 222 255
197 222 255
197 222 255
197 222 255
197 222 255
196 222 255
196 222 255
196 222 255
196 222 255
196 222 255
196 222 255
196 222 255
196 222 255
196 222 255
196 222 255
196 222 255
196 222 255
196 222 255
196 222 255
196 222 255
196 222 255
196 222 255
196 221 255
196 221 255
195 221 255
195 221 255
195 221 255
195 221 255
195 221 255
195 221 255
195 221 255
195 221 255
195 221 255
195 221 255
195 221 255
195 221 255
195 221 255
195 221 255
195 221 255
195 221 255
195 221 255
195 221 255
195 221 255
195 221 255
195 221 255
195 221 255
195 221 255
195 221 255
195 221 255
195 221 255
195 221 255
195 221 255
195 221 255
195 221 255
195 221 255
195 221 255
195 221 255
195 221 255
195 221 255
195 221 255
195 221 255
195 221 255
195 221 255
195 221 255
195 221 255
195 221 255
195 221 255
195 221 255
195 221 255
195 221 255
195 221 255
195 221 255
195 221 255
195 221 255
195 221 255
195 221 255
195 221 255
195 221 255
195 221 255
195 221 255
195 221 255
195 221 255
195 221 255
195 221 255
195 221 255
195 221 255
195 221 255
195 221 255
195 221 255
195 221 255
195 221 255
195 221 255
195 221 255
195 221 255
195 221 255
195 221 255
195 221 255
195 221 255
195 221 255
195 221 255
195 221 255
195 221 255
195 221 255
195 221 255
195 221 255
195 221 255
196 221 255
196 221 255
196 222 255
196 222 255
196 222 255
196 222 255
196 222 255
196 222 255
196 222 255
196 222 255
196 222 255
196 222 255
196 222 255
196 222 255
196 222 255
196 222 255
196 222 255
196 222 255
196 222 255
197 222 255
197 222 255
197 222 255
197 222 255
197 222 255
197 222 255
197 222 255
197 222 255
197 222 255
197 222 255
197 222 255
197 222 255
197 222 255
197 222 255
197 222 255
197 222 255
197 223 255
198 223 255
198 223 255
198 223 255
198 223 255
198 223 255
198 223 255
198 223 255
198 223 255
198 223 255
198 223 255
198 223 255
198 223 255
198 223 255
198 223 255
199 223 255
199 223 255
199 223 255
199 223 255
199 223 255
199 223 255
199 223 255
199 223 255
199 223 255
199 223 255
199 223 255
199 223 255
199 223 255
199 224 255
199 224 255
200 224 255
200 224 255
200 224 255
200 224 255
200 224 255
200 224 255
200 224 255
200 224 255
200 224 255
200 224 255
200 224 255
200 224 255
200 224 255
200 224 255
201 224 255
201 224 255
201 224 255
201 224 255
201 224 255
201 224 255
201 224 255
201 224 255
201 224 255
201 224 255
201 225 255
201 225 255
201 225 255
201 225 255
201 225 255
202 225 255
202 225 255
202 225 255
202 225 255
202 225 255
202 225 255
202 225 255
202 225 255
202 225 255
202 225 255
202 225 255
202 225 255
202 225 255
202 225 255
202 225 255
203 225 255
203 225 255
203 225 255
203 225 255
203 225 255
203 225 255
203 225 255
203 225 255
203 225 255
203 226 255
203 226 255
203 226 255
203 226 255
203 226 255
203 226 255
203 226 255
204 226 255
204 226 255
204 226 255
204 226 255
204 226 255
204 226 255
204 226 255
204 226 255
204 226 255
204 226 255
204 226 255
204 226 255
204 226 255
204 226 255
204 226 255
204 226 255
204 226 255
204 226 255
205 226 255
205 226 255
205 226 255
205 226 255
205 226 255
205 226 255
205 226 255
205 227 255
205 227 255
205 227 255
205 227 255
205 227 255
205 227 255
205 227 255
205 227 255
205 227 255
205 227 255
205 227 255
205 227 255
205 227 255
205 227 255
205 227 255
205 227 255
205 227 255
205 227 255
205 227 255
205 227 255
205 227 255
205 226 255
205 226 255
205 226 255
205 226 255
205 226 255
205 226 255
205 226 255
204 226 255
204 226 255
204 226 255
204 226 255
204 226 255
204 226 255
204 226 255
204 226 255
204 226 255
204 226 255
204 226 255
204 226 255
204 226 255
204 226 255
204 226 255
204 226 255
204 226 255
203 226 255
203 226 255
203 226 255
203 226 255
203 226 255
203 226 255
203 226 255
203 225 255
203 225 255
203 225 255
203 225 255
203 225 255
203 225 255
203 225 255
203 225 255
203 225 255
202 225 255
202 225 255
202 225 255
202 225 255
202 225 255
202 225 255
202 225 255
202 225 255
202 225 255
202 225 255
202 225 255
202 225 255
202 225 255
202 225 255
202 225 255
201 225 255
201 225 255
201 225 255
201 225 255
201 225 255
201 224 255
201 224 255
201 224 255
201 224 255
201 224 255
201 224 255
201 224 255
201 224 255
201 224 255
201 224 255
200 224 255
200 224 255
200 224 255
200 224 255
200 224 255
200 224 255
200 224 255
200 224 255
200 224 255
200 224 255
200 224 255
200 224 255
200 224 255
200 224 255
199 224 255
199 224 255
199 224 255
199 223 255
199 223 255
199 223 255
199 223 255
199 223 255
199 223 255
199 223 255
199 223 255
199 223 255
199 223 255
199 223 255
199 223 255
198 223 255
198 223 255
198 223 255
198 223 255
198 223 255
198 223 255
198 223 255
198 223 255
198 223 255
198 223 255
198 223 255
198 223 255
198 223 255
198 223 255
198 223 255
197 222 255
197 222 255
197 222 255
197 222 255
197 222 255
197 222 255
197 222 255
197 222 255
197 222 255
197 222 255
197 222 255
197 222 255
197 222 255
197 222 255
197 222 255
197 222 255
196 222 255
196 222 255
196 222 255
196 222 255
196 222 255
196 222 255
196 222 255
196 222 255
196 222 255
196 222 255
196 222 255
196 222 255
196 222 255
196 222 255
196 222 255
196 222 255
196 222 255
196 222 255
196 221 255
196 221 255
195 221 255
195 221 255
195 221 255
195 221 255
195 221 255
195 221 255
195 221 255
195 221 255
195 221 255
195 221 255
195 221 255
195 221 255
195 221 255
195 221 255
195 221 255
195 221 255
195 221 255
195 221 255
195 221 255
195 221 255
195 221 255
195 221 255
195 221 255
195 221 255
195 221 255
195 221 255
195 221 255
195 221 255
195 221 255
195 221 255
195 221 255
195 221 255
195 221 255
195 221 255
195 221 255
195 221 255
195 221 255
195 221 255
195 221 255
195 221 255
195 221 255
195 221 255
195 221 255
195 221 255
195 221 255
195 221 255
195 221 255
195 221 255
195 221 255
195 221 255
195 221 255
195 221 255
195 221 255
195 221 255
195 221 255
195 221 255
195 221 255
195 221 255
195 221 255
195 221 255
195 221 255
195 221 255
195 221 255
195 221 255
195 221 255
195 221 255
195 221 255
195 221 255
195 221 255
195 221 255
195 221 255
195 221 255
195 221 255
195 221 255
195 221 255
195 221 255
196 221 255
196 221 255
196 222 255
196 222 255
196 222 255
196 222 255
196 222 255
196 222 255
196 222 255
196 222 255
196 222 255
196 222 255
196 222 255
196 222 255
196 222 255
196 222 255
196 222 255
196 222 255
196 222 255
196 222 255
197 222 255
197 222 255
197 222 255
197 222 255
197 222 255
197 222 255
197 222 255
197 222 255
197 222 255
197 222 255
197 222 255
197 222 255
197 222 255
197 222 255
197 222 255
197 222 255
198 223 255
198 223 255
198 223 255
198 223 255
198 223 255
198 223 255
198 223 255
198 223 255
198 223 255
198 223 255
198 223 255
198 223 255
198 223 255
198 223 255
198 223 255
199 223 255
199 223 255
199 223 255
199 223 255
199 223 255
199 223 255
199 223 255
199 223 255
199 223 255
199 223 255
199 223 255
199 223 255
199 224 255
199 224 255
199 224 255
200 224 255
200 224 255
200 224 255
200 224 255
200 224 255
200 224 255
200 224 255
200 224 255
200 224 255
200 224 255
200 224 255
200 224 255
200 224 255
200 224 255
201 224 255
201 224 255
201 224 255
201 224 255
201 224 255
201 224 255
201 224 255
201 224 255
201 224 255
201 224 255
201 225 255
201 225 255
201 225 255
201 225 255
201 225 255
202 225 255
202 225 255
202 225 255
202 225 255
202 225 255
202 225 255
202 225 255
202 225 255
202 225 255
202 225 255
202 225 255
202 225 255
202 225 255
202 225 255
202 225 255
203 225 255
203 225 255
203 225 255
203 225 255
203 225 255
203 225 255
203 225 255
203 225 255
203 225 255
203 226 255
203 226 255
203 226 255
203 226 255
203 226 255
203 226 255
203 226 255
204 226 255
204 226 255
204 226 255
204 226 255
204 226 255
204 226 255
204 226 255
204 226 255
204 226 255
204 226 255
204 226 255
204 226 255
204 226 255
204 226 255
204 226 255
204 226 255
204 226 255
205 226 255
205 226 255
205 226 255
205 226 255
205 226 255
205 226 255
205 226 255
205 227 255
205 227 255
205 227 255
205 227 255
205 227 255
205 227 255
205 227 255
205 227 255
205 227 255
205 227 255
205 227 255
205 227 255
206 227 255
206 227 255
206 227 255
205 227 255
205 227 255
205 227 255
205 227 255
205 227 255
205 227 255
205 227 255
205 227 255
205 227 255
205 227 255
205 227 255
205 226 255
205 226 255
205 226 255
205 226 255
205 226 255
205 226 255
205 226 255
204 226 255
204 226 255
204 226 255
204 226 255
204 226 255
204 226 255
204 226 255
204 226 255
204 226 255
204 226 255
204 226 255
204 226 255
204 226 255
204 226 255
204 226 255
204 226 255
204 226 255
203 226 255
203 226 255
203 226 255
203 226 255
203 226 255
203 226 255
203 226 255
203 226 255
203 225 255
203 225 255
203 225 255
203 225 255
203 225 255
203 225 255
203 225 255
203 225 255
202 225 255
202 225 255
202 225 255
202 225 255
202 225 255
202 225 255
202 225 255
202 225 255
202 225 255
202 225 255
202 225 255
202 225 255
202 225 255
202 225 255
202 225 255
202 225 255
201 225 255
201 225 255
201 225 255
201 225 255
201 224 255
201 224 255
201 224 255
201 224 255
201 224 255
201 224 255
201 224 255
201 224 255
201 224 255
201 224 255
200 224 255
200 224 255
200 224 255
200 224 255
200 224 255
200 224 255
200 224 255
200 224 255
200 224 255
200 224 255
200 224 255
200 224 255
200 224 255
200 224 255
200 224 255
199 224 255
199 224 255
199 223 255
199 223 255
199 223 255
199 223 255
199 223 255
199 223 255
199 223 255
199 223 255
199 223 255
199 223 255
199 223 255
199 223 255
198 223 255
198 223 255
198 223 255
198 223 255
198 223 255
198 223 255
198 223 255
198 223 255
198 223 255
198 223 255
198 223 255
198 223 255
198 223 255
198 223 255
198 223 255
197 223 255
197 222 255
197 222 255
197 222 255
197 222 255
197 222 255
197 222 255
197 222 255
197 222 255
197 222 255
197 222 255
197 222 255
197 222 255
197 222 255
197 222 255
197 222 255
197 222 255
196 222 255
196 222 255
196 222 255
196 222 255
196 222 255
196 222 255
196 222 255
196 222 255
196 222 255
196 222 255
196 222 255
196 222 255
196 222 255
196 222 255
196 222 255
196 222 255
196 222 255
196 222 255
196 222 255
196 221 255
196 221 255
195 221 255
195 221 255
195 221 255
195 221 255
195 221 255
195 221 255
195 221 255
195 221 255
195 221 255
195 221 255
195 221 255
195 221 255
195 221 255
195 221 255
195 221 255
195 221 255
195 221 255
195 221 255
195 221 255
195 221 255
195 221 255
195 221 255
195 221 255
195 221 255
195 221 255
195 221 255
195 221 255
195 221 255
195 221 255
195 221 255
195 221 255
195 221 255
195 221 255
195 221 255
195 221 255
195 221 255
195 221 255
195 221 255
195 221 255
195 221 255
195 221 255
195 221 255
195 221 255
195 221 255
195 221 255
195 221 255
195 221 255
195 221 255
195 221 255
195 221 255
195 221 255
195 221 255
195 221 255
195 221 255
195 221 255
195 221 255
195 221 255
195 221 255
195 221 255
195 221 255
195 221 255
195 221 255
195 221 255
195 221 255
195 221 255
195 221 255
195 221 255
195 221 255
196 221 255
196 221 255
196 222 255
196 222 255
196 222 255
196 222 255
196 222 255
196 222 255
196 222 255
196 222 255
196 222 255
196 222 255
196 222 255
196 222 255
196 222 255
196 222 255
196 222 255
196 222 255
196 222 255
196 222 255
196 222 255
197 222 255
197 222 255
197 222 255
197 222 255
197 222 255
197 222 255
197 222 255
197 222 255
197 222 255
197 222 255
197 222 255
197 222 255
197 222 255
197 222 255
197 222 255
197 222 255
197 223 255
198 223 255
198 223 255
198 223 255
198 223 255
198 223 255
198 223 255
198 223 255
198 223 255
198 223 255
198 223 255
198 223 255
198 223 255
198 223 255
198 223 255
198 223 255
199 223 255
199 223 255
199 223 255
199 223 255
199 223 255
199 223 255
199 223 255
199 223 255
199 223 255
199 223 255
199 223 255
199 223 255
199 224 255
199 224 255
200 224 255
200 224 255
200 224 255
200 224 255
200 224 255
200 224 255
200 224 255
200 224 255
200 224 255
200 224 255
200 224 255
200 224 255
200 224 255
200 224 255
200 224 255
201 224 255
201 224 255
201 224 255
201 224 255
201 224 255
201 224 255
201 224 255
201 224 255
201 224 255
201 224 255
201 225 255
201 225 255
201 225 255
201 225 255
202 225 255
202 225 255
202 225 255
202 225 255
202 225 255
202 225 255
202 225 255
202 225 255
202 225 255
202 225 255
202 225 255
202 225 255
202 225 255
202 225 255
202 225 255
202 225 255
203 225 255
203 225 255
203 225 255
203 225 255
203 225 255
203 225 255
203 225 255
203 225 255
203 226 255
203 226 255
203 226 255
203 226 255
203 226 255
203 226 255
203 226 255
203 226 255
204 226 255
204 226 255
204 226 255
204 226 255
204 226 255
204 226 255
204 226 255
204 226 255
204 226 255
204 226 255
204 226 255
204 226 255
204 226 255
204 226 255
204 226 255
204 226 255
204 226 255
205 226 255
205 226 255
205 226 255
205 226 255
205 226 255
205 226 255
205 226 255
205 227 255
205 227 255
205 227 255
205 227 255
205 227 255
205 227 255
205 227 255
205 227 255
205 227 255
205 227 255
205 227 255
206 227 255
206 227 255
206 227 255
206 227 255
206 227 255
206 227 255
206 227 255
206 227 255
205 227 255
205 227 255
205 227 255
205 227 255
205 227 255
205 227 255
205 227 255
205 227 255
205 227 255
205 227 255
205 227 255
205 226 255
205 226 255
205 226 255
205 226 255
205 226 255
205 226 255
205 226 255
205 226 255
204 226 255
204 226 255
204 226 255
204 226 255
204 226 255
204 226 255
204 226 255
204 226 255
204 226 255
204 226 255
204 226 255
204 226 255
204 226 255
204 226 255
204 226 255
204 226 255
204 226 255
203 226 255
203 226 255
203 226 255
203 226 255
203 226 255
203 226 255
203 226 255
203 225 255
203 225 255
203 225 255
203 225 255
203 225 255
203 225 255
203 225 255
203 225 255
203 225 255
202 225 255
202 225 255
202 225 255
202 225 255
202 225 255
202 225 255
202 225 255
202 225 255
202 225 255
202 225 255
202 225 255
202 225 255
202 225 255
202 225 255
202 225 255
201 225 255
201 225 255
201 225 255
201 225 255
201 224 255
201 224 255
201 224 255
201 224 255
201 224 255
201 224 255
201 224 255
201 224 255
201 224 255
201 224 255
201 224 255
200 224 255
200 224 255
200 224 255
200 224 255
200 224 255
200 224 255
200 224 255
200 224 255
200 224 255
200 224 255
200 224 255
200 224 255
200 224 255
200 224 255
199 224 255
199 224 255
199 223 255
199 223 255
199 223 255
199 223 255
199 223 255
199 223 255
199 223 255
199 223 255
199 223 255
199 223 255
199 223 255
199 223 255
198 223 255
198 223 255
198 223 255
198 223 255
198 223 255
198 223 255
198 223 255
198 223 255
198 223 255
198 223 255
198 223 255
198 223 255
198 223 255
198 223 255
198 223 255
198 223 255
197 222 255
197 222 255
197 222 255
197 222 255
197 222 255
197 222 255
197 222 255
197 222 255
197 222 255
197 222 255
197 222 255
197 222 255
197 222 255
197 222 255
197 222 255
197 222 255
197 222 255
196 222 255
196 222 255
196 222 255
196 222 255
196 222 255
196 222 255
196 222 255
196 222 255
196 222 255
196 222 255
196 222 255
196 222 255
196 222 255
196 222 255
196 222 255
196 222 255
196 222 255
196 222 255
196 222 255
196 222 255
196 221 255
196 221 255
195 221 255
195 221 255
195 221 255
195 221 255
195 221 255
195 221 255
195 221 255
195 221 255
195 221 255
195 221 255
195 221 255
195 221 255
195 221 255
195 221 255
195 221 255
195 221 255
195 221 255
195 221 255
195 221 255
195 221 255
195 221 255
195 221 255
195 221 255
195 221 255
195 221 255
195 221 255
195 221 255
195 221 255
195 221 255
195 221 255
195 221 255
195 221 255
195 221 255
195 221 255
195 221 255
195 221 255
195 221 255
195 221 255
195 221 255
195 221 255
195 221 255
195 221 255
195 221 255
195 221 255
195 221 255
195 221 255
195 221 255
195 221 255
195 221 255
195 221 255
195 221 255
195 221 255
195 221 255
195 221 255
195 221 255
195 221 255
195 221 255
195 221 255
195 221 255
195 221 255
196 221 255
196 221 255
196 222 255
196 222 255
196 222 255
196 222 255
196 222 255
196 222 255
196 222 255
196 222 255
196 222 255
196 222 255
196 222 255
196 222 255
196 222 255
196 222 255
196 222 255
196 222 255
196 222 255
196 222 255
196 222 255
196 222 255
197 222 255
197 222 255
197 222 255
197 222 255
197 222 255
197 222 255
197 222 255
197 222 255
197 222 255
197 222 255
197 222 255
197 222 255
197 222 255
197 222 255
197 222 255
197 222 255
197 222 255
198 223 255
198 223 255
198 223 255
198 223 255
198 223 255
198 223 255
198 223 255
198 223 255
198 223 255
198 223 255
198 223 255
198 223 255
198 223 255
198 223 255
198 223 255
198 223 255
199 223 255
199 223 255
199 223 255
199 223 255
199 223 255
199 223 255
199 223 255
199 223 255
199 223 255
199 223 255
199 223 255
199 223 255
199 224 255
199 224 255
200 224 255
200 224 255
200 224 255
200 224 255
200 224 255
200 224 255
200 224 255
200 224 255
200 224 255
200 224 255
200 224 255
200 224 255
200 224 255
200 224 255
200 224 255
201 224 255
201 224 255
201 224 255
201 224 255
201 224 255
201 224 255
201 224 255
201 224 255
201 224 255
201 224 255
201 225 255
201 225 255
201 225 255
201 225 255
202 225 255
202 225 255
202 225 255
202 225 255
202 225 255
202 225 255
202 225 255
202 225 255
202 225 255
202 225 255
202 225 255
202 225 255
202 225 255
202 225 255
202 225 255
203 225 255
203 225 255
203 225 255
203 225 255
203 225 255
203 225 255
203 225 255
203 225 255
203 225 255
203 226 255
203 226 255
203 226 255
203 226 255
203 226 255
203 226 255
203 226 255
204 226 255
204 226 255
204 226 255
204 226 255
204 226 255
204 226 255
204 226 255
204 226 255
204 226 255
204 226 255
204 226 255
204 226 255
204 226 255
204 226 255
204 226 255
204 226 255
204 226 255
205 226 255
205 226 255
205 226 255
205 226 255
205 226 255
205 226 255
205 226 255
205 226 255
205 227 255
205 227 255
205 227 255
205 227 255
205 227 255
205 227 255
205 227 255
205 227 255
205 227 255
205 227 255
205 227 255
206 227 255
206 227 255
206 227 255
206 227 255
206 227 255
206 227 255
206 227 255
206 227 255
206 227 255
206 227 255
206 227 255
206 227 255
206 227 255
205 227 255
205 227 255
205 227 255
205 227 255
205 227 255
205 227 255
205 227 255
205 227 255
205 227 255
205 227 255
205 227 255
205 226 255
205 226 255
205 226 255
205 226 255
205 226 255
205 226 255
205 226 255
204 226 255
204 226 255
204 226 255
204 226 255
204 226 255
204 226 255
204 226 255
204 226 255
204 226 255
204 226 255
204 226 255
204 226 255
204 226 255
204 226 255
204 226 255
204 226 255
204 226 255
203 226 255
203 226 255
203 226 255
203 226 255
203 226 255
203 226 255
203 226 255
203 225 255
203 225 255
203 225 255
203 225 255
203 225 255
203 225 255
203 225 255
203 225 255
203 225 255
202 225 255
202 225 255
202 225 255
202 225 255
202 225 255
202 225 255
202 225 255
202 225 255
202 225 255
202 225 255
202 225 255
202 225 255
202 225 255
202 225 255
202 225 255
201 225 255
201 225 255
201 225 255
201 225 255
201 224 255
201 224 255
201 224 255
201 224 255
201 224 255
201 224 255
201 224 255
201 224 255
201 224 255
201 224 255
201 224 255
200 224 255
200 224 255
200 224 255
200 224 255
200 224 255
200 224 255
200 224 255
200 224 255
200 224 255
200 224 255
200 224 255
200 224 255
200 224 255
200 224 255
199 224 255
199 224 255
199 223 255
199 223 255
199 223 255
199 223 255
199 223 255
199 223 255
199 223 255
199 223 255
199 223 255
199 223 255
199 223 255
199 223 255
199 223 255
198 223 255
198 223 255
198 223 255
198 223 255
198 223 255
198 223 255
198 223 255
198 223 255
198 223 255
198 223 255
198 223 255
198 223 255
198 223 255
198 223 255
198 223 255
197 223 255
197 222 255
197 222 255
197 222 255
197 222 255
197 222 255
197 222 255
197 222 255
197 222 255
197 222 255
197 222 255
197 222 255
197 222 255
197 222 255
197 222 255
197 222 255
197 222 255
197 222 255
196 222 255
196 222 255
196 222 255
196 222 255
196 222 255
196 222 255
196 222 255
196 222 255
196 222 255
196 222 255
196 222 255
196 222 255
196 222 255
196 222 255
196 222 255
196 222 255
196 222 255
196 222 255
196 222 255
196 222 255
196 222 255
196 221 255
196 221 255
196 221 255
195 221 255
195 221 255
195 221 255
195 221 255
195 221 255
195 221 255
195 221 255
195 221 255
195 221 255
195 221 255
195 221 255
195 221 255
195 221 255
195 221 255
195 221 255
195 221 255
195 221 255
195 221 255
195 221 255
195 221 255
195 221 255
195 221 255
195 221 255
195 221 255
195 221 255
195 221 255
195 221 255
195 221 255
195 221 255
195 221 255
195 221 255
195 221 255
195 221 255
195 221 255
195 221 255
195 221 255
195 221 255
195 221 255
195 221 255
195 221 255
195 221 255
195 221 255
195 221 255
195 221 255
195 221 255
195 221 255
195 221 255
195 221 255
195 221 255
195 221 255
196 221 255
196 221 255
196 221 255
196 222 255
196 222 255
196 222 255
196 222 255
196 222 255
196 222 255
196 222 255
196 222 255
196 222 255
196 222 255
196 222 255
196 222 255
196 222 255
196 222 255
196 222 255
196 222 255
196 222 255
196 222 255
196 222 255
196 222 255
196 222 255
197 222 255
197 222 255
197 222 255
197 222 255
197 222 255
197 222 255
197 222 255
197 222 255
197 222 255
197 222 255
197 222 255
197 222 255
197 222 255
197 222 255
197 222 255
197 222 255
197 222 255
197 223 255
198 223 255
198 223 255
198 223 255
198 223 255
198 223 255
198 223 255
198 223 255
198 223 255
198 223 255
198 223 255
198 223 255
198 223 255
198 223 255
198 223 255
198 223 255
199 223 255
199 223 255
199 223 255
199 223 255
199 223 255
199 223 255
199 223 255
199 223 255
199 223 255
199 223 255
199 223 255
199 223 255
199 223 255
199 224 255
199 224 255
200 224 255
200 224 255
200 224 255
200 224 255
200 224 255
200 224 255
200 224 255
200 224 255
200 224 255
200 224 255
200 224 255
200 224 255
200 224 255
200 224 255
201 224 255
201 224 255
201 224 255
201 224 255
201 224 255
201 224 255
201 224 255
201 224 255
201 224 255
201 224 255
201 225 255
201 225 255
201 225 255
201 225 255
201 225 255
202 225 255
202 225 255
202 225 255
202 225 255
202 225 255
202 225 255
202 225 255
202 225 255
202 225 255
202 225 255
202 225 255
202 225 255
202 225 255
202 225 255
202 225 255
203 225 255
203 225 255
203 225 255
203 225 255
203 225 255
203 225 255
203 225 255
203 225 255
203 225 255
203 226 255
203 226 255
203 226 255
203 226 255
203 226 255
203 226 255
203 226 255
204 226 255
204 226 255
204 226 255
204 226 255
204 226 255
204 226 255
204 226 255
204 226 255
204 226 255
204 226 255
204 226 255
204 226 255
204 226 255
204 226 255
204 226 255
204 226 255
204 226 255
205 226 255
205 226 255
205 226 255
205 226 255
205 226 255
205 226 255
205 226 255
205 227 255
205 227 255
205 227 255
205 227 255
205 227 255
205 227 255
205 227 255
205 227 255
205 227 255
205 227 255
205 227 255
206 227 255
206 227 255
206 227 255
206 227 255
206 227 255
206 227 255
206 227 255
206 227 255
206 227 255
206 227 255
206 227 255
206 227 255
206 227 255
206 227 255
206 227 255
206 227 255
206 227 255
206 227 255
206 227 255
205 227 255
205 227 255
205 227 255
205 227 255
205 227 255
205 227 255
205 227 255
205 227 255
205 227 255
205 227 255
205 226 255
205 226 255
205 226 255
205 226 255
205 226 255
205 226 255
205 226 255
205 226 255
204 226 255
204 226 255
204 226 255
204 226 255
204 226 255
204 226 255
204 226 255
204 226 255
204 226 255
204 226 255
204 226 255
204 226 255
204 226 255
204 226 255
204 226 255
204 226 255
203 226 255
203 226 255
203 226 255
203 226 255
203 226 255
203 226 255
203 226 255
203 226 255
203 225 255
203 225 255
203 225 255
203 225 255
203 225 255
203 225 255
203 225 255
203 225 255
202 225 255
202 225 255
202 225 255
202 225 255
202 225 255
202 225 255
202 225 255
202 225 255
202 225 255
202 225 255
202 225 255
202 225 255
202 225 255
202 225 255
202 225 255
201 225 255
201 225 255
201 225 255
201 225 255
201 225 255
201 224 255
201 224 255
201 224 255
201 224 255
201 224 255
201 224 255
201 224 255
201 224 255
201 224 255
201 224 255
200 224 255
200 224 255
200 224 255
200 224 255
200 224 255
200 224 255
200 224 255
200 224 255
200 224 255
200 224 255
200 224 255
200 224 255
200 224 255
200 224 255
199 224 255
199 224 255
199 224 255
199 223 255
199 223 255
199 223 255
199 223 255
199 223 255
199 223 255
199 223 255
199 223 255
199 223 255
199 223 255
199 223 255
199 223 255
198 223 255
198 223 255
198 223 255
198 223 255
198 223 255
198 223 255
198 223 255
198 223 255
198 223 255
198 223 255
198 223 255
198 223 255
198 223 255
198 223 255
198 223 255
198 223 255
197 222 255
197 222 255
197 222 255
197 222 255
197 222 255
197 222 255
197 222 255
197 222 255
197 222 255
197 222 255
197 222 255
197 222 255
197 222 255
197 222 255
197 222 255
197 222 255
197 222 255
197 222 255
196 222 255
196 222 255
196 222 255
196 222 255
196 222 255
196 222 255
196 222 255
196 222 255
196 222 255
196 222 255
196 222 255
196 222 255
196 222 255
196 222 255
196 222 255
196 222 255
196 222 255
196 222 255
196 222 255
196 222 255
196 222 255
196 222 255
196 222 255
196 222 255
196 221 255
196 221 255
196 221 255
195 221 255
195 221 255
195 221 255
195 221 255
195 221 255
195 221 255
195 221 255
195 221 255
195 221 255
195 221 255
195 221 255
195 221 255
195 221 255
195 221 255
195 221 255
195 221 255
195 221 255
195 221 255
195 221 255
195 221 255
195 221 255
195 221 255
195 221 255
195 221 255
195 221 255
195 221 255
195 221 255
195 221 255
195 221 255
195 221 255
195 221 255
195 221 255
195 221 255
195 221 255
195 221 255
195 221 255
195 221 255
195 221 255
196 221 255
196 221 255
196 221 255
196 221 255
196 222 255
196 222 255
196 222 255
196 222 255
196 222 255
196 222 255
196 222 255
196 222 255
196 222 255
196 222 255
196 222 255
196 222 255
196 222 255
196 222 255
196 222 255
196 222 255
196 222 255
196 222 255
196 222 255
196 222 255
196 222 255
196 222 255
196 222 255
197 222 255
197 222 255
197 222 255
197 222 255
197 222 255
197 222 255
197 222 255
197 222 255
197 222 255
197 222 255
197 222 255
197 222 255
197 222 255
197 222 255
197 222 255
197 222 255
197 222 255
197 222 255
198 223 255
198 223 255
198 223 255
198 223 255
198 223 255
198 223 255
198 223 255
198 223 255
198 223 255
198 223 255
198 223 255
198 223 255
198 223 255
198 223 255
198 223 255
198 223 255
199 223 255
199 223 255
199 223 255
199 223 255
199 223 255
199 223 255
199 223 255
199 223 255
199 223 255
199 223 255
199 223 255
199 223 255
199 224 255
199 224 255
199 224 255
200 224 255
200 224 255
200 224 255
200 224 255
200 224 255
200 224 255
200 224 255
200 224 255
200 224 255
200 224 255
200 224 255
200 224 255
200 224 255
200 224 255
201 224 255
201 224 255
201 224 255
201 224 255
201 224 255
201 224 255
201 224 255
201 224 255
201 224 255
201 224 255
201 225 255
201 225 255
201 225 255
201 225 255
201 225 255
202 225 255
202 225 255
202 225 255
202 225 255
202 225 255
202 225 255
202 225 255
202 225 255
202 225 255
202 225 255
202 225 255
202 225 255
202 225 255
202 225 255
202 225 255
203 225 255
203 225 255
203 225 255
203 225 255
203 225 255
203 225 255
203 225 255
203 225 255
203 226 255
203 226 255
203 226 255
203 226 255
203 226 255
203 226 255
203 226 255
204 226 255
204 226 255
204 226 255
204 226 255
204 226 255
204 226 255
204 226 255
204 226 255
204 226 255
204 226 255
204 226 255
204 226 255
204 226 255
204 226 255
204 226 255
204 226 255
204 226 255
205 226 255
205 226 255
205 226 255
205 226 255
205 226 255
205 226 255
205 226 255
205 227 255
205 227 255
205 227 255
205 227 255
205 227 255
205 227 255
205 227 255
205 227 255
205 227 255
205 227 255
205 227 255
206 227 255
206 227 255
206 227 255
206 227 255
206 227 255
206 227 255
206 227 255
206 227 255
206 227 255
206 227 255
206 227 255
206 227 255
206 227 255
206 227 255
206 227 255
206 227 255
206 227 255
206 227 255
206 227 255
206 227 255
206 227 255
206 227 255
206 227 255
206 227 255
205 227 255
205 227 255
205 227 255
205 227 255
205 227 255
205 227 255
205 227 255
205 227 255
205 227 255
205 227 255
205 227 255
205 226 255
205 226 255
205 226 255
205 226 255
205 226 255
205 226 255
205 226 255
204 226 255
204 226 255
204 226 255
204 226 255
204 226 255
204 226 255
204 226 255
204 226 255
204 226 255
204 226 255
204 226 255
204 226 255
204 226 255
204 226 255
204 226 255
204 226 255
204 226 255
203 226 255
203 226 255
203 226 255
203 226 255
203 226 255
203 226 255
203 226 255
203 225 255
203 225 255
203 225 255
203 225 255
203 225 255
203 225 255
203 225 255
203 225 255
203 225 255
202 225 255
202 225 255
202 225 255
202 225 255
202 225 255
202 225 255
202 225 255
202 225 255
202 225 255
202 225 255
202 225 255
202 225 255
202 225 255
202 225 255
201 225 255
201 225 255
201 225 255
201 225 255
201 225 255
201 224 255
201 224 255
201 224 255
201 224 255
201 224 255
201 224 255
201 224 255
201 224 255
201 224 255
201 224 255
200 224 255
200 224 255
200 224 255
200 224 255
200 224 255
200 224 255
200 224 255
200 224 255
200 224 255
200 224 255
200 224 255
200 224 255
200 224 255
200 224 255
200 224 255
199 224 255
199 224 255
199 223 255
199 223 255
199 223 255
199 223 255
199 223 255
199 223 255
199 223 255
199 223 255
199 223 255
199 223 255
199 223 255
199 223 255
198 223 255
198 223 255
198 223 255
198 223 255
198 223 255
198 223 255
198 223 255
198 223 255
198 223 255
198 223 255
198 223 255
198 223 255
198 223 255
198 223 255
198 223 255
198 223 255
198 223 255
197 222 255
197 222 255
197 222 255
197 222 255
197 222 255
197 222 255
197 222 255
197 222 255
197 222 255
197 222 255
197 222 255
197 222 255
197 222 255
197 222 255
197 222 255
197 222 255
197 222 255
197 222 255
196 222 255
196 222 255
196 222 255
196 222 255
196 222 255
196 222 255
196 222 255
196 222 255
196 222 255
196 222 255
196 222 255
196 222 255
196 222 255
196 222 255
196 222 255
196 222 255
196 222 255
196 222 255
196 222 255
196 222 255
196 222 255
196 222 255
196 222 255
196 222 255
196 222 255
196 222 255
196 222 255
196 222 255
196 221 255
196 221 255
196 221 255
196 221 255
196 221 255
195 221 255
195 221 255
195 221 255
195 221 255
195 221 255
195 221 255
195 221 255
195 221 255
195 221 255
195 221 255
195 221 255
195 221 255
195 221 255
195 221 255
195 221 255
195 221 255
195 221 255
195 221 255
195 221 255
195 221 255
196 221 255
196 221 255
196 221 255
196 221 255
196 221 255
196 222 255
196 222 255
196 222 255
196 222 255
196 222 255
196 222 255
196 222 255
196 222 255
196 222 255
196 222 255
196 222 255
196 222 255
196 222 255
196 222 255
196 222 255
196 222 255
196 222 255
196 222 255
196 222 255
196 222 255
196 222 255
196 222 255
196 222 255
196 222 255
196 222 255
196 222 255
196 222 255
196 222 255
197 222 255
197 222 255
197 222 255
197 222 255
197 222 255
197 222 255
197 222 255
197 222 255
197 222 255
197 222 255
197 222 255
197 222 255
197 222 255
197 222 255
197 222 255
197 222 255
197 222 255
197 222 255
197 223 255
198 223 255
198 223 255
198 223 255
198 223 255
198 223 255
198 223 255
198 223 255
198 223 255
198 223 255
198 223 255
198 223 255
198 223 255
198 223 255
198 223 255
198 223 255
199 223 255
199 223 255
199 223 255
199 223 255
199 223 255
199 223 255
199 223 255
199 223 255
199 223 255
199 223 255
199 223 255
199 223 255
199 223 255
199 224 255
199 224 255
200 224 255
200 224 255
200 224 255
200 224 255
200 224 255
200 224 255
200 224 255
200 224 255
200 224 255
200 224 255
200 224 255
200 224 255
200 224 255
200 224 255
200 224 255
201 224 255
201 224 255
201 224 255
201 224 255
201 224 255
201 224 255
201 224 255
201 224 255
201 224 255
201 224 255
201 225 255
201 225 255
201 225 255
201 225 255
202 225 255
202 225 255
202 225 255
202 225 255
202 225 255
202 225 255
202 225 255
202 225 255
202 225 255
202 225 255
202 225 255
202 225 255
202 225 255
202 225 255
202 225 255
203 225 255
203 225 255
203 225 255
203 225 255
203 225 255
203 225 255
203 225 255
203 225 255
203 225 255
203 226 255
203 226 255
203 226 255
203 226 255
203 226 255
203 226 255
203 226 255
204 226 255
204 226 255
204 226 255
204 226 255
204 226 255
204 226 255
204 226 255
204 226 255
204 226 255
204 226 255
204 226 255
204 226 255
204 226 255
204 226 255
204 226 255
204 226 255
204 226 255
205 226 255
205 226 255
205 226 255
205 226 255
205 226 255
205 226 255
205 226 255
205 227 255
205 227 255
205 227 255
205 227 255
205 227 255
205 227 255
205 227 255
205 227 255
205 227 255
205 227 255
205 227 255
206 227 255
206 227 255
206 227 255
206 227 255
206 227 255
206 227 255
206 227 255
206 227 255
206 227 255
206 227 255
206 227 255
206 227 255
206 227 255
206 227 255
206 227 255
206 227 255
206 227 255
206 227 255
206 227 255
206 227 255
206 227 255
206 227 255
206 227 255
206 227 255
206 227 255
206 227 255
206 227 255
206 227 255
206 227 255
205 227 255
205 227 255
205 227 255
205 227 255
205 227 255
205 227 255
205 227 255
205 227 255
205 227 255
205 227 255
205 227 255
205 226 255
205 226 255
205 226 255
205 226 255
205 226 255
205 226 255
205 226 255
204 226 255
204 226 255
204 226 255
204 226 255
204 226 255
204 226 255
204 226 255
204 226 255
204 226 255
204 226 255
204 226 255
204 226 255
204 226 255
204 226 255
204 226 255
204 226 255
203 226 255
203 226 255
203 226 255
203 226 255
203 226 255
203 226 255
203 226 255
203 225 255
203 225 255
203 225 255
203 225 255
203 225 255
203 225 255
203 225 255
203 225 255
203 225 255
202 225 255
202 225 255
202 225 255
202 225 255
202 225 255
202 225 255
202 225 255
202 225 255
202 225 255
202 225 255
202 225 255
202 225 255
202 225 255
202 225 255
202 225 255
201 225 255
201 225 255
201 225 255
201 225 255
201 224 255
201 224 255
201 224 255
201 224 255
201 224 255
201 224 255
201 224 255
201 224 255
201 224 255
201 224 255
201 224 255
200 224 255
200 224 255
200 224 255
200 224 255
200 224 255
200 224 255
200 224 255
200 224 255
200 224 255
200 224 255
200 224 255
200 224 255
200 224 255
200 224 255
199 224 255
199 224 255
199 223 255
199 223 255
199 223 255
199 223 255
199 223 255
199 223 255
199 223 255
199 223 255
199 223 255
199 223 255
199 223 255
199 223 255
199 223 255
198 223 255
198 223 255
198 223 255
198 223 255
198 223 255
198 223 255
198 223 255
198 223 255
198 223 255
198 223 255
198 223 255
198 223 255
198 223 255
198 223 255
198 223 255
198 223 255
197 223 255
197 222 255
197 222 255
197 222 255
197 222 255
197 222 255
197 222 255
197 222 255
197 222 255
197 222 255
197 222 255
197 222 255
197 222 255
197 222 255
197 222 255
197 222 255
197 222 255
197 222 255
197 222 255
197 222 255
196 222 255
196 222 255
196 222 255
196 222 255
196 222 255
196 222 255
196 222 255
196 222 255
196 222 255
196 222 255
196 222 255
196 222 255
196 222 255
196 222 255
196 222 255
196 222 255
196 222 255
196 222 255
196 222 255
196 222 255
196 222 255
196 222 255
196 222 255
196 222 255
196 222 255
196 222 255
196 222 255
196 222 255
196 222 255
196 222 255
196 222 255
196 222 255
196 222 255
196 222 255
196 222 255
196 222 255
196 222 255
196 222 255
196 222 255
196 222 255
196 222 255
196 222 255
196 222 255
196 222 255
196 222 255
196 222 255
196 222 255
196 222 255
196 222 255
196 222 255
196 222 255
196 222 255
196 222 255
196 222 255
196 222 255
196 222 255
196 222 255
196 222 255
196 222 255
196 222 255
196 222 255
196 222 255
196 222 255
196 222 255
196 222 255
196 222 255
196 222 255
196 222 255
196 222 255
196 222 255
196 222 255
196 222 255
196 222 255
196 222 255
196 222 255
196 222 255
196 222 255
196 222 255
197 222 255
197 222 255
197 222 255
197 222 255
197 222 255
197 222 255
197 222 255
197 222 255
197 222 255
197 222 255
197 222 255
197 222 255
197 222 255
197 222 255
197 222 255
197 222 255
197 222 255
197 222 255
197 222 255
197 223 255
198 223 255
198 223 255
198 223 255
198 223 255
198 223 255
198 223 255
198 223 255
198 223 255
198 223 255
198 223 255
198 223 255
198 223 255
198 223 255
198 223 255
198 223 255
198 223 255
199 223 255
199 223 255
199 223 255
199 223 255
199 223 255
199 223 255
199 223 255
199 223 255
199 223 255
199 223 255
199 223 255
199 223 255
199 223 255
199 224 255
199 224 255
200 224 255
200 224 255
200 224 255
200 224 255
200 224 255
200 224 255
200 224 255
200 224 255
200 224 255
200 224 255
200 224 255
200 224 255
200 224 255
200 224 255
201 224 255
201 224 255
201 224 255
201 224 255
201 224 255
201 224 255
201 224 255
201 224 255
201 224 255
201 224 255
201 224 255
201 225 255
201 225 255
201 225 255
201 225 255
202 225 255
202 225 255
202 225 255
202 225 255
202 225 255
202 225 255
202 225 255
202 225 255
202 225 255
202 225 255
202 225 255
202 225 255
202 225 255
202 225 255
202 225 255
203 225 255
203 225 255
203 225 255
203 225 255
203 225 255
203 225 255
203 225 255
203 225 255
203 225 255
203 226 255
203 226 255
203 226 255
203 226 255
203 226 255
203 226 255
203 226 255
204 226 255
204 226 255
204 226 255
204 226 255
204 226 255
204 226 255
204 226 255
204 226 255
204 226 255
204 226 255
204 226 255
204 226 255
204 226 255
204 226 255
204 226 255
204 226 255
205 226 255
205 226 255
205 226 255
205 226 255
205 226 255
205 226 255
205 226 255
205 227 255
205 227 255
205 227 255
205 227 255
205 227 255
205 227 255
205 227 255
205 227 255
205 227 255
205 227 255
205 227 255
206 227 255
206 227 255
206 227 255
206 227 255
206 227 255
206 227 255
206 227 255
206 227 255
206 227 255
206 227 255
206 227 255
206 227 255
206 227 255
206 227 255
206 227 255
206 227 255
206 227 255
206 227 255
206 227 255
206 227 255
206 227 255
206 227 255
206 227 255
206 227 255
206 227 255
206 227 255
206 227 255
206 227 255
206 227 255
206 227 255
206 227 255
206 227 255
206 227 255
206 227 255
205 227 255
205 227 255
205 227 255
205 227 255
205 227 255
205 227 255
205 227 255
205 227 255
205 227 255
205 227 255
205 227 255
205 226 255
205 226 255
205 226 255
205 226 255
205 226 255
205 226 255
205 226 255
204 226 255
204 226 255
204 226 255
204 226 255
204 226 255
204 226 255
204 226 255
204 226 255
204 226 255
204 226 255
204 226 255
204 226 255
204 226 255
204 226 255
204 226 255
204 226 255
204 226 255
203 226 255
203 226 255
203 226 255
203 226 255
203 226 255
203 226 255
203 226 255
203 225 255
203 225 255
203 225 255
203 225 255
203 225 255
203 225 255
203 225 255
203 225 255
202 225 255
202 225 255
202 225 255
202 225 255
202 225 255
202 225 255
202 225 255
202 225 255
202 225 255
202 225 255
202 225 255
202 225 255
202 225 255
202 225 255
202 225 255
201 225 255
201 225 255
201 225 255
201 225 255
201 225 255
201 224 255
201 224 255
201 224 255
201 224 255
201 224 255
201 224 255
201 224 255
201 224 255
201 224 255
201 224 255
200 224 255
200 224 255
200 224 255
200 224 255
200 224 255
200 224 255
200 224 255
200 224 255
200 224 255
200 224 255
200 224 255
200 224 255
200 224 255
200 224 255
199 224 255
199 224 255
199 224 255
199 223 255
199 223 255
199 223 255
199 223 255
199 223 255
199 223 255
199 223 255
199 223 255
199 223 255
199 223 255
199 223 255
199 223 255
199 223 255
198 223 255
198 223 255
198 223 255
198 223 255
198 223 255
198 223 255
198 223 255
198 223 255
198 223 255
198 223 255
198 223 255
198 223 255
198 223 255
198 223 255
198 223 255
198 223 255
197 223 255
197 222 255
197 222 255
197 222 255
197 222 255
197 222 255
197 222 255
197 222 255
197 222 255
197 222 255
197 222 255
197 222 255
197 222 255
197 222 255
197 222 255
197 222 255
197 222 255
197 222 255
197 222 255
197 222 255
197 222 255
196 222 255
196 222 255
196 222 255
196 222 255
196 222 255
196 222 255
196 222 255
196 222 255
196 222 255
196 222 255
196 222 255
196 222 255
196 222 255
196 222 255
196 222 255
196 222 255
196 222 255
196 222 255
196 222 255
196 222 255
196 222 255
196 222 255
196 222 255
196 222 255
196 222 255
196 222 255
196 222 255
196 222 255
196 222 255
196 222 255
196 222 255
196 222 255
196 222 255
196 222 255
196 222 255
196 222 255
196 222 255
196 222 255
196 222 255
196 222 255
196 222 255
196 222 255
196 222 255
196 222 255
196 222 255
196 222 255
196 222 255
196 222 255
196 222 255
196 222 255
196 222 255
196 222 255
196 222 255
196 222 255
196 222 255
196 222 255
196 222 255
196 222 255
196 222 255
196 222 255
196 222 255
196 222 255
196 222 255
196 222 255
196 222 255
196 222 255
196 222 255
196 222 255
196 222 255
196 222 255
197 222 255
197 222 255
197 222 255
197 222 255
197 222 255
197 222 255
197 222 255
197 222 255
197 222 255
197 222 255
197 222 255
197 222 255
197 222 255
197 222 255
197 222 255
197 222 255
197 222 255
197 222 255
197 222 255
197 222 255
197 223 255
198 223 255
198 223 255
198 223 255
198 223 255
198 223 255
198 223 255
198 223 255
198 223 255
198 223 255
198 223 255
198 223 255
198 223 255
198 223 255
198 223 255
198 223 255
198 223 255
199 223 255
199 223 255
199 223 255
199 223 255
199 223 255
199 223 255
199 223 255
199 223 255
199 223 255
199 223 255
199 223 255
199 223 255
199 223 255
199 224 255
199 224 255
199 224 255
200 224 255
200 224 255
200 224 255
200 224 255
200 224 255
200 224 255
200 224 255
200 224 255
200 224 255
200 224 255
200 224 255
200 224 255
200 224 255
200 224 255
201 224 255
201 224 255
201 224 255
201 224 255
201 224 255
201 224 255
201 224 255
201 224 255
201 224 255
201 224 255
201 225 255
201 225 255
201 225 255
201 225 255
201 225 255
202 225 255
202 225 255
202 225 255
202 225 255
202 225 255
202 225 255
202 225 255
202 225 255
202 225 255
202 225 255
202 225 255
202 225 255
202 225 255
202 225 255
202 225 255
203 225 255
203 225 255
203 225 255
203 225 255
203 225 255
203 225 255
203 225 255
203 225 255
203 226 255
203 226 255
203 226 255
203 226 255
203 226 255
203 226 255
203 226 255
204 226 255
204 226 255
204 226 255
204 226 255
204 226 255
204 226 255
204 226 255
204 226 255
204 226 255
204 226 255
204 226 255
204 226 255
204 226 255
204 226 255
204 226 255
204 226 255
204 226 255
205 226 255
205 226 255
205 226 255
205 226 255
205 226 255
205 226 255
205 226 255
205 227 255
205 227 255
205 227 255
205 227 255
205 227 255
205 227 255
205 227 255
205 227 255
205 227 255
205 227 255
205 227 255
206 227 255
206 227 255
206 227 255
206 227 255
206 227 255
206 227 255
206 227 255
206 227 255
206 227 255
206 227 255
206 227 255
206 227 255
206 227 255
206 227 255
206 227 255
206 227 255
206 227 255
206 227 255
207 227 255
207 227 255
206 227 255
206 227 255
206 227 255
206 227 255
206 227 255
206 227 255
206 227 255
206 227 255
206 227 255
206 227 255
206 227 255
206 227 255
206 227 255
206 227 255
206 227 255
206 227 255
206 227 255
206 227 255
206 227 255
205 227 255
205 227 255
205 227 255
205 227 255
205 227 255
205 227 255
205 227 255
205 227 255
205 227 255
205 227 255
205 227 255
205 226 255
205 226 255
205 226 255
205 226 255
205 226 255
205 226 255
205 226 255
204 226 255
204 226 255
204 226 255
204 226 255
204 226 255
204 226 255
204 226 255
204 226 255
204 226 255
204 226 255
204 226 255
204 226 255
204 226 255
204 226 255
204 226 255
204 226 255
203 226 255
203 226 255
203 226 255
203 226 255
203 226 255
203 226 255
203 226 255
203 225 255
203 225 255
203 225 255
203 225 255
203 225 255
203 225 255
203 225 255
203 225 255
203 225 255
202 225 255
202 225 255
202 225 255
202 225 255
202 225 255
202 225 255
202 225 255
202 225 255
202 225 255
202 225 255
202 225 255
202 225 255
202 225 255
202 225 255
202 225 255
201 225 255
201 225 255
201 225 255
201 225 255
201 224 255
201 224 255
201 224 255
201 224 255
201 224 255
201 224 255
201 224 255
201 224 255
201 224 255
201 224 255
200 224 255
200 224 255
200 224 255
200 224 255
200 224 255
200 224 255
200 224 255
200 224 255
200 224 255
200 224 255
200 224 255
200 224 255
200 224 255
200 224 255
200 224 255
199 224 255
199 224 255
199 223 255
199 223 255
199 223 255
199 223 255
199 223 255
199 223 255
199 223 255
199 223 255
199 223 255
199 223 255
199 223 255
199 223 255
199 223 255
198 223 255
198 223 255
198 223 255
198 223 255
198 223 255
198 223 255
198 223 255
198 223 255
198 223 255
198 223 255
198 223 255
198 223 255
198 223 255
198 223 255
198 223 255
198 223 255
198 223 255
197 223 255
197 222 255
197 222 255
197 222 255
197 222 255
197 222 255
197 222 255
197 222 255
197 222 255
197 222 255
197 222 255
197 222 255
197 222 255
197 222 255
197 222 255
197 222 255
197 222 255
197 222 255
197 222 255
197 222 255
197 222 255
197 222 255
196 222 255
196 222 255
196 222 255
196 222 255
196 222 255
196 222 255
196 222 255
196 222 255
196 222 255
196 222 255
196 222 255
196 222 255
196 222 255
196 222 255
196 222 255
196 222 255
196 222 255
196 222 255
196 222 255
196 222 255
196 222 255
196 222 255
196 222 255
196 222 255
196 222 255
196 222 255
196 222 255
196 222 255
196 222 255
196 222 255
196 222 255
196 222 255
196 222 255
196 222 255
196 222 255
196 222 255
196 222 255
196 222 255
196 222 255
196 222 255
196 222 255
196 222 255
196 222 255
196 222 255
196 222 255
196 222 255
196 222 255
196 222 255
196 222 255
196 222 255
196 222 255
196 222 255
196 222 255
196 222 255
196 222 255
196 222 255
196 222 255
196 222 255
196 222 255
196 222 255
196 222 255
196 222 255
197 222 255
197 222 255
197 222 255
197 222 255
197 222 255
197 222 255
197 222 255
197 222 255
197 222 255
197 222 255
197 222 255
197 222 255
197 222 255
197 222 255
197 222 255
197 222 255
197 222 255
197 222 255
197 222 255
197 222 255
197 222 255
197 223 255
198 223 255
198 223 255
198 223 255
198 223 255
198 223 255
198 223 255
198 223 255
198 223 255
198 223 255
198 223 255
198 223 255
198 223 255
198 223 255
198 223 255
198 223 255
198 223 255
198 223 255
199 223 255
199 223 255
199 223 255
199 223 255
199 223 255
199 223 255
199 223 255
199 223 255
199 223 255
199 223 255
199 223 255
199 223 255
199 223 255
199 224 255
199 224 255
200 224 255
200 224 255
200 224 255
200 224 255
200 224 255
200 224 255
200 224 255
200 224 255
200 224 255
200 224 255
200 224 255
200 224 255
200 224 255
200 224 255
200 224 255
201 224 255
201 224 255
201 224 255
201 224 255
201 224 255
201 224 255
201 224 255
201 224 255
201 224 255
201 224 255
201 225 255
201 225 255
201 225 255
201 225 255
202 225 255
202 225 255
202 225 255
202 225 255
202 225 255
202 225 255
202 225 255
202 225 255
202 225 255
202 225 255
202 225 255
202 225 255
202 225 255
202 225 255
202 225 255
203 225 255
203 225 255
203 225 255
203 225 255
203 225 255
203 225 255
203 225 255
203 225 255
203 225 255
203 226 255
203 226 255
203 226 255
203 226 255
203 226 255
203 226 255
203 226 255
204 226 255
204 226 255
204 226 255
204 226 255
204 226 255
204 226 255
204 226 255
204 226 255
204 226 255
204 226 255
204 226 255
204 226 255
204 226 255
204 226 255
204 226 255
204 226 255
205 226 255
205 226 255
205 226 255
205 226 255
205 226 255
205 226 255
205 226 255
205 227 255
205 227 255
205 227 255
205 227 255
205 227 255
205 227 255
205 227 255
205 227 255
205 227 255
205 227 255
205 227 255
206 227 255
206 227 255
206 227 255
206 227 255
206 227 255
206 227 255
206 227 255
206 227 255
206 227 255
206 227 255
206 227 255
206 227 255
206 227 255
206 227 255
206 227 255
206 227 255
206 227 255
206 227 255
206 227 255
207 227 255
207 227 255
207 227 255
207 227 255
207 227 255
207 227 255
206 227 255
206 227 255
206 227 255
206 227 255
206 227 255
206 227 255
206 227 255
206 227 255
206 227 255
206 227 255
206 227 255
206 227 255
206 227 255
206 227 255
206 227 255
206 227 255
206 227 255
206 227 255
206 227 255
206 227 255
205 227 255
205 227 255
205 227 255
205 227 255
205 227 255
205 227 255
205 227 255
205 227 255
205 227 255
205 227 255
205 226 255
205 226 255
205 226 255
205 226 255
205 226 255
205 226 255
205 226 255
204 226 255
204 226 255
204 226 255
204 226 255
204 226 255
204 226 255
204 226 255
204 226 255
204 226 255
204 226 255
204 226 255
204 226 255
204 226 255
204 226 255
204 226 255
204 226 255
204 226 255
203 226 255
203 226 255
203 226 255
203 226 255
203 226 255
203 226 255
203 225 255
203 225 255
203 225 255
203 225 255
203 225 255
203 225 255
203 225 255
203 225 255
203 225 255
202 225 255
202 225 255
202 225 255
202 225 255
202 225 255
202 225 255
202 225 255
202 225 255
202 225 255
202 225 255
202 225 255
202 225 255
202 225 255
202 225 255
202 225 255
201 225 255
201 225 255
201 225 255
201 225 255
201 224 255
201 224 255
201 224 255
201 224 255
201 224 255
201 224 255
201 224 255
201 224 255
201 224 255
201 224 255
201 224 255
200 224 255
200 224 255
200 224 255
200 224 255
200 224 255
200 224 255
200 224 255
200 224 255
200 224 255
200 224 255
200 224 255
200 224 255
200 224 255
200 224 255
199 224 255
199 224 255
199 224 255
199 223 255
199 223 255
199 223 255
199 223 255
199 223 255
199 223 255
199 223 255
199 223 255
199 223 255
199 223 255
199 223 255
199 223 255
199 223 255
198 223 255
198 223 255
198 223 255
198 223 255
198 223 255
198 223 255
198 223 255
198 223 255
198 223 255
198 223 255
198 223 255
198 223 255
198 223 255
198 223 255
198 223 255
198 223 255
198 223 255
197 223 255
197 222 255
197 222 255
197 222 255
197 222 255
197 222 255
197 222 255
197 222 255
197 222 255
197 222 255
197 222 255
197 222 255
197 222 255
197 222 255
197 222 255
197 222 255
197 222 255
197 222 255
197 222 255
197 222 255
197 222 255
197 222 255
197 222 255
197 222 255
196 222 255
196 222 255
196 222 255
196 222 255
196 222 255
196 222 255
196 222 255
196 222 255
196 222 255
196 222 255
196 222 255
196 222 255
196 222 255
196 222 255
196 222 255
196 222 255
196 222 255
196 222 255
196 222 255
196 222 255
196 222 255
196 222 255
196 222 255
196 222 255
196 222 255
196 222 255
196 222 255
196 222 255
196 222 255
196 222 255
196 222 255
196 222 255
196 222 255
196 222 255
196 222 255
196 222 255
196 222 255
196 222 255
196 222 255
196 222 255
196 222 255
196 222 255
196 222 255
196 222 255
196 222 255
196 222 255
196 222 255
196 222 255
196 222 255
196 222 255
196 222 255
196 222 255
197 222 255
197 222 255
197 222 255
197 222 255
197 222 255
197 222 255
197 222 255
197 222 255
197 222 255
197 222 255
197 222 255
197 222 255
197 222 255
197 222 255
197 222 255
197 222 255
197 222 255
197 222 255
197 222 255
197 222 255
197 222 255
197 222 255
197 222 255
197 223 255
198 223 255
198 223 255
198 223 255
198 223 255
198 223 255
198 223 255
198 223 255
198 223 255
198 223 255
198 223 255
198 223 255
198 223 255
198 223 255
198 223 255
198 223 255
198 223 255
198 223 255
199 223 255
199 223 255
199 223 255
199 223 255
199 223 255
199 223 255
199 223 255
199 223 255
199 223 255
199 223 255
199 223 255
199 223 255
199 223 255
199 224 255
199 224 255
199 224 255
200 224 255
200 224 255
200 224 255
200 224 255
200 224 255
200 224 255
200 224 255
200 224 255
200 224 255
200 224 255
200 224 255
200 224 255
200 224 255
200 224 255
201 224 255
201 224 255
201 224 255
201 224 255
201 224 255
201 224 255
201 224 255
201 224 255
201 224 255
201 224 255
201 224 255
201 225 255
201 225 255
201 225 255
201 225 255
202 225 255
202 225 255
202 225 255
202 225 255
202 225 255
202 225 255
202 225 255
202 225 255
202 225 255
202 225 255
202 225 255
202 225 255
202 225 255
202 225 255
202 225 255
203 225 255
203 225 255
203 225 255
203 225 255
203 225 255
203 225 255
203 225 255
203 225 255
203 226 255
203 226 255
203 226 255
203 226 255
203 226 255
203 226 255
203 226 255
204 226 255
204 226 255
204 226 255
204 226 255
204 226 255
204 226 255
204 226 255
204 226 255
204 226 255
204 226 255
204 226 255
204 226 255
204 226 255
204 226 255
204 226 255
204 226 255
204 226 255
205 226 255
205 226 255
205 226 255
205 226 255
205 226 255
205 226 255
205 226 255
205 227 255
205 227 255
205 227 255
205 227 255
205 227 255
205 227 255
205 227 255
205 227 255
205 227 255
205 227 255
206 227 255
206 227 255
206 227 255
206 227 255
206 227 255
206 227 255
206 227 255
206 227 255
206 227 255
206 227 255
206 227 255
206 227 255
206 227 255
206 227 255
206 227 255
206 227 255
206 227 255
206 227 255
206 227 255
207 227 255
207 227 255
207 227 255
207 227 255
207 227 255
207 228 255
207 228 255
207 227 255
207 227 255
207 227 255
207 227 255
207 227 255
206 227 255
206 227 255
206 227 255
206 227 255
206 227 255
206 227 255
206 227 255
206 227 255
206 227 255
206 227 255
206 227 255
206 227 255
206 227 255
206 227 255
206 227 255
206 227 255
206 227 255
206 227 255
206 227 255
205 227 255
205 227 255
205 227 255
205 227 255
205 227 255
205 227 255
205 227 255
205 227 255
205 227 255
205 227 255
205 227 255
205 226 255
205 226 255
205 226 255
205 226 255
205 226 255
205 226 255
205 226 255
204 226 255
204 226 255
204 226 255
204 226 255
204 226 255
204 226 255
204 226 255
204 226 255
204 226 255
204 226 255
204 226 255
204 226 255
204 226 255
204 226 255
204 226 255
204 226 255
203 226 255
203 226 255
203 226 255
203 226 255
203 226 255
203 226 255
203 226 255
203 225 255
203 225 255
203 225 255
203 225 255
203 225 255
203 225 255
203 225 255
203 225 255
203 225 255
202 225 255
202 225 255
202 225 255
202 225 255
202 225 255
202 225 255
202 225 255
202 225 255
202 225 255
202 225 255
202 225 255
202 225 255
202 225 255
202 225 255
201 225 255
201 225 255
201 225 255
201 225 255
201 225 255
201 224 255
201 224 255
201 224 255
201 224 255
201 224 255
201 224 255
201 224 255
201 224 255
201 224 255
201 224 255
200 224 255
200 224 255
200 224 255
200 224 255
200 224 255
200 224 255
200 224 255
200 224 255
200 224 255
200 224 255
200 224 255
200 224 255
200 224 255
200 224 255
200 224 255
199 224 255
199 224 255
199 223 255
199 223 255
199 223 255
199 223 255
199 223 255
199 223 255
199 223 255
199 223 255
199 223 255
199 223 255
199 223 255
199 223 255
199 223 255
198 223 255
198 223 255
198 223 255
198 223 255
198 223 255
198 223 255
198 223 255
198 223 255
198 223 255
198 223 255
198 223 255
198 223 255
198 223 255
198 223 255
198 223 255
198 223 255
198 223 255
198 223 255
198 223 255
197 222 255
197 222 255
197 222 255
197 222 255
197 222 255
197 222 255
197 222 255
197 222 255
197 222 255
197 222 255
197 222 255
197 222 255
197 222 255
197 222 255
197 222 255
197 222 255
197 222 255
197 222 255
197 222 255
197 222 255
197 222 255
197 222 255
197 222 255
197 222 255
197 222 255
197 222 255
196 222 255
196 222 255
196 222 255
196 222 255
196 222 255
196 222 255
196 222 255
196 222 255
196 222 255
196 222 255
196 222 255
196 222 255
196 222 255
196 222 255
196 222 255
196 222 255
196 222 255
196 222 255
196 222 255
196 222 255
196 222 255
196 222 255
196 222 255
196 222 255
196 222 255
196 222 255
196 222 255
196 222 255
196 222 255
196 222 255
196 222 255
196 222 255
196 222 255
196 222 255
196 222 255
196 222 255
196 222 255
196 222 255
196 222 255
196 222 255
197 222 255
197 222 255
197 222 255
197 222 255
197 222 255
197 222 255
197 222 255
197 222 255
197 222 255
197 222 255
197 222 255
197 222 255
197 222 255
197 222 255
197 222 255
197 222 255
197 222 255
197 222 255
197 222 255
197 222 255
197 222 255
197 222 255
197 222 255
197 222 255
197 222 255
197 222 255
198 223 255
198 223 255
198 223 255
198 223 255
198 223 255
198 223 255
198 223 255
198 223 255
198 223 255
198 223 255
198 223 255
198 223 255
198 223 255
198 223 255
198 223 255
198 223 255
198 223 255
198 223 255
199 223 255
199 223 255
199 223 255
199 223 255
199 223 255
199 223 255
199 223 255
199 223 255
199 223 255
199 223 255
199 223 255
199 223 255
199 223 255
199 223 255
199 224 255
199 224 255
200 224 255
200 224 255
200 224 255
200 224 255
200 224 255
200 224 255
200 224 255
200 224 255
200 224 255
200 224 255
200 224 255
200 224 255
200 224 255
200 224 255
200 224 255
201 224 255
201 224 255
201 224 255
201 224 255
201 224 255
201 224 255
201 224 255
201 224 255
201 224 255
201 224 255
201 225 255
201 225 255
201 225 255
201 225 255
201 225 255
202 225 255
202 225 255
202 225 255
202 225 255
202 225 255
202 225 255
202 225 255
202 225 255
202 225 255
202 225 255
202 225 255
202 225 255
202 225 255
202 225 255
202 225 255
203 225 255
203 225 255
203 225 255
203 225 255
203 225 255
203 225 255
203 225 255
203 225 255
203 226 255
203 226 255
203 226 255
203 226 255
203 226 255
203 226 255
203 226 255
204 226 255
204 226 255
204 226 255
204 226 255
204 226 255
204 226 255
204 226 255
204 226 255
204 226 255
204 226 255
204 226 255
204 226 255
204 226 255
204 226 255
204 226 255
204 226 255
205 226 255
205 226 255
205 226 255
205 226 255
205 226 255
205 226 255
205 226 255
205 227 255
205 227 255
205 227 255
205 227 255
205 227 255
205 227 255
205 227 255
205 227 255
205 227 255
205 227 255
205 227 255
206 227 255
206 227 255
206 227 255
206 227 255
206 227 255
206 227 255
206 227 255
206 227 255
206 227 255
206 227 255
206 227 255
206 227 255
206 227 255
206 227 255
206 227 255
206 227 255
206 227 255
206 227 255
206 227 255
207 227 255
207 227 255
207 227 255
207 227 255
207 227 255
207 228 255
207 228 255
207 228 255
207 228 255
207 228 255
207 228 255
207 228 255
207 227 255
207 227 255
207 227 255
207 227 255
207 227 255
206 227 255
206 227 255
206 227 255
206 227 255
206 227 255
206 227 255
206 227 255
206 227 255
206 227 255
206 227 255
206 227 255
206 227 255
206 227 255
206 227 255
206 227 255
206 227 255
206 227 255
206 227 255
206 227 255
205 227 255
205 227 255
205 227 255
205 227 255
205 227 255
205 227 255
205 227 255
205 227 255
205 227 255
205 227 255
205 226 255
205 226 255
205 226 255
205 226 255
205 226 255
205 226 255
205 226 255
204 226 255
204 226 255
204 226 255
204 226 255
204 226 255
204 226 255
204 226 255
204 226 255
204 226 255
204 226 255
204 226 255
204 226 255
204 226 255
204 226 255
204 226 255
204 226 255
204 226 255
203 226 255
203 226 255
203 226 255
203 226 255
203 226 255
203 226 255
203 225 255
203 225 255
203 225 255
203 225 255
203 225 255
203 225 255
203 225 255
203 225 255
203 225 255
202 225 255
202 225 255
202 225 255
202 225 255
202 225 255
202 225 255
202 225 255
202 225 255
202 225 255
202 225 255
202 225 255
202 225 255
202 225 255
202 225 255
202 225 255
201 225 255
201 225 255
201 225 255
201 225 255
201 224 255
201 224 255
201 224 255
201 224 255
201 224 255
201 224 255
201 224 255
201 224 255
201 224 255
201 224 255
200 224 255
200 224 255
200 224 255
200 224 255
200 224 255
200 224 255
200 224 255
200 224 255
200 224 255
200 224 255
200 224 255
200 224 255
200 224 255
200 224 255
200 224 255
199 224 255
199 224 255
199 224 255
199 223 255
199 223 255
199 223 255
199 223 255
199 223 255
199 223 255
199 223 255
199 223 255
199 223 255
199 223 255
199 223 255
199 223 255
199 223 255
199 223 255
198 223 255
198 223 255
198 223 255
198 223 255
198 223 255
198 223 255
198 223 255
198 223 255
198 223 255
198 223 255
198 223 255
198 223 255
198 223 255
198 223 255
198 223 255
198 223 255
198 223 255
198 223 255
197 223 255
197 222 255
197 222 255
197 222 255
197 222 255
197 222 255
197 222 255
197 222 255
197 222 255
197 222 255
197 222 255
197 222 255
197 222 255
197 222 255
197 222 255
197 222 255
197 222 255
197 222 255
197 222 255
197 222 255
197 222 255
197 222 255
197 222 255
197 222 255
197 222 255
197 222 255
197 222 255
197 222 255
197 222 255
197 222 255
197 222 255
197 222 255
196 222 255
196 222 255
196 222 255
196 222 255
196 222 255
196 222 255
196 222 255
196 222 255
196 222 255
196 222 255
196 222 255
196 222 255
196 222 255
196 222 255
196 222 255
196 222 255
196 222 255
196 222 255
196 222 255
196 222 255
196 222 255
197 222 255
197 222 255
197 222 255
197 222 255
197 222 255
197 222 255
197 222 255
197 222 255
197 222 255
197 222 255
197 222 255
197 222 255
197 222 255
197 222 255
197 222 255
197 222 255
197 222 255
197 222 255
197 222 255
197 222 255
197 222 255
197 222 255
197 222 255
197 222 255
197 222 255
197 222 255
197 222 255
197 222 255
197 222 255
197 222 255
197 222 255
197 222 255
197 223 255
198 223 255
198 223 255
198 223 255
198 223 255
198 223 255
198 223 255
198 223 255
198 223 255
198 223 255
198 223 255
198 223 255
198 223 255
198 223 255
198 223 255
198 223 255
198 223 255
198 223 255
198 223 255
198 223 255
199 223 255
199 223 255
199 223 255
199 223 255
199 223 255
199 223 255
199 223 255
199 223 255
199 223 255
199 223 255
199 223 255
199 223 255
199 223 255
199 224 255
199 224 255
200 224 255
200 224 255
200 224 255
200 224 255
200 224 255
200 224 255
200 224 255
200 224 255
200 224 255
200 224 255
200 224 255
200 224 255
200 224 255
200 224 255
200 224 255
201 224 255
201 224 255
201 224 255
201 224 255
201 224 255
201 224 255
201 224 255
201 224 255
201 224 255
201 224 255
201 224 255
201 225 255
201 225 255
201 225 255
201 225 255
202 225 255
202 225 255
202 225 255
202 225 255
202 225 255
202 225 255
202 225 255
202 225 255
202 225 255
202 225 255
202 225 255
202 225 255
202 225 255
202 225 255
202 225 255
203 225 255
203 225 255
203 225 255
203 225 255
203 225 255
203 225 255
203 225 255
203 225 255
203 225 255
203 226 255
203 226 255
203 226 255
203 226 255
203 226 255
203 226 255
204 226 255
204 226 255
204 226 255
204 226 255
204 226 255
204 226 255
204 226 255
204 226 255
204 226 255
204 226 255
204 226 255
204 226 255
204 226 255
204 226 255
204 226 255
204 226 255
204 226 255
205 226 255
205 226 255
205 226 255
205 226 255
205 226 255
205 226 255
205 227 255
205 227 255
205 227 255
205 227 255
205 227 255
205 227 255
205 227 255
205 227 255
205 227 255
205 227 255
205 227 255
206 227 255
206 227 255
206 227 255
206 227 255
206 227 255
206 227 255
206 227 255
206 227 255
206 227 255
206 227 255
206 227 255
206 227 255
206 227 255
206 227 255
206 227 255
206 227 255
206 227 255
206 227 255
206 227 255
207 227 255
207 227 255
207 227 255
207 227 255
207 227 255
207 228 255
207 228 255
207 228 255
207 228 255
207 228 255
207 228 255
207 228 255
207 228 255
207 228 255
207 228 255
207 228 255
207 228 255
207 228 255
207 227 255
207 227 255
207 227 255
207 227 255
207 227 255
206 227 255
206 227 255
206 227 255
206 227 255
206 227 255
206 227 255
206 227 255
206 227 255
206 227 255
206 227 255
206 227 255
206 227 255
206 227 255
206 227 255
206 227 255
206 227 255
206 227 255
206 227 255
206 227 255
205 227 255
205 227 255
205 227 255
205 227 255
205 227 255
205 227 255
205 227 255
205 227 255
205 227 255
205 227 255
205 226 255
205 226 255
205 226 255
205 226 255
205 226 255
205 226 255
205 226 255
204 226 255
204 226 255
204 226 255
204 226 255
204 226 255
204 226 255
204 226 255
204 226 255
204 226 255
204 226 255
204 226 255
204 226 255
204 226 255
204 226 255
204 226 255
204 226 255
203 226 255
203 226 255
203 226 255
203 226 255
203 226 255
203 226 255
203 226 255
203 225 255
203 225 255
203 225 255
203 225 255
203 225 255
203 225 255
203 225 255
203 225 255
203 225 255
202 225 255
202 225 255
202 225 255
202 225 255
202 225 255
202 225 255
202 225 255
202 225 255
202 225 255
202 225 255
202 225 255
202 225 255
202 225 255
202 225 255
201 225 255
201 225 255
201 225 255
201 225 255
201 225 255
201 224 255
201 224 255
201 224 255
201 224 255
201 224 255
201 224 255
201 224 255
201 224 255
201 224 255
201 224 255
200 224 255
200 224 255
200 224 255
200 224 255
200 224 255
200 224 255
200 224 255
200 224 255
200 224 255
200 224 255
200 224 255
200 224 255
200 224 255
200 224 255
200 224 255
199 224 255
199 224 255
199 224 255
199 223 255
199 223 255
199 223 255
199 223 255
199 223 255
199 223 255
199 223 255
199 223 255
199 223 255
199 223 255
199 223 255
199 223 255
199 223 255
198 223 255
198 223 255
198 223 255
198 223 255
198 223 255
198 223 255
198 223 255
198 223 255
198 223 255
198 223 255
198 223 255
198 223 255
198 223 255
198 223 255
198 223 255
198 223 255
198 223 255
198 223 255
198 223 255
198 223 255
197 223 255
197 222 255
197 222 255
197 222 255
197 222 255
197 222 255
197 222 255
197 222 255
197 222 255
197 222 255
197 222 255
197 222 255
197 222 255
197 222 255
197 222 255
197 222 255
197 222 255
197 222 255
197 222 255
197 222 255
197 222 255
197 222 255
197 222 255
197 222 255
197 222 255
197 222 255
197 222 255
197 222 255
197 222 255
197 222 255
197 222 255
197 222 255
197 222 255
197 222 255
197 222 255
197 222 255
197 222 255
197 222 255
197 222 255
197 222 255
197 222 255
197 222 255
197 222 255
197 222 255
197 222 255
197 222 255
197 222 255
197 222 255
197 222 255
197 222 255
197 222 255
197 222 255
197 222 255
197 222 255
197 222 255
197 222 255
197 222 255
197 222 255
197 222 255
197 222 255
197 222 255
197 222 255
197 222 255
197 222 255
197 222 255
197 222 255
197 222 255
197 222 255
197 222 255
197 222 255
197 222 255
197 222 255
197 222 255
197 222 255
197 222 255
197 222 255
197 222 255
197 223 255
198 223 255
198 223 255
198 223 255
198 223 255
198 223 255
198 223 255
198 223 255
198 223 255
198 223 255
198 223 255
198 223 255
198 223 255
198 223 255
198 223 255
198 223 255
198 223 255
198 223 255
198 223 255
198 223 255
199 223 255
199 223 255
199 223 255
199 223 255
199 223 255
199 223 255
199 223 255
199 223 255
199 223 255
199 223 255
199 223 255
199 223 255
199 223 255
199 223 255
199 224 255
199 224 255
199 224 255
200 224 255
200 224 255
200 224 255
200 224 255
200 224 255
200 224 255
200 224 255
200 224 255
200 224 255
200 224 255
200 224 255
200 224 255
200 224 255
200 224 255
200 224 255
201 224 255
201 224 255
201 224 255
201 224 255
201 224 255
201 224 255
201 224 255
201 224 255
201 224 255
201 224 255
201 224 255
201 225 255
201 225 255
201 225 255
201 225 255
202 225 255
202 225 255
202 225 255
202 225 255
202 225 255
202 225 255
202 225 255
202 225 255
202 225 255
202 225 255
202 225 255
202 225 255
202 225 255
202 225 255
202 225 255
203 225 255
203 225 255
203 225 255
203 225 255
203 225 255
203 225 255
203 225 255
203 225 255
203 226 255
203 226 255
203 226 255
203 226 255
203 226 255
203 226 255
203 226 255
204 226 255
204 226 255
204 226 255
204 226 255
204 226 255
204 226 255
204 226 255
204 226 255
204 226 255
204 226 255
204 226 255
204 226 255
204 226 255
204 226 255
204 226 255
204 226 255
205 226 255
205 226 255
205 226 255
205 226 255
205 226 255
205 226 255
205 226 255
205 227 255
205 227 255
205 227 255
205 227 255
205 227 255
205 227 255
205 227 255
205 227 255
205 227 255
205 227 255
206 227 255
206 227 255
206 227 255
206 227 255
206 227 255
206 227 255
206 227 255
206 227 255
206 227 255
206 227 255
206 227 255
206 227 255
206 227 255
206 227 255
206 227 255
206 227 255
206 227 255
206 227 255
206 227 255
207 227 255
207 227 255
207 227 255
207 227 255
207 227 255
207 228 255
207 228 255
207 228 255
207 228 255
207 228 255
207 228 255
207 228 255
207 228 255
207 228 255
207 228 255
207 228 255
207 228 255
207 228 255
207 228 255
207 228 255
207 228 255
207 228 255
207 228 255
207 228 255
207 227 255
207 227 255
207 227 255
207 227 255
207 227 255
206 227 255
206 227 255
206 227 255
206 227 255
206 227 255
206 227 255
206 227 255
206 227 255
206 227 255
206 227 255
206 227 255
206 227 255
206 227 255
206 227 255
206 227 255
206 227 255
206 227 255
206 227 255
205 227 255
205 227 255
205 227 255
205 227 255
205 227 255
205 227 255
205 227 255
205 227 255
205 227 255
205 227 255
205 227 255
205 226 255
205 226 255
205 226 255
205 226 255
205 226 255
205 226 255
205 226 255
204 226 255
204 226 255
204 226 255
204 226 255
204 226 255
204 226 255
204 226 255
204 226 255
204 226 255
204 226 255
204 226 255
204 226 255
204 226 255
204 226 255
204 226 255
204 226 255
203 226 255
203 226 255
203 226 255
203 226 255
203 226 255
203 226 255
203 225 255
203 225 255
203 225 255
203 225 255
203 225 255
203 225 255
203 225 255
203 225 255
203 225 255
202 225 255
202 225 255
202 225 255
202 225 255
202 225 255
202 225 255
202 225 255
202 225 255
202 225 255
202 225 255
202 225 255
202 225 255
202 225 255
202 225 255
202 225 255
201 225 255
201 225 255
201 225 255
201 225 255
201 224 255
201 224 255
201 224 255
201 224 255
201 224 255
201 224 255
201 224 255
201 224 255
201 224 255
201 224 255
201 224 255
200 224 255
200 224 255
200 224 255
200 224 255
200 224 255
200 224 255
200 224 255
200 224 255
200 224 255
200 224 255
200 224 255
200 224 255
200 224 255
200 224 255
200 224 255
199 224 255
199 224 255
199 223 255
199 223 255
199 223 255
199 223 255
199 223 255
199 223 255
199 223 255
199 223 255
199 223 255
199 223 255
199 223 255
199 223 255
199 223 255
199 223 255
198 223 255
198 223 255
198 223 255
198 223 255
198 223 255
198 223 255
198 223 255
198 223 255
198 223 255
198 223 255
198 223 255
198 223 255
198 223 255
198 223 255
198 223 255
198 223 255
198 223 255
198 223 255
198 223 255
198 223 255
198 223 255
197 223 255
197 222 255
197 222 255
197 222 255
197 222 255
197 222 255
197 222 255
197 222 255
197 222 255
197 222 255
197 222 255
197 222 255
197 222 255
197 222 255
197 222 255
197 222 255
197 222 255
197 222 255
197 222 255
197 222 255
197 222 255
197 222 255
197 222 255
197 222 255
197 222 255
197 222 255
197 222 255
197 222 255
197 222 255
197 222 255
197 222 255
197 222 255
197 222 255
197 222 255
197 222 255
197 222 255
197 222 255
197 222 255
197 222 255
197 222 255
197 222 255
197 222 255
197 222 255
197 222 255
197 222 255
197 222 255
197 222 255
197 222 255
197 222 255
197 222 255
197 222 255
197 222 255
197 222 255
197 222 255
197 222 255
197 222 255
197 222 255
197 222 255
197 222 255
197 222 255
197 222 255
197 222 255
197 222 255
197 222 255
197 222 255
197 222 255
197 222 255
197 222 255
197 222 255
197 223 255
198 223 255
198 223 255
198 223 255
198 223 255
198 223 255
198 223 255
198 223 255
198 223 255
198 223 255
198 223 255
198 223 255
198 223 255
198 223 255
198 223 255
198 223 255
198 223 255
198 223 255
198 223 255
198 223 255
198 223 255
198 223 255
199 223 255
199 223 255
199 223 255
199 223 255
199 223 255
199 223 255
199 223 255
199 223 255
199 223 255
199 223 255
199 223 255
199 223 255
199 223 255
199 223 255
199 224 255
199 224 255
200 224 255
200 224 255
200 224 255
200 224 255
200 224 255
200 224 255
200 224 255
200 224 255
200 224 255
200 224 255
200 224 255
200 224 255
200 224 255
200 224 255
200 224 255
201 224 255
201 224 255
201 224 255
201 224 255
201 224 255
201 224 255
201 224 255
201 224 255
201 224 255
201 224 255
201 224 255
201 225 255
201 225 255
201 225 255
201 225 255
202 225 255
202 225 255
202 225 255
202 225 255
202 225 255
202 225 255
202 225 255
202 225 255
202 225 255
202 225 255
202 225 255
202 225 255
202 225 255
202 225 255
202 225 255
203 225 255
203 225 255
203 225 255
203 225 255
203 225 255
203 225 255
203 225 255
203 225 255
203 225 255
203 226 255
203 226 255
203 226 255
203 226 255
203 226 255
203 226 255
204 226 255
204 226 255
204 226 255
204 226 255
204 226 255
204 226 255
204 226 255
204 226 255
204 226 255
204 226 255
204 226 255
204 226 255
204 226 255
204 226 255
204 226 255
204 226 255
205 226 255
205 226 255
205 226 255
205 226 255
205 226 255
205 226 255
205 226 255
205 227 255
205 227 255
205 227 255
205 227 255
205 227 255
205 227 255
205 227 255
205 227 255
205 227 255
205 227 255
205 227 255
206 227 255
206 227 255
206 227 255
206 227 255
206 227 255
206 227 255
206 227 255
206 227 255
206 227 255
206 227 255
206 227 255
206 227 255
206 227 255
206 227 255
206 227 255
206 227 255
206 227 255
206 227 255
207 227 255
207 227 255
207 227 255
207 227 255
207 227 255
207 228 255
207 228 255
207 228 255
207 228 255
207 228 255
207 228 255
207 228 255
207 228 255
207 228 255
207 228 255
207 228 255
207 228 255
207 228 255
207 228 255
207 228 255
207 228 255
207 228 255
207 228 255
207 228 255
207 228 255
207 228 255
207 228 255
207 228 255
207 228 255
207 228 255
207 227 255
207 227 255
207 227 255
207 227 255
206 227 255
206 227 255
206 227 255
206 227 255
206 227 255
206 227 255
206 227 255
206 227 255
206 227 255
206 227 255
206 227 255
206 227 255
206 227 255
206 227 255
206 227 255
206 227 255
206 227 255
206 227 255
206 227 255
205 227 255
205 227 255
205 227 255
205 227 255
205 227 255
205 227 255
205 227 255
205 227 255
205 227 255
205 227 255
205 226 255
205 226 255
205 226 255
205 226 255
205 226 255
205 226 255
205 226 255
204 226 255
204 226 255
204 226 255
204 226 255
204 226 255
204 226 255
204 226 255
204 226 255
204 226 255
204 226 255
204 226 255
204 226 255
204 226 255
204 226 255
204 226 255
204 226 255
203 226 255
203 226 255
203 226 255
203 226 255
203 226 255
203 226 255
203 226 255
203 225 255
203 225 255
203 225 255
203 225 255
203 225 255
203 225 255
203 225 255
203 225 255
202 225 255
202 225 255
202 225 255
202 225 255
202 225 255
202 225 255
202 225 255
202 225 255
202 225 255
202 225 255
202 225 255
202 225 255
202 225 255
202 225 255
202 225 255
201 225 255
201 225 255
201 225 255
201 225 255
201 225 255
201 224 255
201 224 255
201 224 255
201 224 255
201 224 255
201 224 255
201 224 255
201 224 255
201 224 255
201 224 255
200 224 255
200 224 255
200 224 255
200 224 255
200 224 255
200 224 255
200 224 255
200 224 255
200 224 255
200 224 255
200 224 255
200 224 255
200 224 255
200 224 255
200 224 255
200 224 255
199 224 255
199 224 255
199 223 255
199 223 255
199 223 255
199 223 255
199 223 255
199 223 255
199 223 255
199 223 255
199 223 255
199 223 255
199 223 255
199 223 255
199 223 255
199 223 255
199 223 255
198 223 255
198 223 255
198 223 255
198 223 255
198 223 255
198 223 255
198 223 255
198 223 255
198 223 255
198 223 255
198 223 255
198 223 255
198 223 255
198 223 255
198 223 255
198 223 255
198 223 255
198 223 255
198 223 255
198 223 255
198 223 255
198 223 255
197 223 255
197 222 255
197 222 255
197 222 255
197 222 255
197 222 255
197 222 255
197 222 255
197 222 255
197 222 255
197 222 255
197 222 255
197 222 255
197 222 255
197 222 255
197 222 255
197 222 255
197 222 255
197 222 255
197 222 255
197 222 255
197 222 255
197 222 255
197 222 255
197 222 255
197 222 255
197 222 255
197 222 255
197 222 255
197 222 255
197 222 255
197 222 255
197 222 255
197 222 255
197 222 255
197 222 255
197 222 255
197 222 255
197 222 255
197 222 255
197 222 255
197 222 255
197 222 255
197 222 255
197 222 255
197 222 255
197 222 255
197 222 255
197 222 255
197 222 255
197 222 255
197 222 255
197 222 255
197 222 255
197 222 255
197 222 255
197 222 255
197 222 255
197 222 255
197 223 255
198 223 255
198 223 255
198 223 255
198 223 255
198 223 255
198 223 255
198 223 255
198 223 255
198 223 255
198 223 255
198 223 255
198 223 255
198 223 255
198 223 255
198 223 255
198 223 255
198 223 255
198 223 255
198 223 255
198 223 255
198 223 255
198 223 255
199 223 255
199 223 255
199 223 255
199 223 255
199 223 255
199 223 255
199 223 255
199 223 255
199 223 255
199 223 255
199 223 255
199 223 255
199 223 255
199 223 255
199 223 255
199 224 255
199 224 255
200 224 255
200 224 255
200 224 255
200 224 255
200 224 255
200 224 255
200 224 255
200 224 255
200 224 255
200 224 255
200 224 255
200 224 255
200 224 255
200 224 255
200 224 255
200 224 255
201 224 255
201 224 255
201 224 255
201 224 255
201 224 255
201 224 255
201 224 255
201 224 255
201 224 255
201 224 255
201 225 255
201 225 255
201 225 255
201 225 255
201 225 255
202 225 255
202 225 255
202 225 255
202 225 255
202 225 255
202 225 255
202 225 255
202 225 255
202 225 255
202 225 255
202 225 255
202 225 255
202 225 255
202 225 255
202 225 255
203 225 255
203 225 255
203 225 255
203 225 255
203 225 255
203 225 255
203 225 255
203 225 255
203 226 255
203 226 255
203 226 255
203 226 255
203 226 255
203 226 255
203 226 255
204 226 255
204 226 255
204 226 255
204 226 255
204 226 255
204 226 255
204 226 255
204 226 255
204 226 255
204 226 255
204 226 255
204 226 255
204 226 255
204 226 255
204 226 255
204 226 255
205 226 255
205 226 255
205 226 255
205 226 255
205 226 255
205 226 255
205 226 255
205 227 255
205 227 255
205 227 255
205 227 255
205 227 255
205 227 255
205 227 255
205 227 255
205 227 255
205 227 255
206 227 255
206 227 255
206 227 255
206 227 255
206 227 255
206 227 255
206 227 255
206 227 255
206 227 255
206 227 255
206 227 255
206 227 255
206 227 255
206 227 255
206 227 255
206 227 255
206 227 255
206 227 255
206 227 255
207 227 255
207 227 255
207 227 255
207 227 255
207 228 255
207 228 255
207 228 255
207 228 255
207 228 255
207 228 255
207 228 255
207 228 255
207 228 255
207 228 255
207 228 255
207 228 255
207 228 255
207 228 255
208 228 255
207 228 255
207 228 255
207 228 255
207 228 255
207 228 255
207 228 255
207 228 255
207 228 255
207 228 255
207 228 255
207 228 255
207 228 255
207 228 255
207 228 255
207 228 255
207 228 255
207 227 255
207 227 255
207 227 255
207 227 255
206 227 255
206 227 255
206 227 255
206 227 255
206 227 255
206 227 255
206 227 255
206 227 255
206 227 255
206 227 255
206 227 255
206 227 255
206 227 255
206 227 255
206 227 255
206 227 255
206 227 255
206 227 255
206 227 255
205 227 255
205 227 255
205 227 255
205 227 255
205 227 255
205 227 255
205 227 255
205 227 255
205 227 255
205 227 255
205 226 255
205 226 255
205 226 255
205 226 255
205 226 255
205 226 255
205 226 255
204 226 255
204 226 255
204 226 255
204 226 255
204 226 255
204 226 255
204 226 255
204 226 255
204 226 255
204 226 255
204 226 255
204 226 255
204 226 255
204 226 255
204 226 255
204 226 255
203 226 255
203 226 255
203 226 255
203 226 255
203 226 255
203 226 255
203 226 255
203 225 255
203 225 255
203 225 255
203 225 255
203 225 255
203 225 255
203 225 255
203 225 255
202 225 255
202 225 255
202 225 255
202 225 255
202 225 255
202 225 255
202 225 255
202 225 255
202 225 255
202 225 255
202 225 255
202 225 255
202 225 255
202 225 255
202 225 255
201 225 255
201 225 255
201 225 255
201 225 255
201 224 255
201 224 255
201 224 255
201 224 255
201 224 255
201 224 255
201 224 255
201 224 255
201 224 255
201 224 255
201 224 255
200 224 255
200 224 255
200 224 255
200 224 255
200 224 255
200 224 255
200 224 255
200 224 255
200 224 255
200 224 255
200 224 255
200 224 255
200 224 255
200 224 255
200 224 255
199 224 255
199 224 255
199 224 255
199 223 255
199 223 255
199 223 255
199 223 255
199 223 255
199 223 255
199 223 255
199 223 255
199 223 255
199 223 255
199 223 255
199 223 255
199 223 255
199 223 255
199 223 255
198 223 255
198 223 255
198 223 255
198 223 255
198 223 255
198 223 255
198 223 255
198 223 255
198 223 255
198 223 255
198 223 255
198 223 255
198 223 255
198 223 255
198 223 255
198 223 255
198 223 255
198 223 255
198 223 255
198 223 255
198 223 255
198 223 255
198 223 255
198 223 255
198 223 255
197 223 255
197 222 255
197 222 255
197 222 255
197 222 255
197 222 255
197 222 255
197 222 255
197 222 255
197 222 255
197 222 255
197 222 255
197 222 255
197 222 255
197 222 255
197 222 255
197 222 255
197 222 255
197 222 255
197 222 255
197 222 255
197 222 255
197 222 255
197 222 255
197 222 255
197 222 255
197 222 255
197 222 255
197 222 255
197 222 255
197 222 255
197 222 255
197 222 255
197 222 255
197 222 255
197 222 255
197 222 255
197 222 255
197 222 255
197 222 255
197 222 255
197 222 255
197 222 255
197 222 255
197 222 255
197 222 255
197 222 255
197 223 255
197 223 255
198 223 255
198 223 255
198 223 255
198 223 255
198 223 255
198 223 255
198 223 255
198 223 255
198 223 255
198 223 255
198 223 255
198 223 255
198 223 255
198 223 255
198 223 255
198 223 255
198 223 255
198 223 255
198 223 255
198 223 255
198 223 255
198 223 255
198 223 255
198 223 255
199 223 255
199 223 255
199 223 255
199 223 255
199 223 255
199 223 255
199 223 255
199 223 255
199 223 255
199 223 255
199 223 255
199 223 255
199 223 255
199 223 255
199 223 255
199 224 255
199 224 255
199 224 255
200 224 255
200 224 255
200 224 255
200 224 255
200 224 255
200 224 255
200 224 255
200 224 255
200 224 255
200 224 255
200 224 255
200 224 255
200 224 255
200 224 255
200 224 255
201 224 255
201 224 255
201 224 255
201 224 255
201 224 255
201 224 255
201 224 255
201 224 255
201 224 255
201 224 255
201 224 255
201 225 255
201 225 255
201 225 255
201 225 255
202 225 255
202 225 255
202 225 255
202 225 255
202 225 255
202 225 255
202 225 255
202 225 255
202 225 255
202 225 255
202 225 255
202 225 255
202 225 255
202 225 255
202 225 255
203 225 255
203 225 255
203 225 255
203 225 255
203 225 255
203 225 255
203 225 255
203 225 255
203 226 255
203 226 255
203 226 255
203 226 255
203 226 255
203 226 255
203 226 255
204 226 255
204 226 255
204 226 255
204 226 255
204 226 255
204 226 255
204 226 255
204 226 255
204 226 255
204 226 255
204 226 255
204 226 255
204 226 255
204 226 255
204 226 255
204 226 255
205 226 255
205 226 255
205 226 255
205 226 255
205 226 255
205 226 255
205 226 255
205 227 255
205 227 255
205 227 255
205 227 255
205 227 255
205 227 255
205 227 255
205 227 255
205 227 255
205 227 255
206 227 255
206 227 255
206 227 255
206 227 255
206 227 255
206 227 255
206 227 255
206 227 255
206 227 255
206 227 255
206 227 255
206 227 255
206 227 255
206 227 255
206 227 255
206 227 255
206 227 255
206 227 255
206 227 255
207 227 255
207 227 255
207 227 255
207 227 255
207 228 255
207 228 255
207 228 255
207 228 255
207 228 255
207 228 255
207 228 255
207 228 255
207 228 255
207 228 255
207 228 255
207 228 255
207 228 255
207 228 255
207 228 255
207 228 255
208 228 255
208 228 255
208 228 255
208 228 255
208 228 255
207 228 255
207 228 255
207 228 255
207 228 255
207 228 255
207 228 255
207 228 255
207 228 255
207 228 255
207 228 255
207 228 255
207 228 255
207 228 255
207 228 255
207 228 255
207 228 255
207 227 255
207 227 255
207 227 255
207 227 255
206 227 255
206 227 255
206 227 255
206 227 255
206 227 255
206 227 255
206 227 255
206 227 255
206 227 255
206 227 255
206 227 255
206 227 255
206 227 255
206 227 255
206 227 255
206 227 255
206 227 255
206 227 255
205 227 255
205 227 255
205 227 255
205 227 255
205 227 255
205 227 255
205 227 255
205 227 255
205 227 255
205 227 255
205 227 255
205 226 255
205 226 255
205 226 255
205 226 255
205 226 255
205 226 255
204 226 255
204 226 255
204 226 255
204 226 255
204 226 255
204 226 255
204 226 255
204 226 255
204 226 255
204 226 255
204 226 255
204 226 255
204 226 255
204 226 255
204 226 255
204 226 255
203 226 255
203 226 255
203 226 255
203 226 255
203 226 255
203 226 255
203 226 255
203 225 255
203 225 255
203 225 255
203 225 255
203 225 255
203 225 255
203 225 255
203 225 255
202 225 255
202 225 255
202 225 255
202 225 255
202 225 255
202 225 255
202 225 255
202 225 255
202 225 255
202 225 255
202 225 255
202 225 255
202 225 255
202 225 255
202 225 255
202 225 255
201 225 255
201 225 255
201 225 255
201 225 255
201 224 255
201 224 255
201 224 255
201 224 255
201 224 255
201 224 255
201 224 255
201 224 255
201 224 255
201 224 255
201 224 255
200 224 255
200 224 255
200 224 255
200 224 255
200 224 255
200 224 255
200 224 255
200 224 255
200 224 255
200 224 255
200 224 255
200 224 255
200 224 255
200 224 255
200 224 255
199 224 255
199 224 255
199 224 255
199 223 255
199 223 255
199 223 255
199 223 255
199 223 255
199 223 255
199 223 255
199 223 255
199 223 255
199 223 255
199 223 255
199 223 255
199 223 255
199 223 255
199 223 255
199 223 255
198 223 255
198 223 255
198 223 255
198 223 255
198 223 255
198 223 255
198 223 255
198 223 255
198 223 255
198 223 255
198 223 255
198 223 255
198 223 255
198 223 255
198 223 255
198 223 255
198 223 255
198 223 255
198 223 255
198 223 255
198 223 255
198 223 255
198 223 255
198 223 255
198 223 255
198 223 255
198 223 255
197 223 255
197 223 255
197 223 255
197 222 255
197 222 255
197 222 255
197 222 255
197 222 255
197 222 255
197 222 255
197 222 255
197 222 255
197 222 255
197 222 255
197 222 255
197 222 255
197 222 255
197 222 255
197 222 255
197 222 255
197 222 255
197 222 255
197 222 255
197 222 255
197 222 255
197 222 255
197 222 255
197 222 255
197 222 255
197 222 255
197 222 255
197 222 255
197 222 255
197 223 255
197 223 255
198 223 255
198 223 255
198 223 255
198 223 255
198 223 255
198 223 255
198 223 255
198 223 255
198 223 255
198 223 255
198 223 255
198 223 255
198 223 255
198 223 255
198 223 255
198 223 255
198 223 255
198 223 255
198 223 255
198 223 255
198 223 255
198 223 255
198 223 255
198 223 255
198 223 255
198 223 255
198 223 255
198 223 255
199 223 255
199 223 255
199 223 255
199 223 255
199 223 255
199 223 255
199 223 255
199 223 255
199 223 255
199 223 255
199 223 255
199 223 255
199 223 255
199 223 255
199 223 255
199 223 255
199 224 255
199 224 255
199 224 255
200 224 255
200 224 255
200 224 255
200 224 255
200 224 255
200 224 255
200 224 255
200 224 255
200 224 255
200 224 255
200 224 255
200 224 255
200 224 255
200 224 255
200 224 255
201 224 255
201 224 255
201 224 255
201 224 255
201 224 255
201 224 255
201 224 255
201 224 255
201 224 255
201 224 255
201 224 255
201 225 255
201 225 255
201 225 255
201 225 255
201 225 255
202 225 255
202 225 255
202 225 255
202 225 255
202 225 255
202 225 255
202 225 255
202 225 255
202 225 255
202 225 255
202 225 255
202 225 255
202 225 255
202 225 255
202 225 255
203 225 255
203 225 255
203 225 255
203 225 255
203 225 255
203 225 255
203 225 255
203 225 255
203 226 255
203 226 255
203 226 255
203 226 255
203 226 255
203 226 255
203 226 255
204 226 255
204 226 255
204 226 255
204 226 255
204 226 255
204 226 255
204 226 255
204 226 255
204 226 255
204 226 255
204 226 255
204 226 255
204 226 255
204 226 255
204 226 255
204 226 255
205 226 255
205 226 255
205 226 255
205 226 255
205 226 255
205 226 255
205 227 255
205 227 255
205 227 255
205 227 255
205 227 255
205 227 255
205 227 255
205 227 255
205 227 255
205 227 255
205 227 255
206 227 255
206 227 255
206 227 255
206 227 255
206 227 255
206 227 255
206 227 255
206 227 255
206 227 255
206 227 255
206 227 255
206 227 255
206 227 255
206 227 255
206 227 255
206 227 255
206 227 255
206 227 255
207 227 255
207 227 255
207 227 255
207 227 255
207 228 255
207 228 255
207 228 255
207 228 255
207 228 255
207 228 255
207 228 255
207 228 255
207 228 255
207 228 255
207 228 255
207 228 255
207 228 255
207 228 255
207 228 255
207 228 255
208 228 255
208 228 255
208 228 255
208 228 255
208 228 255
208 228 255
208 228 255
208 228 255
208 228 255
208 228 255
208 228 255
207 228 255
207 228 255
207 228 255
207 228 255
207 228 255
207 228 255
207 228 255
207 228 255
207 228 255
207 228 255
207 228 255
207 228 255
207 228 255
207 228 255
207 228 255
207 227 255
207 227 255
207 227 255
207 227 255
207 227 255
206 227 255
206 227 255
206 227 255
206 227 255
206 227 255
206 227 255
206 227 255
206 227 255
206 227 255
206 227 255
206 227 255
206 227 255
206 227 255
206 227 255
206 227 255
206 227 255
206 227 255
206 227 255
205 227 255
205 227 255
205 227 255
205 227 255
205 227 255
205 227 255
205 227 255
205 227 255
205 227 255
205 227 255
205 226 255
205 226 255
205 226 255
205 226 255
205 226 255
205 226 255
205 226 255
204 226 255
204 226 255
204 226 255
204 226 255
204 226 255
204 226 255
204 226 255
204 226 255
204 226 255
204 226 255
204 226 255
204 226 255
204 226 255
204 226 255
204 226 255
204 226 255
203 226 255
203 226 255
203 226 255
203 226 255
203 226 255
203 226 255
203 226 255
203 225 255
203 225 255
203 225 255
203 225 255
203 225 255
203 225 255
203 225 255
203 225 255
202 225 255
202 225 255
202 225 255
202 225 255
202 225 255
202 225 255
202 225 255
202 225 255
202 225 255
202 225 255
202 225 255
202 225 255
202 225 255
202 225 255
202 225 255
201 225 255
201 225 255
201 225 255
201 225 255
201 225 255
201 224 255
201 224 255
201 224 255
201 224 255
201 224 255
201 224 255
201 224 255
201 224 255
201 224 255
201 224 255
200 224 255
200 224 255
200 224 255
200 224 255
200 224 255
200 224 255
200 224 255
200 224 255
200 224 255
200 224 255
200 224 255
200 224 255
200 224 255
200 224 255
200 224 255
200 224 255
200 224 255
199 224 255
199 224 255
199 223 255
199 223 255
199 223 255
199 223 255
199 223 255
199 223 255
199 223 255
199 223 255
199 223 255
199 223 255
199 223 255
199 223 255
199 223 255
199 223 255
199 223 255
199 223 255
199 223 255
198 223 255
198 223 255
198 223 255
198 223 255
198 223 255
198 223 255
198 223 255
198 223 255
198 223 255
198 223 255
198 223 255
198 223 255
198 223 255
198 223 255
198 223 255
198 223 255
198 223 255
198 223 255
198 223 255
198 223 255
198 223 255
198 223 255
198 223 255
198 223 255
198 223 255
198 223 255
198 223 255
198 223 255
198 223 255
198 223 255
198 223 255
198 223 255
198 223 255
198 223 255
198 223 255
198 223 255
198 223 255
198 223 255
198 223 255
197 223 255
197 223 255
197 223 255
198 223 255
197 223 255
197 223 255
198 223 255
198 223 255
198 223 255
198 223 255
198 223 255
198 223 255
198 223 255
198 223 255
198 223 255
198 223 255
198 223 255
198 223 255
198 223 255
198 223 255
198 223 255
198 223 255
198 223 255
198 223 255
198 223 255
198 223 255
198 223 255
198 223 255
198 223 255
198 223 255
198 223 255
198 223 255
198 223 255
198 223 255
198 223 255
198 223 255
198 223 255
198 223 255
198 223 255
198 223 255
198 223 255
198 223 255
198 223 255
199 223 255
199 223 255
199 223 255
199 223 255
199 223 255
199 223 255
199 223 255
199 223 255
199 223 255
199 223 255
199 223 255
199 223 255
199 223 255
199 223 255
199 223 255
199 223 255
199 223 255
199 224 255
199 224 255
199 224 255
200 224 255
200 224 255
200 224 255
200 224 255
200 224 255
200 224 255
200 224 255
200 224 255
200 224 255
200 224 255
200 224 255
200 224 255
200 224 255
200 224 255
200 224 255
200 224 255
201 224 255
201 224 255
201 224 255
201 224 255
201 224 255
201 224 255
201 224 255
201 224 255
201 224 255
201 224 255
201 224 255
201 225 255
201 225 255
201 225 255
201 225 255
202 225 255
202 225 255
202 225 255
202 225 255
202 225 255
202 225 255
202 225 255
202 225 255
202 225 255
202 225 255
202 225 255
202 225 255
202 225 255
202 225 255
202 225 255
203 225 255
203 225 255
203 225 255
203 225 255
203 225 255
203 225 255
203 225 255
203 225 255
203 226 255
203 226 255
203 226 255
203 226 255
203 226 255
203 226 255
203 226 255
204 226 255
204 226 255
204 226 255
204 226 255
204 226 255
204 226 255
204 226 255
204 226 255
204 226 255
204 226 255
204 226 255
204 226 255
204 226 255
204 226 255
204 226 255
204 226 255
205 226 255
205 226 255
205 226 255
205 226 255
205 226 255
205 226 255
205 226 255
205 227 255
205 227 255
205 227 255
205 227 255
205 227 255
205 227 255
205 227 255
205 227 255
205 227 255
205 227 255
206 227 255
206 227 255
206 227 255
206 227 255
206 227 255
206 227 255
206 227 255
206 227 255
206 227 255
206 227 255
206 227 255
206 227 255
206 227 255
206 227 255
206 227 255
206 227 255
206 227 255
206 227 255
207 227 255
207 227 255
207 227 255
207 227 255
207 227 255
207 228 255
207 228 255
207 228 255
207 228 255
207 228 255
207 228 255
207 228 255
207 228 255
207 228 255
207 228 255
207 228 255
207 228 255
207 228 255
207 228 255
207 228 255
208 228 255
208 228 255
208 228 255
208 228 255
208 228 255
208 228 255
208 228 255
208 228 255
208 228 255
208 228 255
208 228 255
208 228 255
208 228 255
208 228 255
208 228 255
208 228 255
208 228 255
207 228 255
207 228 255
207 228 255
207 228 255
207 228 255
207 228 255
207 228 255
207 228 255
207 228 255
207 228 255
207 228 255
207 228 255
207 228 255
207 228 255
207 228 255
207 227 255
207 227 255
207 227 255
207 227 255
207 227 255
206 227 255
206 227 255
206 227 255
206 227 255
206 227 255
206 227 255
206 227 255
206 227 255
206 227 255
206 227 255
206 227 255
206 227 255
206 227 255
206 227 255
206 227 255
206 227 255
206 227 255
206 227 255
205 227 255
205 227 255
205 227 255
205 227 255
205 227 255
205 227 255
205 227 255
205 227 255
205 227 255
205 227 255
205 226 255
205 226 255
205 226 255
205 226 255
205 226 255
205 226 255
205 226 255
204 226 255
204 226 255
204 226 255
204 226 255
204 226 255
204 226 255
204 226 255
204 226 255
204 226 255
204 226 255
204 226 255
204 226 255
204 226 255
204 226 255
204 226 255
204 226 255
203 226 255
203 226 255
203 226 255
203 226 255
203 226 255
203 226 255
203 225 255
203 225 255
203 225 255
203 225 255
203 225 255
203 225 255
203 225 255
203 225 255
203 225 255
202 225 255
202 225 255
202 225 255
202 225 255
202 225 255
202 225 255
202 225 255
202 225 255
202 225 255
202 225 255
202 225 255
202 225 255
202 225 255
202 225 255
202 225 255
201 225 255
201 225 255
201 225 255
201 225 255
201 224 255
201 224 255
201 224 255
201 224 255
201 224 255
201 224 255
201 224 255
201 224 255
201 224 255
201 224 255
201 224 255
200 224 255
200 224 255
200 224 255
200 224 255
200 224 255
200 224 255
200 224 255
200 224 255
200 224 255
200 224 255
200 224 255
200 224 255
200 224 255
200 224 255
200 224 255
200 224 255
200 224 255
199 224 255
199 224 255
199 224 255
199 223 255
199 223 255
199 223 255
199 223 255
199 223 255
199 223 255
199 223 255
199 223 255
199 223 255
199 223 255
199 223 255
199 223 255
199 223 255
199 223 255
199 223 255
199 223 255
199 223 255
198 223 255
198 223 255
198 223 255
198 223 255
198 223 255
198 223 255
198 223 255
198 223 255
198 223 255
198 223 255
198 223 255
198 223 255
198 223 255
198 223 255
198 223 255
198 223 255
198 223 255
198 223 255
198 223 255
198 223 255
198 223 255
198 223 255
198 223 255
198 223 255
198 223 255
198 223 255
198 223 255
198 223 255
198 223 255
198 223 255
198 223 255
198 223 255
198 223 255
198 223 255
198 223 255
198 223 255
198 223 255
198 223 255
198 223 255
198 223 255
198 223 255
198 223 255
198 223 255
198 223 255
198 223 255
198 223 255
198 223 255
198 223 255
198 223 255
198 223 255
198 223 255
198 223 255
198 223 255
198 223 255
198 223 255
198 223 255
198 223 255
198 223 255
198 223 255
198 223 255
198 223 255
198 223 255
198 223 255
198 223 255
198 223 255
198 223 255
198 223 255
198 223 255
198 223 255
198 223 255
198 223 255
198 223 255
198 223 255
198 223 255
199 223 255
199 223 255
199 223 255
199 223 255
199 223 255
199 223 255
199 223 255
199 223 255
199 223 255
199 223 255
199 223 255
199 223 255
199 223 255
199 223 255
199 223 255
199 223 255
199 223 255
199 224 255
199 224 255
199 224 255
200 224 255
200 224 255
200 224 255
200 224 255
200 224 255
200 224 255
200 224 255
200 224 255
200 224 255
200 224 255
200 224 255
200 224 255
200 224 255
200 224 255
200 224 255
200 224 255
200 224 255
201 224 255
201 224 255
201 224 255
201 224 255
201 224 255
201 224 255
201 224 255
201 224 255
201 224 255
201 224 255
201 224 255
201 225 255
201 225 255
201 225 255
201 225 255
202 225 255
202 225 255
202 225 255
202 225 255
202 225 255
202 225 255
202 225 255
202 225 255
202 225 255
202 225 255
202 225 255
202 225 255
202 225 255
202 225 255
202 225 255
203 225 255
203 225 255
203 225 255
203 225 255
203 225 255
203 225 255
203 225 255
203 225 255
203 225 255
203 226 255
203 226 255
203 226 255
203 226 255
203 226 255
203 226 255
204 226 255
204 226 255
204 226 255
204 226 255
204 226 255
204 226 255
204 226 255
204 226 255
204 226 255
204 226 255
204 226 255
204 226 255
204 226 255
204 226 255
204 226 255
204 226 255
205 226 255
205 226 255
205 226 255
205 226 255
205 226 255
205 226 255
205 226 255
205 227 255
205 227 255
205 227 255
205 227 255
205 227 255
205 227 255
205 227 255
205 227 255
205 227 255
205 227 255
206 227 255
206 227 255
206 227 255
206 227 255
206 227 255
206 227 255
206 227 255
206 227 255
206 227 255
206 227 255
206 227 255
206 227 255
206 227 255
206 227 255
206 227 255
206 227 255
206 227 255
206 227 255
207 227 255
207 227 255
207 227 255
207 227 255
207 227 255
207 228 255
207 228 255
207 228 255
207 228 255
207 228 255
207 228 255
207 228 255
207 228 255
207 228 255
207 228 255
207 228 255
207 228 255
207 228 255
207 228 255
207 228 255
208 228 255
208 228 255
208 228 255
208 228 255
208 228 255
208 228 255
208 228 255
208 228 255
208 228 255
208 228 255
208 228 255
208 228 255
208 228 255
208 228 255
208 228 255
208 228 255
208 228 255
208 228 255
208 228 255
208 228 255
208 228 255
208 228 255
208 228 255
207 228 255
207 228 255
207 228 255
207 228 255
207 228 255
207 228 255
207 228 255
207 228 255
207 228 255
207 228 255
207 228 255
207 228 255
207 228 255
207 228 255
207 228 255
207 227 255
207 227 255
207 227 255
207 227 255
207 227 255
206 227 255
206 227 255
206 227 255
206 227 255
206 227 255
206 227 255
206 227 255
206 227 255
206 227 255
206 227 255
206 227 255
206 227 255
206 227 255
206 227 255
206 227 255
206 227 255
206 227 255
206 227 255
205 227 255
205 227 255
205 227 255
205 227 255
205 227 255
205 227 255
205 227 255
205 227 255
205 227 255
205 227 255
205 226 255
205 226 255
205 226 255
205 226 255
205 226 255
205 226 255
204 226 255
204 226 255
204 226 255
204 226 255
204 226 255
204 226 255
204 226 255
204 226 255
204 226 255
204 226 255
204 226 255
204 226 255
204 226 255
204 226 255
204 226 255
204 226 255
203 226 255
203 226 255
203 226 255
203 226 255
203 226 255
203 226 255
203 226 255
203 225 255
203 225 255
203 225 255
203 225 255
203 225 255
203 225 255
203 225 255
203 225 255
202 225 255
202 225 255
202 225 255
202 225 255
202 225 255
202 225 255
202 225 255
202 225 255
202 225 255
202 225 255
202 225 255
202 225 255
202 225 255
202 225 255
202 225 255
202 225 255
201 225 255
201 225 255
201 225 255
201 225 255
201 224 255
201 224 255
201 224 255
201 224 255
201 224 255
201 224 255
201 224 255
201 224 255
201 224 255
201 224 255
201 224 255
200 224 255
200 224 255
200 224 255
200 224 255
200 224 255
200 224 255
200 224 255
200 224 255
200 224 255
200 224 255
200 224 255
200 224 255
200 224 255
200 224 255
200 224 255
200 224 255
200 224 255
199 224 255
199 224 255
199 224 255
199 223 255
199 223 255
199 223 255
199 223 255
199 223 255
199 223 255
199 223 255
199 223 255
199 223 255
199 223 255
199 223 255
199 223 255
199 223 255
199 223 255
199 223 255
199 223 255
199 223 255
199 223 255
198 223 255
198 223 255
198 223 255
198 223 255
198 223 255
198 223 255
198 223 255
198 223 255
198 223 255
198 223 255
198 223 255
198 223 255
198 223 255
198 223 255
198 223 255
198 223 255
198 223 255
198 223 255
198 223 255
198 223 255
198 223 255
198 223 255
198 223 255
198 223 255
198 223 255
198 223 255
198 223 255
198 223 255
198 223 255
198 223 255
198 223 255
198 223 255
198 223 255
198 223 255
198 223 255
198 223 255
198 223 255
198 223 255
198 223 255
198 223 255
198 223 255
198 223 255
198 223 255
198 223 255
198 223 255
198 223 255
198 223 255
198 223 255
198 223 255
198 223 255
198 223 255
198 223 255
198 223 255
198 223 255
198 223 255
198 223 255
198 223 255
198 223 255
198 223 255
198 223 255
198 223 255
198 223 255
198 223 255
198 223 255
198 223 255
199 223 255
199 223 255
199 223 255
199 223 255
199 223 255
199 223 255
199 223 255
199 223 255
199 223 255
199 223 255
199 223 255
199 223 255
199 223 255
199 223 255
199 223 255
199 223 255
199 223 255
199 223 255
199 223 255
199 224 255
199 224 255
199 224 255
200 224 255
200 224 255
200 224 255
200 224 255
200 224 255
200 224 255
200 224 255
200 224 255
200 224 255
200 224 255
200 224 255
200 224 255
200 224 255
200 224 255
200 224 255
200 224 255
200 224 255
201 224 255
201 224 255
201 224 255
201 224 255
201 224 255
201 224 255
201 224 255
201 224 255
201 224 255
201 224 255
201 224 255
201 225 255
201 225 255
201 225 255
201 225 255
202 225 255
202 225 255
202 225 255
202 225 255
202 225 255
202 225 255
202 225 255
202 225 255
202 225 255
202 225 255
202 225 255
202 225 255
202 225 255
202 225 255
202 225 255
203 225 255
203 225 255
203 225 255
203 225 255
203 225 255
203 225 255
203 225 255
203 225 255
203 225 255
203 226 255
203 226 255
203 226 255
203 226 255
203 226 255
203 226 255
203 226 255
204 226 255
204 226 255
204 226 255
204 226 255
204 226 255
204 226 255
204 226 255
204 226 255
204 226 255
204 226 255
204 226 255
204 226 255
204 226 255
204 226 255
204 226 255
204 226 255
205 226 255
205 226 255
205 226 255
205 226 255
205 226 255
205 226 255
205 227 255
205 227 255
205 227 255
205 227 255
205 227 255
205 227 255
205 227 255
205 227 255
205 227 255
205 227 255
206 227 255
206 227 255
206 227 255
206 227 255
206 227 255
206 227 255
206 227 255
206 227 255
206 227 255
206 227 255
206 227 255
206 227 255
206 227 255
206 227 255
206 227 255
206 227 255
206 227 255
206 227 255
207 227 255
207 227 255
207 227 255
207 227 255
207 227 255
207 228 255
207 228 255
207 228 255
207 228 255
207 228 255
207 228 255
207 228 255
207 228 255
207 228 255
207 228 255
207 228 255
207 228 255
207 228 255
207 228 255
207 228 255
208 228 255
208 228 255
208 228 255
208 228 255
208 228 255
208 228 255
208 228 255
208 228 255
208 228 255
208 228 255
208 228 255
208 228 255
208 228 255
208 228 255
208 228 255
208 228 255
208 228 255
208 228 255
208 228 255
208 228 255
208 228 255
208 228 255
208 228 255
208 228 255
208 228 255
208 228 255
208 228 255
208 228 255
208 228 255
207 228 255
207 228 255
207 228 255
207 228 255
207 228 255
207 228 255
207 228 255
207 228 255
207 228 255
207 228 255
207 228 255
207 228 255
207 228 255
207 228 255
207 228 255
207 227 255
207 227 255
207 227 255
207 227 255
206 227 255
206 227 255
206 227 255
206 227 255
206 227 255
206 227 255
206 227 255
206 227 255
206 227 255
206 227 255
206 227 255
206 227 255
206 227 255
206 227 255
206 227 255
206 227 255
206 227 255
206 227 255
206 227 255
205 227 255
205 227 255
205 227 255
205 227 255
205 227 255
205 227 255
205 227 255
205 227 255
205 227 255
205 227 255
205 226 255
205 226 255
205 226 255
205 226 255
205 226 255
205 226 255
204 226 255
204 226 255
204 226 255
204 226 255
204 226 255
204 226 255
204 226 255
204 226 255
204 226 255
204 226 255
204 226 255
204 226 255
204 226 255
204 226 255
204 226 255
204 226 255
203 226 255
203 226 255
203 226 255
203 226 255
203 226 255
203 226 255
203 226 255
203 225 255
203 225 255
203 225 255
203 225 255
203 225 255
203 225 255
203 225 255
203 225 255
202 225 255
202 225 255
202 225 255
202 225 255
202 225 255
202 225 255
202 225 255
202 225 255
202 225 255
202 225 255
202 225 255
202 225 255
202 225 255
202 225 255
202 225 255
201 225 255
201 225 255
201 225 255
201 225 255
201 225 255
201 224 255
201 224 255
201 224 255
201 224 255
201 224 255
201 224 255
201 224 255
201 224 255
201 224 255
201 224 255
201 224 255
200 224 255
200 224 255
200 224 255
200 224 255
200 224 255
200 224 255
200 224 255
200 224 255
200 224 255
200 224 255
200 224 255
200 224 255
200 224 255
200 224 255
200 224 255
200 224 255
200 224 255
200 224 255
199 224 255
199 224 255
199 224 255
199 223 255
199 223 255
199 223 255
199 223 255
199 223 255
199 223 255
199 223 255
199 223 255
199 223 255
199 223 255
199 223 255
199 223 255
199 223 255
199 223 255
199 223 255
199 223 255
199 223 255
199 223 255
199 223 255
199 223 255
198 223 255
198 223 255
198 223 255
198 223 255
198 223 255
198 223 255
198 223 255
198 223 255
198 223 255
198 223 255
198 223 255
198 223 255
198 223 255
198 223 255
198 223 255
198 223 255
198 223 255
198 223 255
198 223 255
198 223 255
198 223 255
198 223 255
198 223 255
198 223 255
198 223 255
198 223 255
198 223 255
198 223 255
198 223 255
198 223 255
198 223 255
198 223 255
198 223 255
198 223 255
198 223 255
198 223 255
198 223 255
198 223 255
198 223 255
198 223 255
198 223 255
198 223 255
198 223 255
198 223 255
198 223 255
198 223 255
198 223 255
198 223 255
198 223 255
198 223 255
198 223 255
198 223 255
198 223 255
198 223 255
199 223 255
199 223 255
199 223 255
199 223 255
199 223 255
199 223 255
199 223 255
199 223 255
199 223 255
199 223 255
199 223 255
199 223 255
199 223 255
199 223 255
199 223 255
199 223 255
199 223 255
199 223 255
199 223 255
199 223 255
199 224 255
199 224 255
199 224 255
200 224 255
200 224 255
200 224 255
200 224 255
200 224 255
200 224 255
200 224 255
200 224 255
200 224 255
200 224 255
200 224 255
200 224 255
200 224 255
200 224 255
200 224 255
200 224 255
200 224 255
200 224 255
201 224 255
201 224 255
201 224 255
201 224 255
201 224 255
201 224 255
201 224 255
201 224 255
201 224 255
201 224 255
201 224 255
201 225 255
201 225 255
201 225 255
201 225 255
201 225 255
202 225 255
202 225 255
202 225 255
202 225 255
202 225 255
202 225 255
202 225 255
202 225 255
202 225 255
202 225 255
202 225 255
202 225 255
202 225 255
202 225 255
202 225 255
203 225 255
203 225 255
203 225 255
203 225 255
203 225 255
203 225 255
203 225 255
203 225 255
203 226 255
203 226 255
203 226 255
203 226 255
203 226 255
203 226 255
203 226 255
204 226 255
204 226 255
204 226 255
204 226 255
204 226 255
204 226 255
204 226 255
204 226 255
204 226 255
204 226 255
204 226 255
204 226 255
204 226 255
204 226 255
204 226 255
204 226 255
205 226 255
205 226 255
205 226 255
205 226 255
205 226 255
205 226 255
205 226 255
205 227 255
205 227 255
205 227 255
205 227 255
205 227 255
205 227 255
205 227 255
205 227 255
205 227 255
206 227 255
206 227 255
206 227 255
206 227 255
206 227 255
206 227 255
206 227 255
206 227 255
206 227 255
206 227 255
206 227 255
206 227 255
206 227 255
206 227 255
206 227 255
206 227 255
206 227 255
206 227 255
207 227 255
207 227 255
207 227 255
207 227 255
207 227 255
207 228 255
207 228 255
207 228 255
207 228 255
207 228 255
207 228 255
207 228 255
207 228 255
207 228 255
207 228 255
207 228 255
207 228 255
207 228 255
207 228 255
207 228 255
208 228 255
208 228 255
208 228 255
208 228 255
208 228 255
208 228 255
208 228 255
208 228 255
208 228 255
208 228 255
208 228 255
208 228 255
208 228 255
208 228 255
208 228 255
208 228 255
208 228 255
208 228 255
208 228 255
208 228 255
208 228 255
208 228 255
208 228 255
208 228 255
208 228 255
208 228 255
208 228 255
208 228 255
208 228 255
208 228 255
208 228 255
208 228 255
208 228 255
208 228 255
208 228 255
207 228 255
207 228 255
207 228 255
207 228 255
207 228 255
207 228 255
207 228 255
207 228 255
207 228 255
207 228 255
207 228 255
207 228 255
207 228 255
207 228 255
207 228 255
207 227 255
207 227 255
207 227 255
207 227 255
206 227 255
206 227 255
206 227 255
206 227 255
206 227 255
206 227 255
206 227 255
206 227 255
206 227 255
206 227 255
206 227 255
206 227 255
206 227 255
206 227 255
206 227 255
206 227 255
206 227 255
206 227 255
205 227 255
205 227 255
205 227 255
205 227 255
205 227 255
205 227 255
205 227 255
205 227 255
205 227 255
205 227 255
205 226 255
205 226 255
205 226 255
205 226 255
205 226 255
205 226 255
205 226 255
204 226 255
204 226 255
204 226 255
204 226 255
204 226 255
204 226 255
204 226 255
204 226 255
204 226 255
204 226 255
204 226 255
204 226 255
204 226 255
204 226 255
204 226 255
204 226 255
203 226 255
203 226 255
203 226 255
203 226 255
203 226 255
203 226 255
203 225 255
203 225 255
203 225 255
203 225 255
203 225 255
203 225 255
203 225 255
203 225 255
203 225 255
202 225 255
202 225 255
202 225 255
202 225 255
202 225 255
202 225 255
202 225 255
202 225 255
202 225 255
202 225 255
202 225 255
202 225 255
202 225 255
202 225 255
202 225 255
201 225 255
201 225 255
201 225 255
201 225 255
201 225 255
201 224 255
201 224 255
201 224 255
201 224 255
201 224 255
201 224 255
201 224 255
201 224 255
201 224 255
201 224 255
201 224 255
200 224 255
200 224 255
200 224 255
200 224 255
200 224 255
200 224 255
200 224 255
200 224 255
200 224 255
200 224 255
200 224 255
200 224 255
200 224 255
200 224 255
200 224 255
200 224 255
200 224 255
200 224 255
199 224 255
199 224 255
199 224 255
199 224 255
199 223 255
199 223 255
199 223 255
199 223 255
199 223 255
199 223 255
199 223 255
199 223 255
199 223 255
199 223 255
199 223 255
199 223 255
199 223 255
199 223 255
199 223 255
199 223 255
199 223 255
199 223 255
199 223 255
199 223 255
199 223 255
199 223 255
199 223 255
198 223 255
198 223 255
198 223 255
198 223 255
198 223 255
198 223 255
198 223 255
198 223 255
198 223 255
198 223 255
198 223 255
198 223 255
198 223 255
198 223 255
198 223 255
198 223 255
198 223 255
198 223 255
198 223 255
198 223 255
198 223 255
198 223 255
198 223 255
198 223 255
198 223 255
198 223 255
198 223 255
198 223 255
198 223 255
198 223 255
198 223 255
198 223 255
198 223 255
198 223 255
198 223 255
198 223 255
198 223 255
198 223 255
198 223 255
198 223 255
199 223 255
199 223 255
199 223 255
199 223 255
199 223 255
199 223 255
199 223 255
199 223 255
199 223 255
199 223 255
199 223 255
199 223 255
199 223 255
199 223 255
199 223 255
199 223 255
199 223 255
199 223 255
199 223 255
199 223 255
199 223 255
199 223 255
199 223 255
199 224 255
199 224 255
199 224 255
199 224 255
200 224 255
200 224 255
200 224 255
200 224 255
200 224 255
200 224 255
200 224 255
200 224 255
200 224 255
200 224 255
200 224 255
200 224 255
200 224 255
200 224 255
200 224 255
200 224 255
200 224 255
200 224 255
201 224 255
201 224 255
201 224 255
201 224 255
201 224 255
201 224 255
201 224 255
201 224 255
201 224 255
201 224 255
201 224 255
201 225 255
201 225 255
201 225 255
201 225 255
201 225 255
202 225 255
202 225 255
202 225 255
202 225 255
202 225 255
202 225 255
202 225 255
202 225 255
202 225 255
202 225 255
202 225 255
202 225 255
202 225 255
202 225 255
202 225 255
203 225 255
203 225 255
203 225 255
203 225 255
203 225 255
203 225 255
203 225 255
203 225 255
203 226 255
203 226 255
203 226 255
203 226 255
203 226 255
203 226 255
203 226 255
204 226 255
204 226 255
204 226 255
204 226 255
204 226 255
204 226 255
204 226 255
204 226 255
204 226 255
204 226 255
204 226 255
204 226 255
204 226 255
204 226 255
204 226 255
204 226 255
205 226 255
205 226 255
205 226 255
205 226 255
205 226 255
205 226 255
205 226 255
205 227 255
205 227 255
205 227 255
205 227 255
205 227 255
205 227 255
205 227 255
205 227 255
205 227 255
205 227 255
206 227 255
206 227 255
206 227 255
206 227 255
206 227 255
206 227 255
206 227 255
206 227 255
206 227 255
206 227 255
206 227 255
206 227 255
206 227 255
206 227 255
206 227 255
206 227 255
206 227 255
207 227 255
207 227 255
207 227 255
207 227 255
207 227 255
207 228 255
207 228 255
207 228 255
207 228 255
207 228 255
207 228 255
207 228 255
207 228 255
207 228 255
207 228 255
207 228 255
207 228 255
207 228 255
207 228 255
207 228 255
208 228 255
208 228 255
208 228 255
208 228 255
208 228 255
208 228 255
208 228 255
208 228 255
208 228 255
208 228 255
208 228 255
208 228 255
208 228 255
208 228 255
208 228 255
208 228 255
208 228 255
208 228 255
208 228 255
209 228 255
208 228 255
208 228 255
208 228 255
208 228 255
208 228 255
208 228 255
208 228 255
208 228 255
208 228 255
208 228 255
208 228 255
208 228 255
208 228 255
208 228 255
208 228 255
208 228 255
208 228 255
208 228 255
208 228 255
208 228 255
208 228 255
207 228 255
207 228 255
207 228 255
207 228 255
207 228 255
207 228 255
207 228 255
207 228 255
207 228 255
207 228 255
207 228 255
207 228 255
207 228 255
207 228 255
207 228 255
207 227 255
207 227 255
207 227 255
207 227 255
207 227 255
206 227 255
206 227 255
206 227 255
206 227 255
206 227 255
206 227 255
206 227 255
206 227 255
206 227 255
206 227 255
206 227 255
206 227 255
206 227 255
206 227 255
206 227 255
206 227 255
206 227 255
205 227 255
205 227 255
205 227 255
205 227 255
205 227 255
205 227 255
205 227 255
205 227 255
205 227 255
205 227 255
205 226 255
205 226 255
205 226 255
205 226 255
205 226 255
205 226 255
205 226 255
204 226 255
204 226 255
204 226 255
204 226 255
204 226 255
204 226 255
204 226 255
204 226 255
204 226 255
204 226 255
204 226 255
204 226 255
204 226 255
204 226 255
204 226 255
203 226 255
203 226 255
203 226 255
203 226 255
203 226 255
203 226 255
203 226 255
203 225 255
203 225 255
203 225 255
203 225 255
203 225 255
203 225 255
203 225 255
203 225 255
203 225 255
202 225 255
202 225 255
202 225 255
202 225 255
202 225 255
202 225 255
202 225 255
202 225 255
202 225 255
202 225 255
202 225 255
202 225 255
202 225 255
202 225 255
202 225 255
201 225 255
201 225 255
201 225 255
201 225 255
201 225 255
201 224 255
201 224 255
201 224 255
201 224 255
201 224 255
201 224 255
201 224 255
201 224 255
201 224 255
201 224 255
201 224 255
201 224 255
200 224 255
200 224 255
200 224 255
200 224 255
200 224 255
200 224 255
200 224 255
200 224 255
200 224 255
200 224 255
200 224 255
200 224 255
200 224 255
200 224 255
200 224 255
200 224 255
200 224 255
200 224 255
199 224 255
199 224 255
199 224 255
199 224 255
199 223 255
199 223 255
199 223 255
199 223 255
199 223 255
199 223 255
199 223 255
199 223 255
199 223 255
199 223 255
199 223 255
199 223 255
199 223 255
199 223 255
199 223 255
199 223 255
199 223 255
199 223 255
199 223 255
199 223 255
199 223 255
199 223 255
199 223 255
199 223 255
199 223 255
199 223 255
199 223 255
199 223 255
199 223 255
199 223 255
198 223 255
198 223 255
198 223 255
198 223 255
198 223 255
198 223 255
198 223 255
198 223 255
198 223 255
198 223 255
198 223 255
198 223 255
198 223 255
198 223 255
198 223 255
198 223 255
198 223 255
198 223 255
198 223 255
199 223 255
199 223 255
199 223 255
199 223 255
199 223 255
199 223 255
199 223 255
199 223 255
199 223 255
199 223 255
199 223 255
199 223 255
199 223 255
199 223 255
199 223 255
199 223 255
199 223 255
199 223 255
199 223 255
199 223 255
199 223 255
199 223 255
199 223 255
199 223 255
199 223 255
199 223 255
199 223 255
199 223 255
199 223 255
199 224 255
199 224 255
199 224 255
199 224 255
200 224 255
200 224 255
200 224 255
200 224 255
200 224 255
200 224 255
200 224 255
200 224 255
200 224 255
200 224 255
200 224 255
200 224 255
200 224 255
200 224 255
200 224 255
200 224 255
200 224 255
200 224 255
201 224 255
201 224 255
201 224 255
201 224 255
201 224 255
201 224 255
201 224 255
201 224 255
201 224 255
201 224 255
201 224 255
201 224 255
201 225 255
201 225 255
201 225 255
201 225 255
201 225 255
202 225 255
202 225 255
202 225 255
202 225 255
202 225 255
202 225 255
202 225 255
202 225 255
202 225 255
202 225 255
202 225 255
202 225 255
202 225 255
202 225 255
202 225 255
203 225 255
203 225 255
203 225 255
203 225 255
203 225 255
203 225 255
203 225 255
203 225 255
203 225 255
203 226 255
203 226 255
203 226 255
203 226 255
203 226 255
203 226 255
203 226 255
204 226 255
204 226 255
204 226 255
204 226 255
204 226 255
204 226 255
204 226 255
204 226 255
204 226 255
204 226 255
204 226 255
204 226 255
204 226 255
204 226 255
204 226 255
205 226 255
205 226 255
205 226 255
205 226 255
205 226 255
205 226 255
205 226 255
205 227 255
205 227 255
205 227 255
205 227 255
205 227 255
205 227 255
205 227 255
205 227 255
205 227 255
205 227 255
206 227 255
206 227 255
206 227 255
206 227 255
206 227 255
206 227 255
206 227 255
206 227 255
206 227 255
206 227 255
206 227 255
206 227 255
206 227 255
206 227 255
206 227 255
206 227 255
206 227 255
207 227 255
207 227 255
207 227 255
207 227 255
207 227 255
207 228 255
207 228 255
207 228 255
207 228 255
207 228 255
207 228 255
207 228 255
207 228 255
207 228 255
207 228 255
207 228 255
207 228 255
207 228 255
207 228 255
207 228 255
208 228 255
208 228 255
208 228 255
208 228 255
208 228 255
208 228 255
208 228 255
208 228 255
208 228 255
208 228 255
208 228 255
208 228 255
208 228 255
208 228 255
208 228 255
208 228 255
208 228 255
208 228 255
208 228 255
208 228 255
208 228 255
209 228 255
209 229 255
209 229 255
209 228 255
209 228 255
208 228 255
208 228 255
208 228 255
208 228 255
208 228 255
208 228 255
208 228 255
208 228 255
208 228 255
208 228 255
208 228 255
208 228 255
208 228 255
208 228 255
208 228 255
208 228 255
208 228 255
208 228 255
208 228 255
208 228 255
208 228 255
208 228 255
207 228 255
207 228 255
207 228 255
207 228 255
207 228 255
207 228 255
207 228 255
207 228 255
207 228 255
207 228 255
207 228 255
207 228 255
207 228 255
207 228 255
207 227 255
207 227 255
207 227 255
207 227 255
207 227 255
206 227 255
206 227 255
206 227 255
206 227 255
206 227 255
206 227 255
206 227 255
206 227 255
206 227 255
206 227 255
206 227 255
206 227 255
206 227 255
206 227 255
206 227 255
206 227 255
206 227 255
205 227 255
205 227 255
205 227 255
205 227 255
205 227 255
205 227 255
205 227 255
205 227 255
205 227 255
205 227 255
205 226 255
205 226 255
205 226 255
205 226 255
205 226 255
205 226 255
205 226 255
204 226 255
204 226 255
204 226 255
204 226 255
204 226 255
204 226 255
204 226 255
204 226 255
204 226 255
204 226 255
204 226 255
204 226 255
204 226 255
204 226 255
204 226 255
203 226 255
203 226 255
203 226 255
203 226 255
203 226 255
203 226 255
203 226 255
203 225 255
203 225 255
203 225 255
203 225 255
203 225 255
203 225 255
203 225 255
203 225 255
203 225 255
202 225 255
202 225 255
202 225 255
202 225 255
202 225 255
202 225 255
202 225 255
202 225 255
202 225 255
202 225 255
202 225 255
202 225 255
202 225 255
202 225 255
202 225 255
201 225 255
201 225 255
201 225 255
201 225 255
201 225 255
201 224 255
201 224 255
201 224 255
201 224 255
201 224 255
201 224 255
201 224 255
201 224 255
201 224 255
201 224 255
201 224 255
201 224 255
200 224 255
200 224 255
200 224 255
200 224 255
200 224 255
200 224 255
200 224 255
200 224 255
200 224 255
200 224 255
200 224 255
200 224 255
200 224 255
200 224 255
200 224 255
200 224 255
200 224 255
200 224 255
200 224 255
200 224 255
199 224 255
199 224 255
199 224 255
199 224 255
199 223 255
199 223 255
199 223 255
199 223 255
199 223 255
199 223 255
199 223 255
199 223 255
199 223 255
199 223 255
199 223 255
199 223 255
199 223 255
199 223 255
199 223 255
199 223 255
199 223 255
199 223 255
199 223 255
199 223 255
199 223 255
199 223 255
199 223 255
199 223 255
199 223 255
199 223 255
199 223 255
199 223 255
199 223 255
199 223 255
199 223 255
199 223 255
199 223 255
199 223 255
199 223 255
199 223 255
199 223 255
199 223 255
199 223 255
199 223 255
199 223 255
199 223 255
199 223 255
199 223 255
199 223 255
199 223 255
199 223 255
199 223 255
199 223 255
199 223 255
199 223 255
199 223 255
199 223 255
199 223 255
199 223 255
199 223 255
199 223 255
199 223 255
199 223 255
199 223 255
199 223 255
199 223 255
199 223 255
199 223 255
199 223 255
199 223 255
199 223 255
199 223 255
199 224 255
199 224 255
199 224 255
199 224 255
200 224 255
200 224 255
200 224 255
200 224 255
200 224 255
200 224 255
200 224 255
200 224 255
200 224 255
200 224 255
200 224 255
200 224 255
200 224 255
200 224 255
200 224 255
200 224 255
200 224 255
200 224 255
200 224 255
200 224 255
201 224 255
201 224 255
201 224 255
201 224 255
201 224 255
201 224 255
201 224 255
201 224 255
201 224 255
201 224 255
201 224 255
201 224 255
201 225 255
201 225 255
201 225 255
201 225 255
201 225 255
202 225 255
202 225 255
202 225 255
202 225 255
202 225 255
202 225 255
202 225 255
202 225 255
202 225 255
202 225 255
202 225 255
202 225 255
202 225 255
202 225 255
202 225 255
203 225 255
203 225 255
203 225 255
203 225 255
203 225 255
203 225 255
203 225 255
203 225 255
203 225 255
203 226 255
203 226 255
203 226 255
203 226 255
203 226 255
203 226 255
203 226 255
204 226 255
204 226 255
204 226 255
204 226 255
204 226 255
204 226 255
204 226 255
204 226 255
204 226 255
204 226 255
204 226 255
204 226 255
204 226 255
204 226 255
204 226 255
205 226 255
205 226 255
205 226 255
205 226 255
205 226 255
205 226 255
205 226 255
205 227 255
205 227 255
205 227 255
205 227 255
205 227 255
205 227 255
205 227 255
205 227 255
205 227 255
205 227 255
206 227 255
206 227 255
206 227 255
206 227 255
206 227 255
206 227 255
206 227 255
206 227 255
206 227 255
206 227 255
206 227 255
206 227 255
206 227 255
206 227 255
206 227 255
206 227 255
206 227 255
207 227 255
207 227 255
207 227 255
207 227 255
207 227 255
207 228 255
207 228 255
207 228 255
207 228 255
207 228 255
207 228 255
207 228 255
207 228 255
207 228 255
207 228 255
207 228 255
207 228 255
207 228 255
207 228 255
207 228 255
208 228 255
208 228 255
208 228 255
208 228 255
208 228 255
208 228 255
208 228 255
208 228 255
208 228 255
208 228 255
208 228 255
208 228 255
208 228 255
208 228 255
208 228 255
208 228 255
208 228 255
208 228 255
208 228 255
208 228 255
208 228 255
209 228 255
209 229 255
209 229 255
209 229 255
209 229 255
209 229 255
209 229 255
209 229 255
209 229 255
209 229 255
209 228 255
208 228 255
208 228 255
208 228 255
208 228 255
208 228 255
208 228 255
208 228 255
208 228 255
208 228 255
208 228 255
208 228 255
208 228 255
208 228 255
208 228 255
208 228 255
208 228 255
208 228 255
208 228 255
208 228 255
208 228 255
208 228 255
207 228 255
207 228 255
207 228 255
207 228 255
207 228 255
207 228 255
207 228 255
207 228 255
207 228 255
207 228 255
207 228 255
207 228 255
207 228 255
207 228 255
207 228 255
207 227 255
207 227 255
207 227 255
207 227 255
206 227 255
206 227 255
206 227 255
206 227 255
206 227 255
206 227 255
206 227 255
206 227 255
206 227 255
206 227 255
206 227 255
206 227 255
206 227 255
206 227 255
206 227 255
206 227 255
206 227 255
206 227 255
205 227 255
205 227 255
205 227 255
205 227 255
205 227 255
205 227 255
205 227 255
205 227 255
205 227 255
205 227 255
205 226 255
205 226 255
205 226 255
205 226 255
205 226 255
205 226 255
204 226 255
204 226 255
204 226 255
204 226 255
204 226 255
204 226 255
204 226 255
204 226 255
204 226 255
204 226 255
204 226 255
204 226 255
204 226 255
204 226 255
204 226 255
204 226 255
203 226 255
203 226 255
203 226 255
203 226 255
203 226 255
203 226 255
203 226 255
203 225 255
203 225 255
203 225 255
203 225 255
203 225 255
203 225 255
203 225 255
203 225 255
203 225 255
202 225 255
202 225 255
202 225 255
202 225 255
202 225 255
202 225 255
202 225 255
202 225 255
202 225 255
202 225 255
202 225 255
202 225 255
202 225 255
202 225 255
202 225 255
201 225 255
201 225 255
201 225 255
201 225 255
201 225 255
201 224 255
201 224 255
201 224 255
201 224 255
201 224 255
201 224 255
201 224 255
201 224 255
201 224 255
201 224 255
201 224 255
201 224 255
201 224 255
200 224 255
200 224 255
200 224 255
200 224 255
200 224 255
200 224 255
200 224 255
200 224 255
200 224 255
200 224 255
200 224 255
200 224 255
200 224 255
200 224 255
200 224 255
200 224 255
200 224 255
200 224 255
200 224 255
200 224 255
200 224 255
199 224 255
199 224 255
199 224 255
199 224 255
199 223 255
199 223 255
199 223 255
199 223 255
199 223 255
199 223 255
199 223 255
199 223 255
199 223 255
199 223 255
199 223 255
199 223 255
199 223 255
199 223 255
199 223 255
199 223 255
199 223 255
199 223 255
199 223 255
199 223 255
199 223 255
199 223 255
199 223 255
199 223 255
199 223 255
199 223 255
199 223 255
199 223 255
199 223 255
199 223 255
199 223 255
199 223 255
199 223 255
199 223 255
199 223 255
199 223 255
199 223 255
199 223 255
199 223 255
199 223 255
199 223 255
199 223 255
199 223 255
199 223 255
199 223 255
199 223 255
199 223 255
199 223 255
199 223 255
199 223 255
199 223 255
199 223 255
199 223 255
199 223 255
199 223 255
199 223 255
199 223 255
199 223 255
199 224 255
199 224 255
199 224 255
199 224 255
200 224 255
200 224 255
200 224 255
200 224 255
200 224 255
200 224 255
200 224 255
200 224 255
200 224 255
200 224 255
200 224 255
200 224 255
200 224 255
200 224 255
200 224 255
200 224 255
200 224 255
200 224 255
200 224 255
200 224 255
200 224 255
200 224 255
201 224 255
201 224 255
201 224 255
201 224 255
201 224 255
201 224 255
201 224 255
201 224 255
201 224 255
201 224 255
201 224 255
201 224 255
201 225 255
201 225 255
201 225 255
201 225 255
201 225 255
202 225 255
202 225 255
202 225 255
202 225 255
202 225 255
202 225 255
202 225 255
202 225 255
202 225 255
202 225 255
202 225 255
202 225 255
202 225 255
202 225 255
202 225 255
203 225 255
203 225 255
203 225 255
203 225 255
203 225 255
203 225 255
203 225 255
203 225 255
203 225 255
203 226 255
203 226 255
203 226 255
203 226 255
203 226 255
203 226 255
203 226 255
204 226 255
204 226 255
204 226 255
204 226 255
204 226 255
204 226 255
204 226 255
204 226 255
204 226 255
204 226 255
204 226 255
204 226 255
204 226 255
204 226 255
204 226 255
204 226 255
205 226 255
205 226 255
205 226 255
205 226 255
205 226 255
205 226 255
205 227 255
205 227 255
205 227 255
205 227 255
205 227 255
205 227 255
205 227 255
205 227 255
205 227 255
205 227 255
206 227 255
206 227 255
206 227 255
206 227 255
206 227 255
206 227 255
206 227 255
206 227 255
206 227 255
206 227 255
206 227 255
206 227 255
206 227 255
206 227 255
206 227 255
206 227 255
206 227 255
207 227 255
207 227 255
207 227 255
207 227 255
207 227 255
207 228 255
207 228 255
207 228 255
207 228 255
207 228 255
207 228 255
207 228 255
207 228 255
207 228 255
207 228 255
207 228 255
207 228 255
207 228 255
207 228 255
208 228 255
208 228 255
208 228 255
208 228 255
208 228 255
208 228 255
208 228 255
208 228 255
208 228 255
208 228 255
208 228 255
208 228 255
208 228 255
208 228 255
208 228 255
208 228 255
208 228 255
208 228 255
208 228 255
208 228 255
208 228 255
208 228 255
209 228 255
209 229 255
209 229 255
209 229 255
209 229 255
209 229 255
209 229 255
209 229 255
209 229 255
209 229 255
209 229 255
209 229 255
209 229 255
209 229 255
209 229 255
209 229 255
209 228 255
209 228 255
208 228 255
208 228 255
208 228 255
208 228 255
208 228 255
208 228 255
208 228 255
208 228 255
208 228 255
208 228 255
208 228 255
208 228 255
208 228 255
208 228 255
208 228 255
208 228 255
208 228 255
208 228 255
208 228 255
208 228 255
208 228 255
207 228 255
207 228 255
207 228 255
207 228 255
207 228 255
207 228 255
207 228 255
207 228 255
207 228 255
207 228 255
207 228 255
207 228 255
207 228 255
207 228 255
207 227 255
207 227 255
207 227 255
207 227 255
206 227 255
206 227 255
206 227 255
206 227 255
206 227 255
206 227 255
206 227 255
206 227 255
206 227 255
206 227 255
206 227 255
206 227 255
206 227 255
206 227 255
206 227 255
206 227 255
206 227 255
206 227 255
205 227 255
205 227 255
205 227 255
205 227 255
205 227 255
205 227 255
205 227 255
205 227 255
205 227 255
205 227 255
205 226 255
205 226 255
205 226 255
205 226 255
205 226 255
205 226 255
204 226 255
204 226 255
204 226 255
204 226 255
204 226 255
204 226 255
204 226 255
204 226 255
204 226 255
204 226 255
204 226 255
204 226 255
204 226 255
204 226 255
204 226 255
204 226 255
203 226 255
203 226 255
203 226 255
203 226 255
203 226 255
203 226 255
203 226 255
203 225 255
203 225 255
203 225 255
203 225 255
203 225 255
203 225 255
203 225 255
203 225 255
203 225 255
202 225 255
202 225 255
202 225 255
202 225 255
202 225 255
202 225 255
202 225 255
202 225 255
202 225 255
202 225 255
202 225 255
202 225 255
202 225 255
202 225 255
202 225 255
201 225 255
201 225 255
201 225 255
201 225 255
201 225 255
201 224 255
201 224 255
201 224 255
201 224 255
201 224 255
201 224 255
201 224 255
201 224 255
201 224 255
201 224 255
201 224 255
201 224 255
201 224 255
200 224 255
200 224 255
200 224 255
200 224 255
200 224 255
200 224 255
200 224 255
200 224 255
200 224 255
200 224 255
200 224 255
200 224 255
200 224 255
200 224 255
200 224 255
200 224 255
200 224 255
200 224 255
200 224 255
200 224 255
200 224 255
200 224 255
200 224 255
200 224 255
199 224 255
199 224 255
199 224 255
199 224 255
199 224 255
199 223 255
199 223 255
199 223 255
199 223 255
199 223 255
199 223 255
199 223 255
199 223 255
199 223 255
199 223 255
199 223 255
199 223 255
199 223 255
199 223 255
199 223 255
199 223 255
199 223 255
199 223 255
199 223 255
199 223 255
199 223 255
199 223 255
199 223 255
199 223 255
199 223 255
199 223 255
199 223 255
199 223 255
199 223 255
199 223 255
199 223 255
199 223 255
199 223 255
199 223 255
199 223 255
199 223 255
199 223 255
199 223 255
199 223 255
199 223 255
199 223 255
199 223 255
199 223 255
199 223 255
199 224 255
199 224 255
199 224 255
199 224 255
199 224 255
200 224 255
200 224 255
200 224 255
200 224 255
200 224 255
200 224 255
200 224 255
200 224 255
200 224 255
200 224 255
200 224 255
200 224 255
200 224 255
200 224 255
200 224 255
200 224 255
200 224 255
200 224 255
200 224 255
200 224 255
200 224 255
200 224 255
200 224 255
200 224 255
201 224 255
201 224 255
201 224 255
201 224 255
201 224 255
201 224 255
201 224 255
201 224 255
201 224 255
201 224 255
201 224 255
201 224 255
201 224 255
201 225 255
201 225 255
201 225 255
201 225 255
201 225 255
202 225 255
202 225 255
202 225 255
202 225 255
202 225 255
202 225 255
202 225 255
202 225 255
202 225 255
202 225 255
202 225 255
202 225 255
202 225 255
202 225 255
202 225 255
202 225 255
203 225 255
203 225 255
203 225 255
203 225 255
203 225 255
203 225 255
203 225 255
203 225 255
203 226 255
203 226 255
203 226 255
203 226 255
203 226 255
203 226 255
203 226 255
204 226 255
204 226 255
204 226 255
204 226 255
204 226 255
204 226 255
204 226 255
204 226 255
204 226 255
204 226 255
204 226 255
204 226 255
204 226 255
204 226 255
204 226 255
204 226 255
205 226 255
205 226 255
205 226 255
205 226 255
205 226 255
205 226 255
205 227 255
205 227 255
205 227 255
205 227 255
205 227 255
205 227 255
205 227 255
205 227 255
205 227 255
205 227 255
206 227 255
206 227 255
206 227 255
206 227 255
206 227 255
206 227 255
206 227 255
206 227 255
206 227 255
206 227 255
206 227 255
206 227 255
206 227 255
206 227 255
206 227 255
206 227 255
206 227 255
206 227 255
207 227 255
207 227 255
207 227 255
207 227 255
207 228 255
207 228 255
207 228 255
207 228 255
207 228 255
207 228 255
207 228 255
207 228 255
207 228 255
207 228 255
207 228 255
207 228 255
207 228 255
207 228 255
208 228 255
208 228 255
208 228 255
208 228 255
208 228 255
208 228 255
208 228 255
208 228 255
208 228 255
208 228 255
208 228 255
208 228 255
208 228 255
208 228 255
208 228 255
208 228 255
208 228 255
208 228 255
208 228 255
208 228 255
208 228 255
209 228 255
209 228 255
209 229 255
209 229 255
209 229 255
209 229 255
209 229 255
209 229 255
209 229 255
209 229 255
209 229 255
209 229 255
209 229 255
209 229 255
209 229 255
209 229 255
209 229 255
209 229 255
209 229 255
209 229 255
209 229 255
209 229 255
209 229 255
209 228 255
209 228 255
208 228 255
208 228 255
208 228 255
208 228 255
208 228 255
208 228 255
208 228 255
208 228 255
208 228 255
208 228 255
208 228 255
208 228 255
208 228 255
208 228 255
208 228 255
208 228 255
208 228 255
208 228 255
208 228 255
208 228 255
208 228 255
207 228 255
207 228 255
207 228 255
207 228 255
207 228 255
207 228 255
207 228 255
207 228 255
207 228 255
207 228 255
207 228 255
207 228 255
207 228 255
207 228 255
207 227 255
207 227 255
207 227 255
207 227 255
206 227 255
206 227 255
206 227 255
206 227 255
206 227 255
206 227 255
206 227 255
206 227 255
206 227 255
206 227 255
206 227 255
206 227 255
206 227 255
206 227 255
206 227 255
206 227 255
206 227 255
206 227 255
205 227 255
205 227 255
205 227 255
205 227 255
205 227 255
205 227 255
205 227 255
205 227 255
205 227 255
205 227 255
205 226 255
205 226 255
205 226 255
205 226 255
205 226 255
205 226 255
204 226 255
204 226 255
204 226 255
204 226 255
204 226 255
204 226 255
204 226 255
204 226 255
204 226 255
204 226 255
204 226 255
204 226 255
204 226 255
204 226 255
204 226 255
204 226 255
203 226 255
203 226 255
203 226 255
203 226 255
203 226 255
203 226 255
203 226 255
203 225 255
203 225 255
203 225 255
203 225 255
203 225 255
203 225 255
203 225 255
203 225 255
203 225 255
202 225 255
202 225 255
202 225 255
202 225 255
202 225 255
202 225 255
202 225 255
202 225 255
202 225 255
202 225 255
202 225 255
202 225 255
202 225 255
202 225 255
202 225 255
202 225 255
201 225 255
201 225 255
201 225 255
201 225 255
201 225 255
201 224 255
201 224 255
201 224 255
201 224 255
201 224 255
201 224 255
201 224 255
201 224 255
201 224 255
201 224 255
201 224 255
201 224 255
201 224 255
200 224 255
200 224 255
200 224 255
200 224 255
200 224 255
200 224 255
200 224 255
200 224 255
200 224 255
200 224 255
200 224 255
200 224 255
200 224 255
200 224 255
200 224 255
200 224 255
200 224 255
200 224 255
200 224 255
200 224 255
200 224 255
200 224 255
200 224 255
200 224 255
200 224 255
200 224 255
200 224 255
199 224 255
199 224 255
199 224 255
199 224 255
199 224 255
199 224 255
199 224 255
199 223 255
199 223 255
199 223 255
199 223 255
199 223 255
199 223 255
199 223 255
199 223 255
199 223 255
199 223 255
199 223 255
199 223 255
199 223 255
199 223 255
199 223 255
199 223 255
199 223 255
199 223 255
199 223 255
199 223 255
199 223 255
199 223 255
199 223 255
199 223 255
199 223 255
199 224 255
199 224 255
199 224 255
199 224 255
199 224 255
199 224 255
199 224 255
199 224 255
199 224 255
200 224 255
200 224 255
200 224 255
200 224 255
200 224 255
200 224 255
200 224 255
200 224 255
200 224 255
200 224 255
200 224 255
200 224 255
200 224 255
200 224 255
200 224 255
200 224 255
200 224 255
200 224 255
200 224 255
200 224 255
200 224 255
200 224 255
200 224 255
200 224 255
200 224 255
200 224 255
201 224 255
201 224 255
201 224 255
201 224 255
201 224 255
201 224 255
201 224 255
201 224 255
201 224 255
201 224 255
201 224 255
201 224 255
201 224 255
201 225 255
201 225 255
201 225 255
201 225 255
201 225 255
202 225 255
202 225 255
202 225 255
202 225 255
202 225 255
202 225 255
202 225 255
202 225 255
202 225 255
202 225 255
202 225 255
202 225 255
202 225 255
202 225 255
202 225 255
202 225 255
202 225 255
203 225 255
203 225 255
203 225 255
203 225 255
203 225 255
203 225 255
203 225 255
203 225 255
203 226 255
203 226 255
203 226 255
203 226 255
203 226 255
203 226 255
203 226 255
204 226 255
204 226 255
204 226 255
204 226 255
204 226 255
204 226 255
204 226 255
204 226 255
204 226 255
204 226 255
204 226 255
204 226 255
204 226 255
204 226 255
204 226 255
204 226 255
205 226 255
205 226 255
205 226 255
205 226 255
205 226 255
205 226 255
205 227 255
205 227 255
205 227 255
205 227 255
205 227 255
205 227 255
205 227 255
205 227 255
205 227 255
205 227 255
206 227 255
206 227 255
206 227 255
206 227 255
206 227 255
206 227 255
206 227 255
206 227 255
206 227 255
206 227 255
206 227 255
206 227 255
206 227 255
206 227 255
206 227 255
206 227 255
206 227 255
207 227 255
207 227 255
207 227 255
207 227 255
207 227 255
207 228 255
207 228 255
207 228 255
207 228 255
207 228 255
207 228 255
207 228 255
207 228 255
207 228 255
207 228 255
207 228 255
207 228 255
207 228 255
207 228 255
208 228 255
208 228 255
208 228 255
208 228 255
208 228 255
208 228 255
208 228 255
208 228 255
208 228 255
208 228 255
208 228 255
208 228 255
208 228 255
208 228 255
208 228 255
208 228 255
208 228 255
208 228 255
208 228 255
208 228 255
208 228 255
209 228 255
209 229 255
209 229 255
209 229 255
209 229 255
209 229 255
209 229 255
209 229 255
209 229 255
209 229 255
209 229 255
209 229 255
209 229 255
209 229 255
209 229 255
209 229 255
209 229 255
209 229 255
209 229 255
209 229 255
209 229 255
209 229 255
209 229 255
209 229 255
209 229 255
209 229 255
209 229 255
209 229 255
209 229 255
209 229 255
209 228 255
208 228 255
208 228 255
208 228 255
208 228 255
208 228 255
208 228 255
208 228 255
208 228 255
208 228 255
208 228 255
208 228 255
208 228 255
208 228 255
208 228 255
208 228 255
208 228 255
208 228 255
208 228 255
208 228 255
208 228 255
208 228 255
207 228 255
207 228 255
207 228 255
207 228 255
207 228 255
207 228 255
207 228 255
207 228 255
207 228 255
207 228 255
207 228 255
207 228 255
207 228 255
207 228 255
207 227 255
207 227 255
207 227 255
207 227 255
207 227 255
206 227 255
206 227 255
206 227 255
206 227 255
206 227 255
206 227 255
206 227 255
206 227 255
206 227 255
206 227 255
206 227 255
206 227 255
206 227 255
206 227 255
206 227 255
206 227 255
206 227 255
205 227 255
205 227 255
205 227 255
205 227 255
205 227 255
205 227 255
205 227 255
205 227 255
205 227 255
205 227 255
205 226 255
205 226 255
205 226 255
205 226 255
205 226 255
205 226 255
204 226 255
204 226 255
204 226 255
204 226 255
204 226 255
204 226 255
204 226 255
204 226 255
204 226 255
204 226 255
204 226 255
204 226 255
204 226 255
204 226 255
204 226 255
204 226 255
203 226 255
203 226 255
203 226 255
203 226 255
203 226 255
203 226 255
203 226 255
203 225 255
203 225 255
203 225 255
203 225 255
203 225 255
203 225 255
203 225 255
203 225 255
203 225 255
202 225 255
202 225 255
202 225 255
202 225 255
202 225 255
202 225 255
202 225 255
202 225 255
202 225 255
202 225 255
202 225 255
202 225 255
202 225 255
202 225 255
202 225 255
202 225 255
201 225 255
201 225 255
201 225 255
201 225 255
201 225 255
201 225 255
201 224 255
201 224 255
201 224 255
201 224 255
201 224 255
201 224 255
201 224 255
201 224 255
201 224 255
201 224 255
201 224 255
201 224 255
201 224 255
200 224 255
200 224 255
200 224 255
200 224 255
200 224 255
200 224 255
200 224 255
200 224 255
200 224 255
200 224 255
200 224 255
200 224 255
200 224 255
200 224 255
200 224 255
200 224 255
200 224 255
200 224 255
200 224 255
200 224 255
200 224 255
200 224 255
200 224 255
200 224 255
200 224 255
200 224 255
200 224 255
200 224 255
200 224 255
200 224 255
200 224 255
200 224 255
200 224 255
200 224 255
199 224 255
199 224 255
199 224 255
199 224 255
199 224 255
199 224 255
199 224 255
199 224 255
199 224 255
199 224 255
199 224 255
199 224 255
199 224 255
199 224 255
199 224 255
199 224 255
199 224 255
199 224 255
199 224 255
200 224 255
200 224 255
200 224 255
200 224 255
200 224 255
200 224 255
200 224 255
200 224 255
200 224 255
200 224 255
200 224 255
200 224 255
200 224 255
200 224 255
200 224 255
200 224 255
200 224 255
200 224 255
200 224 255
200 224 255
200 224 255
200 224 255
200 224 255
200 224 255
200 224 255
200 224 255
200 224 255
200 224 255
200 224 255
200 224 255
200 224 255
200 224 255
200 224 255
201 224 255
201 224 255
201 224 255
201 224 255
201 224 255
201 224 255
201 224 255
201 224 255
201 224 255
201 224 255
201 224 255
201 224 255
201 224 255
201 224 255
201 225 255
201 225 255
201 225 255
201 225 255
201 225 255
202 225 255
202 225 255
202 225 255
202 225 255
202 225 255
202 225 255
202 225 255
202 225 255
202 225 255
202 225 255
202 225 255
202 225 255
202 225 255
202 225 255
202 225 255
202 225 255
203 225 255
203 225 255
203 225 255
203 225 255
203 225 255
203 225 255
203 225 255
203 225 255
203 225 255
203 226 255
203 226 255
203 226 255
203 226 255
203 226 255
203 226 255
203 226 255
204 226 255
204 226 255
204 226 255
204 226 255
204 226 255
204 226 255
204 226 255
204 226 255
204 226 255
204 226 255
204 226 255
204 226 255
204 226 255
204 226 255
204 226 255
204 226 255
205 226 255
205 226 255
205 226 255
205 226 255
205 226 255
205 226 255
205 227 255
205 227 255
205 227 255
205 227 255
205 227 255
205 227 255
205 227 255
205 227 255
205 227 255
205 227 255
206 227 255
206 227 255
206 227 255
206 227 255
206 227 255
206 227 255
206 227 255
206 227 255
206 227 255
206 227 255
206 227 255
206 227 255
206 227 255
206 227 255
206 227 255
206 227 255
206 227 255
206 227 255
207 227 255
207 227 255
207 227 255
207 227 255
207 228 255
207 228 255
207 228 255
207 228 255
207 228 255
207 228 255
207 228 255
207 228 255
207 228 255
207 228 255
207 228 255
207 228 255
207 228 255
207 228 255
208 228 255
208 228 255
208 228 255
208 228 255
208 228 255
208 228 255
208 228 255
208 228 255
208 228 255
208 228 255
208 228 255
208 228 255
208 228 255
208 228 255
208 228 255
208 228 255
208 228 255
208 228 255
208 228 255
208 228 255
208 228 255
209 228 255
209 229 255
209 229 255
209 229 255
209 229 255
209 229 255
209 229 255
209 229 255
209 229 255
209 229 255
209 229 255
209 229 255
209 229 255
209 229 255
209 229 255
209 229 255
209 229 255
209 229 255
209 229 255
209 229 255
209 229 255
209 229 255
209 229 255
209 229 255
209 229 255
209 229 255
209 229 255
209 229 255
209 229 255
209 229 255
209 229 255
209 229 255
209 229 255
209 229 255
209 229 255
209 229 255
209 228 255
208 228 255
208 228 255
208 228 255
208 228 255
208 228 255
208 228 255
208 228 255
208 228 255
208 228 255
208 228 255
208 228 255
208 228 255
208 228 255
208 228 255
208 228 255
208 228 255
208 228 255
208 228 255
208 228 255
208 228 255
208 228 255
207 228 255
207 228 255
207 228 255
207 228 255
207 228 255
207 228 255
207 228 255
207 228 255
207 228 255
207 228 255
207 228 255
207 228 255
207 228 255
207 228 255
207 227 255
207 227 255
207 227 255
207 227 255
206 227 255
206 227 255
206 227 255
206 227 255
206 227 255
206 227 255
206 227 255
206 227 255
206 227 255
206 227 255
206 227 255
206 227 255
206 227 255
206 227 255
206 227 255
206 227 255
206 227 255
206 227 255
205 227 255
205 227 255
205 227 255
205 227 255
205 227 255
205 227 255
205 227 255
205 227 255
205 227 255
205 227 255
205 226 255
205 226 255
205 226 255
205 226 255
205 226 255
205 226 255
204 226 255
204 226 255
204 226 255
204 226 255
204 226 255
204 226 255
204 226 255
204 226 255
204 226 255
204 226 255
204 226 255
204 226 255
204 226 255
204 226 255
204 226 255
204 226 255
203 226 255
203 226 255
203 226 255
203 226 255
203 226 255
203 226 255
203 226 255
203 225 255
203 225 255
203 225 255
203 225 255
203 225 255
203 225 255
203 225 255
203 225 255
203 225 255
202 225 255
202 225 255
202 225 255
202 225 255
202 225 255
202 225 255
202 225 255
202 225 255
202 225 255
202 225 255
202 225 255
202 225 255
202 225 255
202 225 255
202 225 255
202 225 255
202 225 255
201 225 255
201 225 255
201 225 255
201 225 255
201 225 255
201 224 255
201 224 255
201 224 255
201 224 255
201 224 255
201 224 255
201 224 255
201 224 255
201 224 255
201 224 255
201 224 255
201 224 255
201 224 255
201 224 255
201 224 255
200 224 255
200 224 255
200 224 255
200 224 255
200 224 255
200 224 255
200 224 255
200 224 255
200 224 255
200 224 255
200 224 255
200 224 255
200 224 255
200 224 255
200 224 255
200 224 255
200 224 255
200 224 255
200 224 255
200 224 255
200 224 255
200 224 255
200 224 255
200 224 255
200 224 255
200 224 255
200 224 255
200 224 255
200 224 255
200 224 255
200 224 255
200 224 255
200 224 255
200 224 255
200 224 255
200 224 255
200 224 255
200 224 255
200 224 255
200 224 255
200 224 255
200 224 255
200 224 255
200 224 255
200 224 255
200 224 255
200 224 255
200 224 255
200 224 255
200 224 255
200 224 255
200 224 255
200 224 255
200 224 255
200 224 255
200 224 255
200 224 255
200 224 255
200 224 255
200 224 255
200 224 255
200 224 255
200 224 255
200 224 255
200 224 255
200 224 255
200 224 255
200 224 255
200 224 255
200 224 255
200 224 255
200 224 255
200 224 255
200 224 255
200 224 255
200 224 255
201 224 255
201 224 255
201 224 255
201 224 255
201 224 255
201 224 255
201 224 255
201 224 255
201 224 255
201 224 255
201 224 255
201 224 255
201 224 255
201 224 255
201 224 255
201 225 255
201 225 255
201 225 255
201 225 255
201 225 255
202 225 255
202 225 255
202 225 255
202 225 255
202 225 255
202 225 255
202 225 255
202 225 255
202 225 255
202 225 255
202 225 255
202 225 255
202 225 255
202 225 255
202 225 255
202 225 255
202 225 255
203 225 255
203 225 255
203 225 255
203 225 255
203 225 255
203 225 255
203 225 255
203 225 255
203 225 255
203 226 255
203 226 255
203 226 255
203 226 255
203 226 255
203 226 255
203 226 255
204 226 255
204 226 255
204 226 255
204 226 255
204 226 255
204 226 255
204 226 255
204 226 255
204 226 255
204 226 255
204 226 255
204 226 255
204 226 255
204 226 255
204 226 255
204 226 255
205 226 255
205 226 255
205 226 255
205 226 255
205 226 255
205 226 255
205 226 255
205 227 255
205 227 255
205 227 255
205 227 255
205 227 255
205 227 255
205 227 255
205 227 255
205 227 255
206 227 255
206 227 255
206 227 255
206 227 255
206 227 255
206 227 255
206 227 255
206 227 255
206 227 255
206 227 255
206 227 255
206 227 255
206 227 255
206 227 255
206 227 255
206 227 255
206 227 255
207 227 255
207 227 255
207 227 255
207 227 255
207 227 255
207 228 255
207 228 255
207 228 255
207 228 255
207 228 255
207 228 255
207 228 255
207 228 255
207 228 255
207 228 255
207 228 255
207 228 255
207 228 255
207 228 255
208 228 255
208 228 255
208 228 255
208 228 255
208 228 255
208 228 255
208 228 255
208 228 255
208 228 255
208 228 255
208 228 255
208 228 255
208 228 255
208 228 255
208 228 255
208 228 255
208 228 255
208 228 255
208 228 255
208 228 255
209 228 255
209 228 255
209 229 255
209 229 255
209 229 255
209 229 255
209 229 255
209 229 255
209 229 255
209 229 255
209 229 255
209 229 255
209 229 255
209 229 255
209 229 255
209 229 255
209 229 255
209 229 255
209 229 255
209 229 255
209 229 255
210 229 255
209 229 255
209 229 255
209 229 255
209 229 255
209 229 255
209 229 255
209 229 255
209 229 255
209 229 255
209 229 255
209 229 255
209 229 255
209 229 255
209 229 255
209 229 255
209 229 255
209 229 255
209 229 255
209 229 255
209 229 255
209 229 255
209 228 255
209 228 255
208 228 255
208 228 255
208 228 255
208 228 255
208 228 255
208 228 255
208 228 255
208 228 255
208 228 255
208 228 255
208 228 255
208 228 255
208 228 255
208 228 255
208 228 255
208 228 255
208 228 255
208 228 255
208 228 255
208 228 255
207 228 255
207 228 255
207 228 255
207 228 255
207 228 255
207 228 255
207 228 255
207 228 255
207 228 255
207 228 255
207 228 255
207 228 255
207 228 255
207 228 255
207 227 255
207 227 255
207 227 255
207 227 255
207 227 255
206 227 255
206 227 255
206 227 255
206 227 255
206 227 255
206 227 255
206 227 255
206 227 255
206 227 255
206 227 255
206 227 255
206 227 255
206 227 255
206 227 255
206 227 255
206 227 255
206 227 255
205 227 255
205 227 255
205 227 255
205 227 255
205 227 255
205 227 255
205 227 255
205 227 255
205 227 255
205 227 255
205 226 255
205 226 255
205 226 255
205 226 255
205 226 255
205 226 255
204 226 255
204 226 255
204 226 255
204 226 255
204 226 255
204 226 255
204 226 255
204 226 255
204 226 255
204 226 255
204 226 255
204 226 255
204 226 255
204 226 255
204 226 255
204 226 255
203 226 255
203 226 255
203 226 255
203 226 255
203 226 255
203 226 255
203 226 255
203 225 255
203 225 255
203 225 255
203 225 255
203 225 255
203 225 255
203 225 255
203 225 255
203 225 255
202 225 255
202 225 255
202 225 255
202 225 255
202 225 255
202 225 255
202 225 255
202 225 255
202 225 255
202 225 255
202 225 255
202 225 255
202 225 255
202 225 255
202 225 255
202 225 255
202 225 255
202 225 255
201 225 255
201 225 255
201 225 255
201 225 255
201 225 255
201 224 255
201 224 255
201 224 255
201 224 255
201 224 255
201 224 255
201 224 255
201 224 255
201 224 255
201 224 255
201 224 255
201 224 255
201 224 255
201 224 255
201 224 255
201 224 255
200 224 255
200 224 255
200 224 255
200 224 255
200 224 255
200 224 255
200 224 255
200 224 255
200 224 255
200 224 255
200 224 255
200 224 255
200 224 255
200 224 255
200 224 255
200 224 255
200 224 255
200 224 255
200 224 255
200 224 255
200 224 255
200 224 255
200 224 255
200 224 255
200 224 255
200 224 255
200 224 255
200 224 255
200 224 255
200 224 255
200 224 255
200 224 255
200 224 255
200 224 255
200 224 255
200 224 255
200 224 255
200 224 255
200 224 255
200 224 255
200 224 255
200 224 255
200 224 255
200 224 255
200 224 255
200 224 255
200 224 255
200 224 255
200 224 255
200 224 255
200 224 255
200 224 255
200 224 255
200 224 255
200 224 255
200 224 255
200 224 255
200 224 255
200 224 255
200 224 255
200 224 255
200 224 255
200 224 255
200 224 255
200 224 255
200 224 255
201 224 255
201 224 255
201 224 255
201 224 255
201 224 255
201 224 255
201 224 255
201 224 255
201 224 255
201 224 255
201 224 255
201 224 255
201 224 255
201 224 255
201 224 255
201 224 255
201 225 255
201 225 255
201 225 255
201 225 255
201 225 255
201 225 255
202 225 255
202 225 255
202 225 255
202 225 255
202 225 255
202 225 255
202 225 255
202 225 255
202 225 255
202 225 255
202 225 255
202 225 255
202 225 255
202 225 255
202 225 255
202 225 255
202 225 255
203 225 255
203 225 255
203 225 255
203 225 255
203 225 255
203 225 255
203 225 255
203 225 255
203 225 255
203 226 255
203 226 255
203 226 255
203 226 255
203 226 255
203 226 255
203 226 255
204 226 255
204 226 255
204 226 255
204 226 255
204 226 255
204 226 255
204 226 255
204 226 255
204 226 255
204 226 255
204 226 255
204 226 255
204 226 255
204 226 255
204 226 255
204 226 255
205 226 255
205 226 255
205 226 255
205 226 255
205 226 255
205 226 255
205 227 255
205 227 255
205 227 255
205 227 255
205 227 255
205 227 255
205 227 255
205 227 255
205 227 255
205 227 255
206 227 255
206 227 255
206 227 255
206 227 255
206 227 255
206 227 255
206 227 255
206 227 255
206 227 255
206 227 255
206 227 255
206 227 255
206 227 255
206 227 255
206 227 255
206 227 255
206 227 255
207 227 255
207 227 255
207 227 255
207 227 255
207 227 255
207 228 255
207 228 255
207 228 255
207 228 255
207 228 255
207 228 255
207 228 255
207 228 255
207 228 255
207 228 255
207 228 255
207 228 255
207 228 255
207 228 255
208 228 255
208 228 255
208 228 255
208 228 255
208 228 255
208 228 255
208 228 255
208 228 255
208 228 255
208 228 255
208 228 255
208 228 255
208 228 255
208 228 255
208 228 255
208 228 255
208 228 255
208 228 255
208 228 255
208 228 255
209 228 255
209 228 255
209 229 255
209 229 255
209 229 255
209 229 255
209 229 255
209 229 255
209 229 255
209 229 255
209 229 255
209 229 255
209 229 255
209 229 255
209 229 255
209 229 255
209 229 255
209 229 255
209 229 255
209 229 255
209 229 255
209 229 255
209 229 255
210 229 255
210 229 255
210 229 255
210 229 255
210 229 255
210 229 255
209 229 255
209 229 255
209 229 255
209 229 255
209 229 255
209 229 255
209 229 255
209 229 255
209 229 255
209 229 255
209 229 255
209 229 255
209 229 255
209 229 255
209 229 255
209 229 255
209 229 255
209 229 255
209 229 255
209 229 255
209 229 255
209 228 255
209 228 255
208 228 255
208 228 255
208 228 255
208 228 255
208 228 255
208 228 255
208 228 255
208 228 255
208 228 255
208 228 255
208 228 255
208 228 255
208 228 255
208 228 255
208 228 255
208 228 255
208 228 255
208 228 255
208 228 255
207 228 255
207 228 255
207 228 255
207 228 255
207 228 255
207 228 255
207 228 255
207 228 255
207 228 255
207 228 255
207 228 255
207 228 255
207 228 255
207 228 255
207 228 255
207 227 255
207 227 255
207 227 255
207 227 255
206 227 255
206 227 255
206 227 255
206 227 255
206 227 255
206 227 255
206 227 255
206 227 255
206 227 255
206 227 255
206 227 255
206 227 255
206 227 255
206 227 255
206 227 255
206 227 255
206 227 255
205 227 255
205 227 255
205 227 255
205 227 255
205 227 255
205 227 255
205 227 255
205 227 255
205 227 255
205 227 255
205 226 255
205 226 255
205 226 255
205 226 255
205 226 255
205 226 255
204 226 255
204 226 255
204 226 255
204 226 255
204 226 255
204 226 255
204 226 255
204 226 255
204 226 255
204 226 255
204 226 255
204 226 255
204 226 255
204 226 255
204 226 255
204 226 255
203 226 255
203 226 255
203 226 255
203 226 255
203 226 255
203 226 255
203 226 255
203 225 255
203 225 255
203 225 255
203 225 255
203 225 255
203 225 255
203 225 255
203 225 255
203 225 255
203 225 255
202 225 255
202 225 255
202 225 255
202 225 255
202 225 255
202 225 255
202 225 255
202 225 255
202 225 255
202 225 255
202 225 255
202 225 255
202 225 255
202 225 255
202 225 255
202 225 255
202 225 255
202 225 255
201 225 255
201 225 255
201 225 255
201 225 255
201 225 255
201 225 255
201 224 255
201 224 255
201 224 255
201 224 255
201 224 255
201 224 255
201 224 255
201 224 255
201 224 255
201 224 255
201 224 255
201 224 255
201 224 255
201 224 255
201 224 255
201 224 255
201 224 255
201 224 255
200 224 255
200 224 255
200 224 255
200 224 255
200 224 255
200 224 255
200 224 255
200 224 255
200 224 255
200 224 255
200 224 255
200 224 255
200 224 255
200 224 255
200 224 255
200 224 255
200 224 255
200 224 255
200 224 255
200 224 255
200 224 255
200 224 255
200 224 255
200 224 255
200 224 255
200 224 255
200 224 255
200 224 255
200 224 255
200 224 255
200 224 255
200 224 255
200 224 255
200 224 255
200 224 255
200 224 255
200 224 255
200 224 255
200 224 255
200 224 255
200 224 255
200 224 255
200 224 255
200 224 255
200 224 255
200 224 255
200 224 255
200 224 255
200 224 255
200 224 255
200 224 255
200 224 255
200 224 255
201 224 255
201 224 255
201 224 255
201 224 255
201 224 255
201 224 255
201 224 255
201 224 255
201 224 255
201 224 255
201 224 255
201 224 255
201 224 255
201 224 255
201 224 255
201 224 255
201 224 255
201 225 255
201 225 255
201 225 255
201 225 255
201 225 255
201 225 255
202 225 255
202 225 255
202 225 255
202 225 255
202 225 255
202 225 255
202 225 255
202 225 255
202 225 255
202 225 255
202 225 255
202 225 255
202 225 255
202 225 255
202 225 255
202 225 255
202 225 255
202 225 255
203 225 255
203 225 255
203 225 255
203 225 255
203 225 255
203 225 255
203 225 255
203 225 255
203 225 255
203 225 255
203 226 255
203 226 255
203 226 255
203 226 255
203 226 255
203 226 255
203 226 255
204 226 255
204 226 255
204 226 255
204 226 255
204 226 255
204 226 255
204 226 255
204 226 255
204 226 255
204 226 255
204 226 255
204 226 255
204 226 255
204 226 255
204 226 255
204 226 255
205 226 255
205 226 255
205 226 255
205 226 255
205 226 255
205 226 255
205 226 255
205 227 255
205 227 255
205 227 255
205 227 255
205 227 255
205 227 255
205 227 255
205 227 255
205 227 255
206 227 255
206 227 255
206 227 255
206 227 255
206 227 255
206 227 255
206 227 255
206 227 255
206 227 255
206 227 255
206 227 255
206 227 255
206 227 255
206 227 255
206 227 255
206 227 255
206 227 255
207 227 255
207 227 255
207 227 255
207 227 255
207 227 255
207 228 255
207 228 255
207 228 255
207 228 255
207 228 255
207 228 255
207 228 255
207 228 255
207 228 255
207 228 255
207 228 255
207 228 255
207 228 255
207 228 255
208 228 255
208 228 255
208 228 255
208 228 255
208 228 255
208 228 255
208 228 255
208 228 255
208 228 255
208 228 255
208 228 255
208 228 255
208 228 255
208 228 255
208 228 255
208 228 255
208 228 255
208 228 255
208 228 255
208 228 255
209 228 255
209 229 255
209 229 255
209 229 255
209 229 255
209 229 255
209 229 255
209 229 255
209 229 255
209 229 255
209 229 255
209 229 255
209 229 255
209 229 255
209 229 255
209 229 255
209 229 255
209 229 255
209 229 255
209 229 255
209 229 255
209 229 255
210 229 255
210 229 255
210 229 255
210 229 255
210 229 255
210 229 255
210 229 255
210 229 255
210 229 255
210 229 255
210 229 255
210 229 255
210 229 255
209 229 255
209 229 255
209 229 255
209 229 255
209 229 255
209 229 255
209 229 255
209 229 255
209 229 255
209 229 255
209 229 255
209 229 255
209 229 255
209 229 255
209 229 255
209 229 255
209 229 255
209 229 255
209 229 255
209 229 255
209 229 255
209 228 255
209 228 255
208 228 255
208 228 255
208 228 255
208 228 255
208 228 255
208 228 255
208 228 255
208 228 255
208 228 255
208 228 255
208 228 255
208 228 255
208 228 255
208 228 255
208 228 255
208 228 255
208 228 255
208 228 255
208 228 255
208 228 255
207 228 255
207 228 255
207 228 255
207 228 255
207 228 255
207 228 255
207 228 255
207 228 255
207 228 255
207 228 255
207 228 255
207 228 255
207 228 255
207 228 255
207 227 255
207 227 255
207 227 255
207 227 255
206 227 255
206 227 255
206 227 255
206 227 255
206 227 255
206 227 255
206 227 255
206 227 255
206 227 255
206 227 255
206 227 255
206 227 255
206 227 255
206 227 255
206 227 255
206 227 255
206 227 255
205 227 255
205 227 255
205 227 255
205 227 255
205 227 255
205 227 255
205 227 255
205 227 255
205 227 255
205 227 255
205 226 255
205 226 255
205 226 255
205 226 255
205 226 255
205 226 255
204 226 255
204 226 255
204 226 255
204 226 255
204 226 255
204 226 255
204 226 255
204 226 255
204 226 255
204 226 255
204 226 255
204 226 255
204 226 255
204 226 255
204 226 255
204 226 255
203 226 255
203 226 255
203 226 255
203 226 255
203 226 255
203 226 255
203 226 255
203 226 255
203 225 255
203 225 255
203 225 255
203 225 255
203 225 255
203 225 255
203 225 255
203 225 255
203 225 255
202 225 255
202 225 255
202 225 255
202 225 255
202 225 255
202 225 255
202 225 255
202 225 255
202 225 255
202 225 255
202 225 255
202 225 255
202 225 255
202 225 255
202 225 255
202 225 255
202 225 255
202 225 255
202 225 255
201 225 255
201 225 255
201 225 255
201 225 255
201 225 255
201 225 255
201 224 255
201 224 255
201 224 255
201 224 255
201 224 255
201 224 255
201 224 255
201 224 255
201 224 255
201 224 255
201 224 255
201 224 255
201 224 255
201 224 255
201 224 255
201 224 255
201 224 255
201 224 255
201 224 255
201 224 255
201 224 255
200 224 255
200 224 255
200 224 255
200 224 255
200 224 255
200 224 255
200 224 255
200 224 255
200 224 255
200 224 255
200 224 255
200 224 255
200 224 255
200 224 255
200 224 255
200 224 255
200 224 255
200 224 255
200 224 255
200 224 255
200 224 255
200 224 255
200 224 255
200 224 255
200 224 255
200 224 255
200 224 255
200 224 255
200 224 255
200 224 255
200 224 255
200 224 255
200 224 255
200 224 255
200 224 255
200 224 255
200 224 255
201 224 255
201 224 255
201 224 255
201 224 255
201 224 255
201 224 255
201 224 255
201 224 255
201 224 255
201 224 255
201 224 255
201 224 255
201 224 255
201 224 255
201 224 255
201 224 255
201 224 255
201 224 255
201 224 255
201 224 255
201 224 255
201 224 255
201 225 255
201 225 255
201 225 255
201 225 255
201 225 255
201 225 255
202 225 255
202 225 255
202 225 255
202 225 255
202 225 255
202 225 255
202 225 255
202 225 255
202 225 255
202 225 255
202 225 255
202 225 255
202 225 255
202 225 255
202 225 255
202 225 255
202 225 255
202 225 255
202 225 255
203 225 255
203 225 255
203 225 255
203 225 255
203 225 255
203 225 255
203 225 255
203 225 255
203 225 255
203 226 255
203 226 255
203 226 255
203 226 255
203 226 255
203 226 255
203 226 255
203 226 255
204 226 255
204 226 255
204 226 255
204 226 255
204 226 255
204 226 255
204 226 255
204 226 255
204 226 255
204 226 255
204 226 255
204 226 255
204 226 255
204 226 255
204 226 255
204 226 255
205 226 255
205 226 255
205 226 255
205 226 255
205 226 255
205 226 255
205 227 255
205 227 255
205 227 255
205 227 255
205 227 255
205 227 255
205 227 255
205 227 255
205 227 255
205 227 255
206 227 255
206 227 255
206 227 255
206 227 255
206 227 255
206 227 255
206 227 255
206 227 255
206 227 255
206 227 255
206 227 255
206 227 255
206 227 255
206 227 255
206 227 255
206 227 255
206 227 255
207 227 255
207 227 255
207 227 255
207 227 255
207 228 255
207 228 255
207 228 255
207 228 255
207 228 255
207 228 255
207 228 255
207 228 255
207 228 255
207 228 255
207 228 255
207 228 255
207 228 255
207 228 255
207 228 255
208 228 255
208 228 255
208 228 255
208 228 255
208 228 255
208 228 255
208 228 255
208 228 255
208 228 255
208 228 255
208 228 255
208 228 255
208 228 255
208 228 255
208 228 255
208 228 255
208 228 255
208 228 255
208 228 255
209 228 255
209 228 255
209 229 255
209 229 255
209 229 255
209 229 255
209 229 255
209 229 255
209 229 255
209 229 255
209 229 255
209 229 255
209 229 255
209 229 255
209 229 255
209 229 255
209 229 255
209 229 255
209 229 255
209 229 255
209 229 255
209 229 255
209 229 255
210 229 255
210 229 255
210 229 255
210 229 255
210 229 255
210 229 255
210 229 255
210 229 255
210 229 255
210 229 255
210 229 255
210 229 255
210 229 255
210 229 255
210 229 255
210 229 255
210 229 255
210 229 255
210 229 255
210 229 255
209 229 255
209 229 255
209 229 255
209 229 255
209 229 255
209 229 255
209 229 255
209 229 255
209 229 255
209 229 255
209 229 255
209 229 255
209 229 255
209 229 255
209 229 255
209 229 255
209 229 255
209 229 255
209 229 255
209 229 255
209 229 255
209 228 255
208 228 255
208 228 255
208 228 255
208 228 255
208 228 255
208 228 255
208 228 255
208 228 255
208 228 255
208 228 255
208 228 255
208 228 255
208 228 255
208 228 255
208 228 255
208 228 255
208 228 255
208 228 255
208 228 255
208 228 255
207 228 255
207 228 255
207 228 255
207 228 255
207 228 255
207 228 255
207 228 255
207 228 255
207 228 255
207 228 255
207 228 255
207 228 255
207 228 255
207 228 255
207 227 255
207 227 255
207 227 255
207 227 255
206 227 255
206 227 255
206 227 255
206 227 255
206 227 255
206 227 255
206 227 255
206 227 255
206 227 255
206 227 255
206 227 255
206 227 255
206 227 255
206 227 255
206 227 255
206 227 255
206 227 255
205 227 255
205 227 255
205 227 255
205 227 255
205 227 255
205 227 255
205 227 255
205 227 255
205 227 255
205 227 255
205 226 255
205 226 255
205 226 255
205 226 255
205 226 255
205 226 255
204 226 255
204 226 255
204 226 255
204 226 255
204 226 255
204 226 255
204 226 255
204 226 255
204 226 255
204 226 255
204 226 255
204 226 255
204 226 255
204 226 255
204 226 255
204 226 255
204 226 255
203 226 255
203 226 255
203 226 255
203 226 255
203 226 255
203 226 255
203 226 255
203 225 255
203 225 255
203 225 255
203 225 255
203 225 255
203 225 255
203 225 255
203 225 255
203 225 255
203 225 255
202 225 255
202 225 255
202 225 255
202 225 255
202 225 255
202 225 255
202 225 255
202 225 255
202 225 255
202 225 255
202 225 255
202 225 255
202 225 255
202 225 255
202 225 255
202 225 255
202 225 255
202 225 255
202 225 255
202 225 255
201 225 255
201 225 255
201 225 255
201 225 255
201 225 255
201 225 255
201 224 255
201 224 255
201 224 255
201 224 255
201 224 255
201 224 255
201 224 255
201 224 255
201 224 255
201 224 255
201 224 255
201 224 255
201 224 255
201 224 255
201 224 255
201 224 255
201 224 255
201 224 255
201 224 255
201 224 255
201 224 255
201 224 255
201 224 255
201 224 255
201 224 255
201 224 255
201 224 255
201 224 255
201 224 255
201 224 255
201 224 255
201 224 255
201 224 255
201 224 255
201 224 255
201 224 255
201 224 255
201 224 255
201 224 255
201 224 255
201 224 255
201 224 255
201 224 255
201 224 255
201 224 255
201 224 255
201 224 255
201 224 255
201 224 255
201 224 255
201 224 255
201 224 255
201 224 255
201 224 255
201 224 255
201 224 255
201 224 255
201 224 255
201 224 255
201 224 255
201 224 255
201 224 255
201 224 255
201 224 255
201 224 255
201 224 255
201 224 255
201 224 255
201 224 255
201 225 255
201 225 255
201 225 255
201 225 255
201 225 255
201 225 255
201 225 255
202 225 255
202 225 255
202 225 255
202 225 255
202 225 255
202 225 255
202 225 255
202 225 255
202 225 255
202 225 255
202 225 255
202 225 255
202 225 255
202 225 255
202 225 255
202 225 255
202 225 255
202 225 255
202 225 255
202 225 255
203 225 255
203 225 255
203 225 255
203 225 255
203 225 255
203 225 255
203 225 255
203 225 255
203 225 255
203 225 255
203 226 255
203 226 255
203 226 255
203 226 255
203 226 255
203 226 255
203 226 255
204 226 255
204 226 255
204 226 255
204 226 255
204 226 255
204 226 255
204 226 255
204 226 255
204 226 255
204 226 255
204 226 255
204 226 255
204 226 255
204 226 255
204 226 255
204 226 255
204 226 255
205 226 255
205 226 255
205 226 255
205 226 255
205 226 255
205 226 255
205 227 255
205 227 255
205 227 255
205 227 255
205 227 255
205 227 255
205 227 255
205 227 255
205 227 255
205 227 255
206 227 255
206 227 255
206 227 255
206 227 255
206 227 255
206 227 255
206 227 255
206 227 255
206 227 255
206 227 255
206 227 255
206 227 255
206 227 255
206 227 255
206 227 255
206 227 255
206 227 255
207 227 255
207 227 255
207 227 255
207 227 255
207 228 255
207 228 255
207 228 255
207 228 255
207 228 255
207 228 255
207 228 255
207 228 255
207 228 255
207 228 255
207 228 255
207 228 255
207 228 255
207 228 255
208 228 255
208 228 255
208 228 255
208 228 255
208 228 255
208 228 255
208 228 255
208 228 255
208 228 255
208 228 255
208 228 255
208 228 255
208 228 255
208 228 255
208 228 255
208 228 255
208 228 255
208 228 255
208 228 255
208 228 255
209 228 255
209 229 255
209 229 255
209 229 255
209 229 255
209 229 255
209 229 255
209 229 255
209 229 255
209 229 255
209 229 255
209 229 255
209 229 255
209 229 255
209 229 255
209 229 255
209 229 255
209 229 255
209 229 255
209 229 255
209 229 255
209 229 255
210 229 255
210 229 255
210 229 255
210 229 255
210 229 255
210 229 255
210 229 255
210 229 255
210 229 255
210 229 255
210 229 255
210 229 255
210 229 255
210 229 255
210 229 255
210 229 255
210 229 255
210 229 255
210 229 255
210 229 255
210 229 255
210 229 255
210 229 255
210 229 255
210 229 255
210 229 255
210 229 255
210 229 255
209 229 255
209 229 255
209 229 255
209 229 255
209 229 255
209 229 255
209 229 255
209 229 255
209 229 255
209 229 255
209 229 255
209 229 255
209 229 255
209 229 255
209 229 255
209 229 255
209 229 255
209 229 255
209 229 255
209 229 255
209 228 255
209 228 255
208 228 255
208 228 255
208 228 255
208 228 255
208 228 255
208 228 255
208 228 255
208 228 255
208 228 255
208 228 255
208 228 255
208 228 255
208 228 255
208 228 255
208 228 255
208 228 255
208 228 255
208 228 255
208 228 255
207 228 255
207 228 255
207 228 255
207 228 255
207 228 255
207 228 255
207 228 255
207 228 255
207 228 255
207 228 255
207 228 255
207 228 255
207 228 255
207 228 255
207 227 255
207 227 255
207 227 255
207 227 255
206 227 255
206 227 255
206 227 255
206 227 255
206 227 255
206 227 255
206 227 255
206 227 255
206 227 255
206 227 255
206 227 255
206 227 255
206 227 255
206 227 255
206 227 255
206 227 255
206 227 255
205 227 255
205 227 255
205 227 255
205 227 255
205 227 255
205 227 255
205 227 255
205 227 255
205 227 255
205 227 255
205 226 255
205 226 255
205 226 255
205 226 255
205 226 255
205 226 255
204 226 255
204 226 255
204 226 255
204 226 255
204 226 255
204 226 255
204 226 255
204 226 255
204 226 255
204 226 255
204 226 255
204 226 255
204 226 255
204 226 255
204 226 255
204 226 255
204 226 255
203 226 255
203 226 255
203 226 255
203 226 255
203 226 255
203 226 255
203 226 255
203 226 255
203 225 255
203 225 255
203 225 255
203 225 255
203 225 255
203 225 255
203 225 255
203 225 255
203 225 255
202 225 255
202 225 255
202 225 255
202 225 255
202 225 255
202 225 255
202 225 255
202 225 255
202 225 255
202 225 255
202 225 255
202 225 255
202 225 255
202 225 255
202 225 255
202 225 255
202 225 255
202 225 255
202 225 255
202 225 255
202 225 255
202 225 255
201 225 255
201 225 255
201 225 255
201 225 255
201 225 255
201 225 255
201 225 255
201 225 255
201 224 255
201 224 255
201 224 255
201 224 255
201 224 255
201 224 255
201 224 255
201 224 255
201 224 255
201 224 255
201 224 255
201 224 255
201 224 255
201 224 255
201 224 255
201 224 255
201 224 255
201 224 255
201 224 255
201 224 255
201 224 255
201 224 255
201 224 255
201 224 255
201 224 255
201 224 255
201 224 255
201 224 255
201 224 255
201 224 255
201 224 255
201 224 255
201 224 255
201 224 255
201 224 255
201 224 255
201 224 255
201 224 255
201 224 255
201 224 255
201 224 255
201 224 255
201 224 255
201 224 255
201 224 255
201 224 255
201 224 255
201 224 255
201 224 255
201 224 255
201 224 255
201 224 255
201 224 255
201 224 255
201 224 255
201 224 255
201 225 255
201 225 255
201 225 255
201 225 255
201 225 255
201 225 255
201 225 255
201 225 255
202 225 255
202 225 255
202 225 255
202 225 255
202 225 255
202 225 255
202 225 255
202 225 255
202 225 255
202 225 255
202 225 255
202 225 255
202 225 255
202 225 255
202 225 255
202 225 255
202 225 255
202 225 255
202 225 255
202 225 255
202 225 255
203 225 255
203 225 255
203 225 255
203 225 255
203 225 255
203 225 255
203 225 255
203 225 255
203 225 255
203 225 255
203 226 255
203 226 255
203 226 255
203 226 255
203 226 255
203 226 255
203 226 255
203 226 255
204 226 255
204 226 255
204 226 255
204 226 255
204 226 255
204 226 255
204 226 255
204 226 255
204 226 255
204 226 255
204 226 255
204 226 255
204 226 255
204 226 255
204 226 255
204 226 255
205 226 255
205 226 255
205 226 255
205 226 255
205 226 255
205 226 255
205 226 255
205 227 255
205 227 255
205 227 255
205 227 255
205 227 255
205 227 255
205 227 255
205 227 255
205 227 255
205 227 255
206 227 255
206 227 255
206 227 255
206 227 255
206 227 255
206 227 255
206 227 255
206 227 255
206 227 255
206 227 255
206 227 255
206 227 255
206 227 255
206 227 255
206 227 255
206 227 255
206 227 255
207 227 255
207 227 255
207 227 255
207 227 255
207 228 255
207 228 255
207 228 255
207 228 255
207 228 255
207 228 255
207 228 255
207 228 255
207 228 255
207 228 255
207 228 255
207 228 255
207 228 255
207 228 255
208 228 255
208 228 255
208 228 255
208 228 255
208 228 255
208 228 255
208 228 255
208 228 255
208 228 255
208 228 255
208 228 255
208 228 255
208 228 255
208 228 255
208 228 255
208 228 255
208 228 255
208 228 255
208 228 255
208 228 255
209 228 255
209 229 255
209 229 255
209 229 255
209 229 255
209 229 255
209 229 255
209 229 255
209 229 255
209 229 255
209 229 255
209 229 255
209 229 255
209 229 255
209 229 255
209 229 255
209 229 255
209 229 255
209 229 255
209 229 255
209 229 255
210 229 255
210 229 255
210 229 255
210 229 255
210 229 255
210 229 255
210 229 255
210 229 255
210 229 255
210 229 255
210 229 255
210 229 255
210 229 255
210 229 255
210 229 255
210 229 255
210 229 255
210 229 255
210 229 255
210 229 255
210 229 255
210 229 255
210 229 255
210 229 255
210 229 255
210 229 255
210 229 255
210 229 255
210 229 255
210 229 255
210 229 255
210 229 255
210 229 255
210 229 255
210 229 255
210 229 255
209 229 255
209 229 255
209 229 255
209 229 255
209 229 255
209 229 255
209 229 255
209 229 255
209 229 255
209 229 255
209 229 255
209 229 255
209 229 255
209 229 255
209 229 255
209 229 255
209 229 255
209 229 255
209 229 255
209 228 255
209 228 255
208 228 255
208 228 255
208 228 255
208 228 255
208 228 255
208 228 255
208 228 255
208 228 255
208 228 255
208 228 255
208 228 255
208 228 255
208 228 255
208 228 255
208 228 255
208 228 255
208 228 255
208 228 255
208 228 255
208 228 255
207 228 255
207 228 255
207 228 255
207 228 255
207 228 255
207 228 255
207 228 255
207 228 255
207 228 255
207 228 255
207 228 255
207 228 255
207 228 255
207 227 255
207 227 255
207 227 255
207 227 255
207 227 255
206 227 255
206 227 255
206 227 255
206 227 255
206 227 255
206 227 255
206 227 255
206 227 255
206 227 255
206 227 255
206 227 255
206 227 255
206 227 255
206 227 255
206 227 255
206 227 255
205 227 255
205 227 255
205 227 255
205 227 255
205 227 255
205 227 255
205 227 255
205 227 255
205 227 255
205 227 255
205 227 255
205 226 255
205 226 255
205 226 255
205 226 255
205 226 255
205 226 255
204 226 255
204 226 255
204 226 255
204 226 255
204 226 255
204 226 255
204 226 255
204 226 255
204 226 255
204 226 255
204 226 255
204 226 255
204 226 255
204 226 255
204 226 255
204 226 255
204 226 255
203 226 255
203 226 255
203 226 255
203 226 255
203 226 255
203 226 255
203 226 255
203 225 255
203 225 255
203 225 255
203 225 255
203 225 255
203 225 255
203 225 255
203 225 255
203 225 255
203 225 255
203 225 255
202 225 255
202 225 255
202 225 255
202 225 255
202 225 255
202 225 255
202 225 255
202 225 255
202 225 255
202 225 255
202 225 255
202 225 255
202 225 255
202 225 255
202 225 255
202 225 255
202 225 255
202 225 255
202 225 255
202 225 255
202 225 255
202 225 255
202 225 255
201 225 255
201 225 255
201 225 255
201 225 255
201 225 255
201 225 255
201 225 255
201 225 255
201 225 255
201 225 255
201 224 255
201 224 255
201 224 255
201 224 255
201 224 255
201 224 255
201 224 255
201 224 255
201 224 255
201 224 255
201 224 255
201 224 255
201 224 255
201 224 255
201 224 255
201 224 255
201 224 255
201 224 255
201 224 255
201 224 255
201 224 255
201 224 255
201 224 255
201 224 255
201 224 255
201 224 255
201 224 255
201 224 255
201 224 255
201 224 255
201 224 255
201 224 255
201 224 255
201 224 255
201 224 255
201 224 255
201 224 255
201 224 255
201 224 255
201 224 255
201 225 255
201 225 255
201 225 255
201 225 255
201 225 255
201 225 255
201 225 255
201 225 255
201 225 255
201 225 255
202 225 255
202 225 255
202 225 255
202 225 255
202 225 255
202 225 255
202 225 255
202 225 255
202 225 255
202 225 255
202 225 255
202 225 255
202 225 255
202 225 255
202 225 255
202 225 255
202 225 255
202 225 255
202 225 255
202 225 255
202 225 255
202 225 255
202 225 255
203 225 255
203 225 255
203 225 255
203 225 255
203 225 255
203 225 255
203 225 255
203 225 255
203 225 255
203 225 255
203 225 255
203 226 255
203 226 255
203 226 255
203 226 255
203 226 255
203 226 255
203 226 255
204 226 255
204 226 255
204 226 255
204 226 255
204 226 255
204 226 255
204 226 255
204 226 255
204 226 255
204 226 255
204 226 255
204 226 255
204 226 255
204 226 255
204 226 255
204 226 255
204 226 255
205 226 255
205 226 255
205 226 255
205 226 255
205 226 255
205 226 255
205 226 255
205 227 255
205 227 255
205 227 255
205 227 255
205 227 255
205 227 255
205 227 255
205 227 255
205 227 255
206 227 255
206 227 255
206 227 255
206 227 255
206 227 255
206 227 255
206 227 255
206 227 255
206 227 255
206 227 255
206 227 255
206 227 255
206 227 255
206 227 255
206 227 255
206 227 255
206 227 255
207 227 255
207 227 255
207 227 255
207 227 255
207 227 255
207 228 255
207 228 255
207 228 255
207 228 255
207 228 255
207 228 255
207 228 255
207 228 255
207 228 255
207 228 255
207 228 255
207 228 255
207 228 255
208 228 255
208 228 255
208 228 255
208 228 255
208 228 255
208 228 255
208 228 255
208 228 255
208 228 255
208 228 255
208 228 255
208 228 255
208 228 255
208 228 255
208 228 255
208 228 255
208 228 255
208 228 255
208 228 255
208 228 255
209 228 255
209 229 255
209 229 255
209 229 255
209 229 255
209 229 255
209 229 255
209 229 255
209 229 255
209 229 255
209 229 255
209 229 255
209 229 255
209 229 255
209 229 255
209 229 255
209 229 255
209 229 255
209 229 255
209 229 255
209 229 255
209 229 255
210 229 255
210 229 255
210 229 255
210 229 255
210 229 255
210 229 255
210 229 255
210 229 255
210 229 255
210 229 255
210 229 255
210 229 255
210 229 255
210 229 255
210 229 255
210 229 255
210 229 255
210 229 255
210 229 255
210 230 255
210 229 255
210 229 255
210 229 255
210 229 255
210 229 255
210 229 255
210 229 255
210 229 255
210 229 255
210 229 255
210 229 255
210 229 255
210 229 255
210 229 255
210 229 255
210 229 255
210 229 255
210 229 255
210 229 255
210 229 255
210 229 255
210 229 255
209 229 255
209 229 255
209 229 255
209 229 255
209 229 255
209 229 255
209 229 255
209 229 255
209 229 255
209 229 255
209 229 255
209 229 255
209 229 255
209 229 255
209 229 255
209 229 255
209 229 255
209 229 255
209 229 255
209 229 255
209 228 255
208 228 255
208 228 255
208 228 255
208 228 255
208 228 255
208 228 255
208 228 255
208 228 255
208 228 255
208 228 255
208 228 255
208 228 255
208 228 255
208 228 255
208 228 255
208 228 255
208 228 255
208 228 255
208 228 255
208 228 255
207 228 255
207 228 255
207 228 255
207 228 255
207 228 255
207 228 255
207 228 255
207 228 255
207 228 255
207 228 255
207 228 255
207 228 255
207 228 255
207 228 255
207 227 255
207 227 255
207 227 255
207 227 255
206 227 255
206 227 255
206 227 255
206 227 255
206 227 255
206 227 255
206 227 255
206 227 255
206 227 255
206 227 255
206 227 255
206 227 255
206 227 255
206 227 255
206 227 255
206 227 255
206 227 255
205 227 255
205 227 255
205 227 255
205 227 255
205 227 255
205 227 255
205 227 255
205 227 255
205 227 255
205 227 255
205 226 255
205 226 255
205 226 255
205 226 255
205 226 255
205 226 255
205 226 255
204 226 255
204 226 255
204 226 255
204 226 255
204 226 255
204 226 255
204 226 255
204 226 255
204 226 255
204 226 255
204 226 255
204 226 255
204 226 255
204 226 255
204 226 255
204 226 255
203 226 255
203 226 255
203 226 255
203 226 255
203 226 255
203 226 255
203 226 255
203 226 255
203 226 255
203 225 255
203 225 255
203 225 255
203 225 255
203 225 255
203 225 255
203 225 255
203 225 255
203 225 255
203 225 255
202 225 255
202 225 255
202 225 255
202 225 255
202 225 255
202 225 255
202 225 255
202 225 255
202 225 255
202 225 255
202 225 255
202 225 255
202 225 255
202 225 255
202 225 255
202 225 255
202 225 255
202 225 255
202 225 255
202 225 255
202 225 255
202 225 255
202 225 255
202 225 255
202 225 255
202 225 255
201 225 255
201 225 255
201 225 255
201 225 255
201 225 255
201 225 255
201 225 255
201 225 255
201 225 255
201 225 255
201 225 255
201 225 255
201 225 255
201 225 255
201 225 255
201 225 255
201 225 255
201 225 255
201 224 255
201 225 255
201 224 255
201 224 255
201 224 255
201 224 255
201 224 255
201 224 255
201 224 255
201 224 255
201 224 255
201 225 255
201 225 255
201 225 255
201 225 255
201 225 255
201 225 255
201 225 255
201 225 255
201 225 255
201 225 255
201 225 255
201 225 255
201 225 255
201 225 255
201 225 255
201 225 255
201 225 255
202 225 255
202 225 255
202 225 255
202 225 255
202 225 255
202 225 255
202 225 255
202 225 255
202 225 255
202 225 255
202 225 255
202 225 255
202 225 255
202 225 255
202 225 255
202 225 255
202 225 255
202 225 255
202 225 255
202 225 255
202 225 255
202 225 255
202 225 255
202 225 255
202 225 255
202 225 255
203 225 255
203 225 255
203 225 255
203 225 255
203 225 255
203 225 255
203 225 255
203 225 255
203 225 255
203 225 255
203 225 255
203 226 255
203 226 255
203 226 255
203 226 255
203 226 255
203 226 255
203 226 255
203 226 255
204 226 255
204 226 255
204 226 255
204 226 255
204 226 255
204 226 255
204 226 255
204 226 255
204 226 255
204 226 255
204 226 255
204 226 255
204 226 255
204 226 255
204 226 255
204 226 255
205 226 255
205 226 255
205 226 255
205 226 255
205 226 255
205 226 255
205 226 255
205 227 255
205 227 255
205 227 255
205 227 255
205 227 255
205 227 255
205 227 255
205 227 255
205 227 255
205 227 255
206 227 255
206 227 255
206 227 255
206 227 255
206 227 255
206 227 255
206 227 255
206 227 255
206 227 255
206 227 255
206 227 255
206 227 255
206 227 255
206 227 255
206 227 255
206 227 255
206 227 255
207 227 255
207 227 255
207 227 255
207 227 255
207 228 255
207 228 255
207 228 255
207 228 255
207 228 255
207 228 255
207 228 255
207 228 255
207 228 255
207 228 255
207 228 255
207 228 255
207 228 255
207 228 255
208 228 255
208 228 255
208 228 255
208 228 255
208 228 255
208 228 255
208 228 255
208 228 255
208 228 255
208 228 255
208 228 255
208 228 255
208 228 255
208 228 255
208 228 255
208 228 255
208 228 255
208 228 255
208 228 255
208 228 255
209 228 255
209 229 255
209 229 255
209 229 255
209 229 255
209 229 255
209 229 255
209 229 255
209 229 255
209 229 255
209 229 255
209 229 255
209 229 255
209 229 255
209 229 255
209 229 255
209 229 255
209 229 255
209 229 255
209 229 255
209 229 255
210 229 255
210 229 255
210 229 255
210 229 255
210 229 255
210 229 255
210 229 255
210 229 255
210 229 255
210 229 255
210 229 255
210 229 255
210 229 255
210 229 255
210 229 255
210 229 255
210 229 255
210 229 255
210 229 255
210 229 255
210 229 255
210 229 255
210 230 255
211 230 255
211 230 255
210 230 255
210 230 255
210 230 255
210 229 255
210 229 255
210 229 255
210 229 255
210 229 255
210 229 255
210 229 255
210 229 255
210 229 255
210 229 255
210 229 255
210 229 255
210 229 255
210 229 255
210 229 255
210 229 255
210 229 255
210 229 255
210 229 255
210 229 255
210 229 255
210 229 255
209 229 255
209 229 255
209 229 255
209 229 255
209 229 255
209 229 255
209 229 255
209 229 255
209 229 255
209 229 255
209 229 255
209 229 255
209 229 255
209 229 255
209 229 255
209 229 255
209 229 255
209 229 255
209 229 255
209 228 255
209 228 255
208 228 255
208 228 255
208 228 255
208 228 255
208 228 255
208 228 255
208 228 255
208 228 255
208 228 255
208 228 255
208 228 255
208 228 255
208 228 255
208 228 255
208 228 255
208 228 255
208 228 255
208 228 255
208 228 255
207 228 255
207 228 255
207 228 255
207 228 255
207 228 255
207 228 255
207 228 255
207 228 255
207 228 255
207 228 255
207 228 255
207 228 255
207 228 255
207 228 255
207 227 255
207 227 255
207 227 255
207 227 255
206 227 255
206 227 255
206 227 255
206 227 255
206 227 255
206 227 255
206 227 255
206 227 255
206 227 255
206 227 255
206 227 255
206 227 255
206 227 255
206 227 255
206 227 255
206 227 255
206 227 255
205 227 255
205 227 255
205 227 255
205 227 255
205 227 255
205 227 255
205 227 255
205 227 255
205 227 255
205 227 255
205 226 255
205 226 255
205 226 255
205 226 255
205 226 255
205 226 255
205 226 255
204 226 255
204 226 255
204 226 255
204 226 255
204 226 255
204 226 255
204 226 255
204 226 255
204 226 255
204 226 255
204 226 255
204 226 255
204 226 255
204 226 255
204 226 255
204 226 255
204 226 255
203 226 255
203 226 255
203 226 255
203 226 255
203 226 255
203 226 255
203 226 255
203 226 255
203 225 255
203 225 255
203 225 255
203 225 255
203 225 255
203 225 255
203 225 255
203 225 255
203 225 255
203 225 255
203 225 255
203 225 255
202 225 255
202 225 255
202 225 255
202 225 255
202 225 255
202 225 255
202 225 255
202 225 255
202 225 255
202 225 255
202 225 255
202 225 255
202 225 255
202 225 255
202 225 255
202 225 255
202 225 255
202 225 255
202 225 255
202 225 255
202 225 255
202 225 255
202 225 255
202 225 255
202 225 255
202 225 255
202 225 255
202 225 255
202 225 255
202 225 255
202 225 255
202 225 255
201 225 255
201 225 255
201 225 255
201 225 255
201 225 255
201 225 255
201 225 255
201 225 255
201 225 255
201 225 255
201 225 255
201 225 255
201 225 255
201 225 255
201 225 255
201 225 255
201 225 255
201 225 255
201 225 255
201 225 255
201 225 255
201 225 255
201 225 255
201 225 255
202 225 255
202 225 255
202 225 255
202 225 255
202 225 255
202 225 255
202 225 255
202 225 255
202 225 255
202 225 255
202 225 255
202 225 255
202 225 255
202 225 255
202 225 255
202 225 255
202 225 255
202 225 255
202 225 255
202 225 255
202 225 255
202 225 255
202 225 255
202 225 255
202 225 255
202 225 255
202 225 255
202 225 255
202 225 255
202 225 255
202 225 255
202 225 255
203 225 255
203 225 255
203 225 255
203 225 255
203 225 255
203 225 255
203 225 255
203 225 255
203 225 255
203 225 255
203 225 255
203 225 255
203 226 255
203 226 255
203 226 255
203 226 255
203 226 255
203 226 255
203 226 255
203 226 255
204 226 255
204 226 255
204 226 255
204 226 255
204 226 255
204 226 255
204 226 255
204 226 255
204 226 255
204 226 255
204 226 255
204 226 255
204 226 255
204 226 255
204 226 255
204 226 255
204 226 255
205 226 255
205 226 255
205 226 255
205 226 255
205 226 255
205 226 255
205 226 255
205 227 255
205 227 255
205 227 255
205 227 255
205 227 255
205 227 255
205 227 255
205 227 255
205 227 255
205 227 255
206 227 255
206 227 255
206 227 255
206 227 255
206 227 255
206 227 255
206 227 255
206 227 255
206 227 255
206 227 255
206 227 255
206 227 255
206 227 255
206 227 255
206 227 255
206 227 255
206 227 255
207 227 255
207 227 255
207 227 255
207 227 255
207 228 255
207 228 255
207 228 255
207 228 255
207 228 255
207 228 255
207 228 255
207 228 255
207 228 255
207 228 255
207 228 255
207 228 255
207 228 255
207 228 255
208 228 255
208 228 255
208 228 255
208 228 255
208 228 255
208 228 255
208 228 255
208 228 255
208 228 255
208 228 255
208 228 255
208 228 255
208 228 255
208 228 255
208 228 255
208 228 255
208 228 255
208 228 255
208 228 255
209 228 255
209 228 255
209 229 255
209 229 255
209 229 255
209 229 255
209 229 255
209 229 255
209 229 255
209 229 255
209 229 255
209 229 255
209 229 255
209 229 255
209 229 255
209 229 255
209 229 255
209 229 255
209 229 255
209 229 255
209 229 255
210 229 255
210 229 255
210 229 255
210 229 255
210 229 255
210 229 255
210 229 255
210 229 255
210 229 255
210 229 255
210 229 255
210 229 255
210 229 255
210 229 255
210 229 255
210 229 255
210 229 255
210 229 255
210 229 255
210 229 255
210 229 255
210 229 255
210 230 255
210 230 255
210 230 255
211 230 255
211 230 255
211 230 255
211 230 255
211 230 255
211 230 255
211 230 255
211 230 255
210 230 255
210 230 255
210 230 255
210 229 255
210 229 255
210 229 255
210 229 255
210 229 255
210 229 255
210 229 255
210 229 255
210 229 255
210 229 255
210 229 255
210 229 255
210 229 255
210 229 255
210 229 255
210 229 255
210 229 255
210 229 255
210 229 255
210 229 255
210 229 255
209 229 255
209 229 255
209 229 255
209 229 255
209 229 255
209 229 255
209 229 255
209 229 255
209 229 255
209 229 255
209 229 255
209 229 255
209 229 255
209 229 255
209 229 255
209 229 255
209 229 255
209 229 255
209 229 255
209 229 255
209 228 255
208 228 255
208 228 255
208 228 255
208 228 255
208 228 255
208 228 255
208 228 255
208 228 255
208 228 255
208 228 255
208 228 255
208 228 255
208 228 255
208 228 255
208 228 255
208 228 255
208 228 255
208 228 255
208 228 255
208 228 255
207 228 255
207 228 255
207 228 255
207 228 255
207 228 255
207 228 255
207 228 255
207 228 255
207 228 255
207 228 255
207 228 255
207 228 255
207 228 255
207 227 255
207 227 255
207 227 255
207 227 255
207 227 255
206 227 255
206 227 255
206 227 255
206 227 255
206 227 255
206 227 255
206 227 255
206 227 255
206 227 255
206 227 255
206 227 255
206 227 255
206 227 255
206 227 255
206 227 255
206 227 255
206 227 255
205 227 255
205 227 255
205 227 255
205 227 255
205 227 255
205 227 255
205 227 255
205 227 255
205 227 255
205 226 255
205 226 255
205 226 255
205 226 255
205 226 255
205 226 255
205 226 255
205 226 255
204 226 255
204 226 255
204 226 255
204 226 255
204 226 255
204 226 255
204 226 255
204 226 255
204 226 255
204 226 255
204 226 255
204 226 255
204 226 255
204 226 255
204 226 255
204 226 255
204 226 255
203 226 255
203 226 255
203 226 255
203 226 255
203 226 255
203 226 255
203 226 255
203 226 255
203 226 255
203 225 255
203 225 255
203 225 255
203 225 255
203 225 255
203 225 255
203 225 255
203 225 255
203 225 255
203 225 255
203 225 255
203 225 255
202 225 255
202 225 255
202 225 255
202 225 255
202 225 255
202 225 255
202 225 255
202 225 255
202 225 255
202 225 255
202 225 255
202 225 255
202 225 255
202 225 255
202 225 255
202 225 255
202 225 255
202 225 255
202 225 255
202 225 255
202 225 255
202 225 255
202 225 255
202 225 255
202 225 255
202 225 255
202 225 255
202 225 255
202 225 255
202 225 255
202 225 255
202 225 255
202 225 255
202 225 255
202 225 255
202 225 255
202 225 255
202 225 255
202 225 255
202 225 255
202 225 255
202 225 255
202 225 255
202 225 255
202 225 255
202 225 255
202 225 255
202 225 255
202 225 255
202 225 255
202 225 255
202 225 255
202 225 255
202 225 255
202 225 255
202 225 255
202 225 255
202 225 255
202 225 255
202 225 255
202 225 255
202 225 255
202 225 255
202 225 255
202 225 255
202 225 255
202 225 255
202 225 255
202 225 255
202 225 255
202 225 255
202 225 255
202 225 255
202 225 255
202 225 255
202 225 255
202 225 255
202 225 255
203 225 255
203 225 255
203 225 255
203 225 255
203 225 255
203 225 255
203 225 255
203 225 255
203 225 255
203 225 255
203 225 255
203 225 255
203 226 255
203 226 255
203 226 255
203 226 255
203 226 255
203 226 255
203 226 255
203 226 255
203 226 255
204 226 255
204 226 255
204 226 255
204 226 255
204 226 255
204 226 255
204 226 255
204 226 255
204 226 255
204 226 255
204 226 255
204 226 255
204 226 255
204 226 255
204 226 255
204 226 255
204 226 255
205 226 255
205 226 255
205 226 255
205 226 255
205 226 255
205 226 255
205 226 255
205 227 255
205 227 255
205 227 255
205 227 255
205 227 255
205 227 255
205 227 255
205 227 255
205 227 255
205 227 255
205 227 255
206 227 255
206 227 255
206 227 255
206 227 255
206 227 255
206 227 255
206 227 255
206 227 255
206 227 255
206 227 255
206 227 255
206 227 255
206 227 255
206 227 255
206 227 255
206 227 255
207 227 255
207 227 255
207 227 255
207 227 255
207 227 255
207 228 255
207 228 255
207 228 255
207 228 255
207 228 255
207 228 255
207 228 255
207 228 255
207 228 255
207 228 255
207 228 255
207 228 255
207 228 255
208 228 255
208 228 255
208 228 255
208 228 255
208 228 255
208 228 255
208 228 255
208 228 255
208 228 255
208 228 255
208 228 255
208 228 255
208 228 255
208 228 255
208 228 255
208 228 255
208 228 255
208 228 255
208 228 255
209 228 255
209 228 255
209 229 255
209 229 255
209 229 255
209 229 255
209 229 255
209 229 255
209 229 255
209 229 255
209 229 255
209 229 255
209 229 255
209 229 255
209 229 255
209 229 255
209 229 255
209 229 255
209 229 255
209 229 255
209 229 255
209 229 255
210 229 255
210 229 255
210 229 255
210 229 255
210 229 255
210 229 255
210 229 255
210 229 255
210 229 255
210 229 255
210 229 255
210 229 255
210 229 255
210 229 255
210 229 255
210 229 255
210 229 255
210 229 255
210 229 255
210 229 255
210 229 255
210 230 255
210 230 255
210 230 255
211 230 255
211 230 255
211 230 255
211 230 255
211 230 255
211 230 255
211 230 255
211 230 255
211 230 255
211 230 255
211 230 255
211 230 255
211 230 255
211 230 255
211 230 255
211 230 255
210 230 255
210 230 255
210 230 255
210 229 255
210 229 255
210 229 255
210 229 255
210 229 255
210 229 255
210 229 255
210 229 255
210 229 255
210 229 255
210 229 255
210 229 255
210 229 255
210 229 255
210 229 255
210 229 255
210 229 255
210 229 255
210 229 255
210 229 255
210 229 255
209 229 255
209 229 255
209 229 255
209 229 255
209 229 255
209 229 255
209 229 255
209 229 255
209 229 255
209 229 255
209 229 255
209 229 255
209 229 255
209 229 255
209 229 255
209 229 255
209 229 255
209 229 255
209 229 255
209 229 255
209 228 255
208 228 255
208 228 255
208 228 255
208 228 255
208 228 255
208 228 255
208 228 255
208 228 255
208 228 255
208 228 255
208 228 255
208 228 255
208 228 255
208 228 255
208 228 255
208 228 255
208 228 255
208 228 255
208 228 255
207 228 255
207 228 255
207 228 255
207 228 255
207 228 255
207 228 255
207 228 255
207 228 255
207 228 255
207 228 255
207 228 255
207 228 255
207 228 255
207 228 255
207 227 255
207 227 255
207 227 255
207 227 255
206 227 255
206 227 255
206 227 255
206 227 255
206 227 255
206 227 255
206 227 255
206 227 255
206 227 255
206 227 255
206 227 255
206 227 255
206 227 255
206 227 255
206 227 255
206 227 255
206 227 255
205 227 255
205 227 255
205 227 255
205 227 255
205 227 255
205 227 255
205 227 255
205 227 255
205 227 255
205 227 255
205 226 255
205 226 255
205 226 255
205 226 255
205 226 255
205 226 255
205 226 255
204 226 255
204 226 255
204 226 255
204 226 255
204 226 255
204 226 255
204 226 255
204 226 255
204 226 255
204 226 255
204 226 255
204 226 255
204 226 255
204 226 255
204 226 255
204 226 255
204 226 255
204 226 255
203 226 255
203 226 255
203 226 255
203 226 255
203 226 255
203 226 255
203 226 255
203 226 255
203 226 255
203 225 255
203 225 255
203 225 255
203 225 255
203 225 255
203 225 255
203 225 255
203 225 255
203 225 255
203 225 255
203 225 255
203 225 255
203 225 255
203 225 255
202 225 255
202 225 255
202 225 255
202 225 255
202 225 255
202 225 255
202 225 255
202 225 255
202 225 255
202 225 255
202 225 255
202 225 255
202 225 255
202 225 255
202 225 255
202 225 255
202 225 255
202 225 255
202 225 255
202 225 255
202 225 255
202 225 255
202 225 255
202 225 255
202 225 255
201 223 253
197 207 236
194 200 227
192 191 217
192 188 214
187 173 196
186 171 194
182 149 169
184 167 189
182 164 186
184 165 188
188 175 199
193 193 220
196 208 237
197 210 238
201 221 252
202 225 255
202 225 255
202 225 255
202 225 255
202 225 255
202 225 255
202 225 255
202 225 255
202 225 255
202 225 255
202 225 255
202 225 255
202 225 255
202 225 255
202 225 255
202 225 255
202 225 255
202 225 255
202 225 255
202 225 255
202 225 255
202 225 255
202 225 255
202 225 255
202 225 255
203 225 255
203 225 255
203 225 255
203 225 255
203 225 255
203 225 255
203 225 255
203 225 255
203 225 255
203 225 255
203 225 255
203 225 255
203 225 255
203 226 255
203 226 255
203 226 255
203 226 255
203 226 255
203 226 255
203 226 255
203 226 255
203 226 255
204 226 255
204 226 255
204 226 255
204 226 255
204 226 255
204 226 255
204 226 255
204 226 255
204 226 255
204 226 255
204 226 255
204 226 255
204 226 255
204 226 255
204 226 255
204 226 255
204 226 255
204 226 255
204 226 255
205 226 255
205 226 255
205 226 255
205 226 255
205 226 255
205 226 255
205 226 255
205 227 255
205 227 255
205 227 255
205 227 255
205 227 255
205 227 255
205 227 255
205 227 255
205 227 255
205 227 255
206 227 255
206 227 255
206 227 255
206 227 255
206 227 255
206 227 255
206 227 255
206 227 255
206 227 255
206 227 255
206 227 255
206 227 255
206 227 255
206 227 255
206 227 255
206 227 255
206 227 255
207 227 255
207 227 255
207 227 255
207 227 255
207 228 255
207 228 255
207 228 255
207 228 255
207 228 255
207 228 255
207 228 255
207 228 255
207 228 255
207 228 255
207 228 255
207 228 255
207 228 255
207 228 255
208 228 255
208 228 255
208 228 255
208 228 255
208 228 255
208 228 255
208 228 255
208 228 255
208 228 255
208 228 255
208 228 255
208 228 255
208 228 255
208 228 255
208 228 255
208 228 255
208 228 255
208 228 255
208 228 255
209 228 255
209 229 255
209 229 255
209 229 255
209 229 255
209 229 255
209 229 255
209 229 255
209 229 255
209 229 255
209 229 255
209 229 255
209 229 255
209 229 255
209 229 255
209 229 255
209 229 255
209 229 255
209 229 255
209 229 255
209 229 255
210 229 255
210 229 255
210 229 255
210 229 255
210 229 255
210 229 255
210 229 255
210 229 255
210 229 255
210 229 255
210 229 255
210 229 255
210 229 255
210 229 255
210 229 255
210 229 255
210 229 255
210 229 255
210 229 255
210 229 255
210 229 255
210 230 255
210 230 255
210 230 255
211 230 255
211 230 255
211 230 255
211 230 255
211 230 255
211 230 255
211 230 255
211 230 255
211 230 255
211 230 255
211 230 255
211 230 255
211 230 255
211 230 255
211 230 255
211 230 255
211 230 255
211 230 255
211 230 255
211 230 255
211 230 255
211 230 255
211 230 255
211 230 255
210 230 255
210 230 255
210 230 255
210 229 255
210 229 255
210 229 255
210 229 255
210 229 255
210 229 255
210 229 255
210 229 255
210 229 255
210 229 255
210 229 255
210 229 255
210 229 255
210 229 255
210 229 255
210 229 255
210 229 255
210 229 255
210 229 255
210 229 255
210 229 255
209 229 255
209 229 255
209 229 255
209 229 255
209 229 255
209 229 255
209 229 255
209 229 255
209 229 255
209 229 255
209 229 255
209 229 255
209 229 255
209 229 255
209 229 255
209 229 255
209 229 255
209 229 255
209 229 255
209 228 255
209 228 255
208 228 255
208 228 255
208 228 255
208 228 255
208 228 255
208 228 255
208 228 255
208 228 255
208 228 255
208 228 255
208 228 255
208 228 255
208 228 255
208 228 255
208 228 255
208 228 255
208 228 255
208 228 255
208 228 255
207 228 255
207 228 255
207 228 255
207 228 255
207 228 255
207 228 255
207 228 255
207 228 255
207 228 255
207 228 255
207 228 255
207 228 255
207 228 255
207 227 255
207 227 255
207 227 255
207 227 255
207 227 255
206 227 255
206 227 255
206 227 255
206 227 255
206 227 255
206 227 255
206 227 255
206 227 255
206 227 255
206 227 255
206 227 255
206 227 255
206 227 255
206 227 255
206 227 255
206 227 255
206 227 255
205 227 255
205 227 255
205 227 255
205 227 255
205 227 255
205 227 255
205 227 255
205 227 255
205 227 255
205 227 255
205 226 255
205 226 255
205 226 255
205 226 255
205 226 255
205 226 255
205 226 255
204 226 255
204 226 255
204 226 255
204 226 255
204 226 255
204 226 255
204 226 255
204 226 255
204 226 255
204 226 255
204 226 255
204 226 255
204 226 255
204 226 255
204 226 255
204 226 255
204 226 255
204 226 255
204 226 255
203 226 255
203 226 255
203 226 255
203 226 255
203 226 255
203 226 255
203 226 255
203 226 255
203 226 255
203 225 255
203 225 255
203 225 255
203 225 255
203 225 255
203 225 255
203 225 255
203 225 255
203 225 255
203 225 255
203 225 255
203 225 255
203 225 255
203 225 255
203 225 255
203 225 255
202 225 255
202 225 255
202 225 255
202 225 255
202 225 255
202 225 255
202 225 255
202 225 255
202 225 255
202 225 255
202 225 255
202 225 255
201 220 250
196 206 234
180 147 167
179 147 167
173 103 117
165 71 80
163 0 0
160 0 0
153 0 0
159 0 0
159 0 0
164 0 0
154 0 0
155 0 0
159 0 0
163 0 0
161 0 0
163 0 0
162 0 0
158 0 0
161 0 0
156 0 0
162 71 80
171 119 135
178 144 163
187 174 198
196 200 227
199 218 248
202 225 255
202 225 255
202 225 255
202 225 255
202 225 255
202 225 255
202 225 255
202 225 255
202 225 255
202 225 255
202 225 255
202 225 255
203 225 255
203 225 255
203 225 255
203 225 255
203 225 255
203 225 255
203 225 255
203 225 255
203 225 255
203 225 255
203 225 255
203 225 255
203 225 255
203 225 255
203 225 255
203 226 255
203 226 255
203 226 255
203 226 255
203 226 255
203 226 255
203 226 255
203 226 255
203 226 255
203 226 255
204 226 255
204 226 255
204 226 255
204 226 255
204 226 255
204 226 255
204 226 255
204 226 255
204 226 255
204 226 255
204 226 255
204 226 255
204 226 255
204 226 255
204 226 255
204 226 255
204 226 255
204 226 255
204 226 255
205 226 255
205 226 255
205 226 255
205 226 255
205 226 255
205 226 255
205 226 255
205 227 255
205 227 255
205 227 255
205 227 255
205 227 255
205 227 255
205 227 255
205 227 255
205 227 255
205 227 255
206 227 255
206 227 255
206 227 255
206 227 255
206 227 255
206 227 255
206 227 255
206 227 255
206 227 255
206 227 255
206 227 255
206 227 255
206 227 255
206 227 255
206 227 255
206 227 255
206 227 255
206 227 255
207 227 255
207 227 255
207 227 255
207 227 255
207 228 255
207 228 255
207 228 255
207 228 255
207 228 255
207 228 255
207 228 255
207 228 255
207 228 255
207 228 255
207 228 255
207 228 255
207 228 255
208 228 255
208 228 255
208 228 255
208 228 255
208 228 255
208 228 255
208 228 255
208 228 255
208 228 255
208 228 255
208 228 255
208 228 255
208 228 255
208 228 255
208 228 255
208 228 255
208 228 255
208 228 255
208 228 255
209 228 255
209 228 255
209 229 255
209 229 255
209 229 255
209 229 255
209 229 255
209 229 255
209 229 255
209 229 255
209 229 255
209 229 255
209 229 255
209 229 255
209 229 255
209 229 255
209 229 255
209 229 255
209 229 255
209 229 255
209 229 255
210 229 255
210 229 255
210 229 255
210 229 255
210 229 255
210 229 255
210 229 255
210 229 255
210 229 255
210 229 255
210 229 255
210 229 255
210 229 255
210 229 255
210 229 255
210 229 255
210 229 255
210 229 255
210 229 255
210 229 255
210 229 255
210 230 255
210 230 255
211 230 255
211 230 255
211 230 255
211 230 255
211 230 255
211 230 255
211 230 255
211 230 255
211 230 255
211 230 255
211 230 255
211 230 255
211 230 255
211 230 255
211 230 255
211 230 255
211 230 255
211 230 255
211 230 255
211 230 255
211 230 255
211 230 255
211 230 255
211 230 255
211 230 255
211 230 255
211 230 255
211 230 255
211 230 255
211 230 255
211 230 255
211 230 255
211 230 255
210 230 255
210 230 255
210 230 255
210 229 255
210 229 255
210 229 255
210 229 255
210 229 255
210 229 255
210 229 255
210 229 255
210 229 255
210 229 255
210 229 255
210 229 255
210 229 255
210 229 255
210 229 255
210 229 255
210 229 255
210 229 255
210 229 255
210 229 255
210 229 255
209 229 255
209 229 255
209 229 255
209 229 255
209 229 255
209 229 255
209 229 255
209 229 255
209 229 255
209 229 255
209 229 255
209 229 255
209 229 255
209 229 255
209 229 255
209 229 255
209 229 255
209 229 255
209 229 255
209 228 255
208 228 255
208 228 255
208 228 255
208 228 255
208 228 255
208 228 255
208 228 255
208 228 255
208 228 255
208 228 255
208 228 255
208 228 255
208 228 255
208 228 255
208 228 255
208 228 255
208 228 255
208 228 255
208 228 255
207 228 255
207 228 255
207 228 255
207 228 255
207 228 255
207 228 255
207 228 255
207 228 255
207 228 255
207 228 255
207 228 255
207 228 255
207 228 255
207 228 255
207 227 255
207 227 255
207 227 255
207 227 255
206 227 255
206 227 255
206 227 255
206 227 255
206 227 255
206 227 255
206 227 255
206 227 255
206 227 255
206 227 255
206 227 255
206 227 255
206 227 255
206 227 255
206 227 255
206 227 255
206 227 255
205 227 255
205 227 255
205 227 255
205 227 255
205 227 255
205 227 255
205 227 255
205 227 255
205 227 255
205 227 255
205 227 255
205 226 255
205 226 255
205 226 255
205 226 255
205 226 255
205 226 255
205 226 255
204 226 255
204 226 255
204 226 255
204 226 255
204 226 255
204 226 255
204 226 255
204 226 255
204 226 255
204 226 255
204 226 255
204 226 255
204 226 255
204 226 255
204 226 255
204 226 255
204 226 255
204 226 255
204 226 255
204 226 255
203 226 255
203 226 255
203 226 255
203 226 255
203 226 255
203 226 255
203 226 255
203 226 255
203 226 255
203 226 255
203 225 255
203 225 255
203 225 255
203 225 255
203 225 255
203 225 255
203 225 255
203 225 255
203 225 255
203 225 255
203 225 255
203 225 255
203 225 255
203 225 255
203 225 255
203 225 255
203 225 255
203 225 255
200 216 245
188 174 198
179 153 173
165 87 99
160 22 25
162 0 0
160 0 0
156 0 0
153 0 0
155 0 0
161 0 0
160 0 0
158 0 0
156 0 0
164 0 0
162 0 0
153 0 0
157 0 0
162 0 0
163 0 0
158 0 0
157 0 0
157 0 0
158 0 0
162 0 0
160 0 0
157 0 0
163 0 0
158 0 0
163 0 0
158 0 0
161 31 36
172 100 114
181 162 184
188 180 204
199 218 248
203 225 255
203 225 255
203 225 255
203 225 255
203 225 255
203 225 255
203 225 255
203 225 255
203 225 255
203 225 255
203 225 255
203 225 255
203 225 255
203 225 255
203 225 255
203 225 255
203 225 255
203 225 255
203 226 255
203 226 255
203 226 255
203 226 255
203 226 255
203 226 255
203 226 255
203 226 255
203 226 255
203 226 255
204 226 255
204 226 255
204 226 255
204 226 255
204 226 255
204 226 255
204 226 255
204 226 255
204 226 255
204 226 255
204 226 255
204 226 255
204 226 255
204 226 255
204 226 255
204 226 255
204 226 255
204 226 255
204 226 255
204 226 255
205 226 255
205 226 255
205 226 255
205 226 255
205 226 255
205 226 255
205 226 255
205 227 255
205 227 255
205 227 255
205 227 255
205 227 255
205 227 255
205 227 255
205 227 255
205 227 255
205 227 255
205 227 255
206 227 255
206 227 255
206 227 255
206 227 255
206 227 255
206 227 255
206 227 255
206 227 255
206 227 255
206 227 255
206 227 255
206 227 255
206 227 255
206 227 255
206 227 255
206 227 255
206 227 255
207 227 255
207 227 255
207 227 255
207 227 255
207 228 255
207 228 255
207 228 255
207 228 255
207 228 255
207 228 255
207 228 255
207 228 255
207 228 255
207 228 255
207 228 255
207 228 255
207 228 255
207 228 255
208 228 255
208 228 255
208 228 255
208 228 255
208 228 255
208 228 255
208 228 255
208 228 255
208 228 255
208 228 255
208 228 255
208 228 255
208 228 255
208 228 255
208 228 255
208 228 255
208 228 255
208 228 255
208 228 255
209 228 255
209 229 255
209 229 255
209 229 255
209 229 255
209 229 255
209 229 255
209 229 255
209 229 255
209 229 255
209 229 255
209 229 255
209 229 255
209 229 255
209 229 255
209 229 255
209 229 255
209 229 255
209 229 255
209 229 255
210 229 255
210 229 255
210 229 255
210 229 255
210 229 255
210 229 255
210 229 255
210 229 255
210 229 255
210 229 255
210 229 255
210 229 255
210 229 255
210 229 255
210 229 255
210 229 255
210 229 255
210 229 255
210 229 255
210 229 255
210 229 255
210 230 255
210 230 255
210 230 255
211 230 255
211 230 255
211 230 255
211 230 255
211 230 255
211 230 255
211 230 255
211 230 255
211 230 255
211 230 255
211 230 255
211 230 255
211 230 255
211 230 255
211 230 255
211 230 255
211 230 255
211 230 255
211 230 255
211 230 255
211 230 255
211 230 255
211 230 255
211 230 255
211 230 255
211 230 255
211 230 255
211 230 255
211 230 255
211 230 255
211 230 255
211 230 255
211 230 255
211 230 255
211 230 255
211 230 255
211 230 255
211 230 255
211 230 255
211 230 255
210 230 255
210 230 255
210 230 255
210 229 255
210 229 255
210 229 255
210 229 255
210 229 255
210 229 255
210 229 255
210 229 255
210 229 255
210 229 255
210 229 255
210 229 255
210 229 255
210 229 255
210 229 255
210 229 255
210 229 255
210 229 255
210 229 255
210 229 255
209 229 255
209 229 255
209 229 255
209 229 255
209 229 255
209 229 255
209 229 255
209 229 255
209 229 255
209 229 255
209 229 255
209 229 255
209 229 255
209 229 255
209 229 255
209 229 255
209 229 255
209 229 255
209 229 255
209 229 255
209 228 255
208 228 255
208 228 255
208 228 255
208 228 255
208 228 255
208 228 255
208 228 255
208 228 255
208 228 255
208 228 255
208 228 255
208 228 255
208 228 255
208 228 255
208 228 255
208 228 255
208 228 255
208 228 255
208 228 255
207 228 255
207 228 255
207 228 255
207 228 255
207 228 255
207 228 255
207 228 255
207 228 255
207 228 255
207 228 255
207 228 255
207 228 255
207 228 255
207 227 255
207 227 255
207 227 255
207 227 255
206 227 255
206 227 255
206 227 255
206 227 255
206 227 255
206 227 255
206 227 255
206 227 255
206 227 255
206 227 255
206 227 255
206 227 255
206 227 255
206 227 255
206 227 255
206 227 255
206 227 255
206 227 255
205 227 255
205 227 255
205 227 255
205 227 255
205 227 255
205 227 255
205 227 255
205 227 255
205 227 255
205 227 255
205 227 255
205 226 255
205 226 255
205 226 255
205 226 255
205 226 255
205 226 255
205 226 255
204 226 255
204 226 255
204 226 255
204 226 255
204 226 255
204 226 255
204 226 255
204 226 255
204 226 255
204 226 255
204 226 255
204 226 255
204 226 255
204 226 255
204 226 255
204 226 255
204 226 255
204 226 255
204 226 255
204 226 255
204 226 255
203 226 255
203 226 255
203 226 255
203 226 255
203 226 255
203 226 255
203 226 255
203 226 255
203 226 255
203 226 255
203 226 255
203 226 255
203 225 255
203 225 255
203 225 255
203 225 255
203 225 255
203 225 255
203 225 255
203 225 255
197 208 236
185 173 196
175 115 130
162 39 44
164 0 0
157 0 0
159 0 0
162 0 0
157 0 0
159 0 0
160 0 0
159 0 0
162 0 0
154 0 0
151 0 0
155 0 0
157 0 0
159 0 0
157 0 0
162 0 0
153 0 0
157 0 0
154 0 0
154 0 0
157 0 0
156 0 0
159 0 0
158 0 0
158 0 0
159 0 0
160 0 0
154 0 0
158 0 0
159 0 0
159 0 0
157 0 0
160 0 0
157 0 0
160 0 0
170 100 114
184 164 186
198 210 238
203 225 255
203 225 255
203 225 255
203 225 255
203 225 255
203 225 255
203 225 255
203 225 255
203 226 255
203 226 255
203 226 255
203 226 255
203 226 255
203 226 255
203 226 255
203 226 255
203 226 255
203 226 255
203 226 255
203 226 255
204 226 255
204 226 255
204 226 255
204 226 255
204 226 255
204 226 255
204 226 255
204 226 255
204 226 255
204 226 255
204 226 255
204 226 255
204 226 255
204 226 255
204 226 255
204 226 255
204 226 255
204 226 255
204 226 255
204 226 255
204 226 255
205 226 255
205 226 255
205 226 255
205 226 255
205 226 255
205 226 255
205 226 255
205 227 255
205 227 255
205 227 255
205 227 255
205 227 255
205 227 255
205 227 255
205 227 255
205 227 255
205 227 255
205 227 255
206 227 255
206 227 255
206 227 255
206 227 255
206 227 255
206 227 255
206 227 255
206 227 255
206 227 255
206 227 255
206 227 255
206 227 255
206 227 255
206 227 255
206 227 255
206 227 255
206 227 255
207 227 255
207 227 255
207 227 255
207 227 255
207 227 255
207 228 255
207 228 255
207 228 255
207 228 255
207 228 255
207 228 255
207 228 255
207 228 255
207 228 255
207 228 255
207 228 255
207 228 255
207 228 255
208 228 255
208 228 255
208 228 255
208 228 255
208 228 255
208 228 255
208 228 255
208 228 255
208 228 255
208 228 255
208 228 255
208 228 255
208 228 255
208 228 255
208 228 255
208 228 255
208 228 255
208 228 255
208 228 255
209 228 255
209 229 255
209 229 255
209 229 255
209 229 255
209 229 255
209 229 255
209 229 255
209 229 255
209 229 255
209 229 255
209 229 255
209 229 255
209 229 255
209 229 255
209 229 255
209 229 255
209 229 255
209 229 255
209 229 255
209 229 255
210 229 255
210 229 255
210 229 255
210 229 255
210 229 255
210 229 255
210 229 255
210 229 255
210 229 255
210 229 255
210 229 255
210 229 255
210 229 255
210 229 255
210 229 255
210 229 255
210 229 255
210 229 255
210 229 255
210 229 255
210 230 255
210 230 255
210 230 255
211 230 255
211 230 255
211 230 255
211 230 255
211 230 255
211 230 255
211 230 255
211 230 255
211 230 255
211 230 255
211 230 255
211 230 255
211 230 255
211 230 255
211 230 255
211 230 255
211 230 255
211 230 255
211 230 255
211 230 255
211 230 255
211 230 255
211 230 255
211 230 255
211 230 255
211 230 255
211 230 255
211 230 255
211 230 255
211 230 255
211 230 255
211 230 255
211 230 255
211 230 255
211 230 255
211 230 255
211 230 255
211 230 255
211 230 255
211 230 255
211 230 255
211 230 255
211 230 255
211 230 255
211 230 255
211 230 255
211 230 255
211 230 255
210 230 255
210 230 255
210 230 255
210 229 255
210 229 255
210 229 255
210 229 255
210 229 255
210 229 255
210 229 255
210 229 255
210 229 255
210 229 255
210 229 255
210 229 255
210 229 255
210 229 255
210 229 255
210 229 255
210 229 255
210 229 255
210 229 255
210 229 255
209 229 255
209 229 255
209 229 255
209 229 255
209 229 255
209 229 255
209 229 255
209 229 255
209 229 255
209 229 255
209 229 255
209 229 255
209 229 255
209 229 255
209 229 255
209 229 255
209 229 255
209 229 255
209 229 255
209 228 255
209 228 255
208 228 255
208 228 255
208 228 255
208 228 255
208 228 255
208 228 255
208 228 255
208 228 255
208 228 255
208 228 255
208 228 255
208 228 255
208 228 255
208 228 255
208 228 255
208 228 255
208 228 255
208 228 255
207 228 255
207 228 255
207 228 255
207 228 255
207 228 255
207 228 255
207 228 255
207 228 255
207 228 255
207 228 255
207 228 255
207 228 255
207 228 255
207 228 255
207 227 255
207 227 255
207 227 255
207 227 255
206 227 255
206 227 255
206 227 255
206 227 255
206 227 255
206 227 255
206 227 255
206 227 255
206 227 255
206 227 255
206 227 255
206 227 255
206 227 255
206 227 255
206 227 255
206 227 255
206 227 255
206 227 255
205 227 255
205 227 255
205 227 255
205 227 255
205 227 255
205 227 255
205 227 255
205 227 255
205 227 255
205 227 255
205 227 255
205 226 255
205 226 255
205 226 255
205 226 255
205 226 255
205 226 255
205 226 255
205 226 255
204 226 255
204 226 255
204 226 255
204 226 255
204 226 255
204 226 255
204 226 255
204 226 255
204 226 255
204 226 255
204 226 255
204 226 255
204 226 255
204 226 255
204 226 255
204 226 255
204 226 255
204 226 255
204 226 255
204 226 255
204 226 255
204 226 255
203 226 255
203 226 255
203 226 255
203 226 255
203 226 255
203 226 255
203 226 255
203 226 255
203 226 255
203 226 255
203 226 255
199 216 245
183 167 189
170 105 120
156 22 25
163 0 0
161 0 0
158 0 0
159 0 0
164 0 0
158 0 0
158 0 0
158 0 0
153 0 0
160 0 0
154 0 0
154 0 0
158 0 0
155 0 0
158 0 0
159 0 0
156 0 0
160 0 0
157 0 0
164 0 0
157 0 0
158 0 0
160 0 0
156 0 0
154 0 0
160 0 0
154 0 0
156 0 0
164 0 0
156 0 0
163 0 0
161 0 0
155 0 0
156 0 0
160 0 0
161 0 0
157 0 0
157 0 0
153 0 0
158 0 0
161 0 0
171 93 105
185 169 191
198 215 244
203 226 255
203 226 255
203 226 255
203 226 255
203 226 255
203 226 255
203 226 255
203 226 255
203 226 255
203 226 255
203 226 255
204 226 255
204 226 255
204 226 255
204 226 255
204 226 255
204 226 255
204 226 255
204 226 255
204 226 255
204 226 255
204 226 255
204 226 255
204 226 255
204 226 255
204 226 255
204 226 255
204 226 255
204 226 255
204 226 255
204 226 255
204 226 255
204 226 255
205 226 255
205 226 255
205 226 255
205 226 255
205 226 255
205 226 255
205 226 255
205 226 255
205 227 255
205 227 255
205 227 255
205 227 255
205 227 255
205 227 255
205 227 255
205 227 255
205 227 255
205 227 255
205 227 255
206 227 255
206 227 255
206 227 255
206 227 255
206 227 255
206 227 255
206 227 255
206 227 255
206 227 255
206 227 255
206 227 255
206 227 255
206 227 255
206 227 255
206 227 255
206 227 255
206 227 255
207 227 255
207 227 255
207 227 255
207 227 255
207 227 255
207 228 255
207 228 255
207 228 255
207 228 255
207 228 255
207 228 255
207 228 255
207 228 255
207 228 255
207 228 255
207 228 255
207 228 255
207 228 255
208 228 255
208 228 255
208 228 255
208 228 255
208 228 255
208 228 255
208 228 255
208 228 255
208 228 255
208 228 255
208 228 255
208 228 255
208 228 255
208 228 255
208 228 255
208 228 255
208 228 255
208 228 255
208 228 255
209 228 255
209 228 255
209 229 255
209 229 255
209 229 255
209 229 255
209 229 255
209 229 255
209 229 255
209 229 255
209 229 255
209 229 255
209 229 255
209 229 255
209 229 255
209 229 255
209 229 255
209 229 255
209 229 255
209 229 255
209 229 255
210 229 255
210 229 255
210 229 255
210 229 255
210 229 255
210 229 255
210 229 255
210 229 255
210 229 255
210 229 255
210 229 255
210 229 255
210 229 255
210 229 255
210 229 255
210 229 255
210 229 255
210 229 255
210 229 255
210 229 255
210 230 255
210 230 255
210 230 255
211 230 255
211 230 255
211 230 255
211 230 255
211 230 255
211 230 255
211 230 255
211 230 255
211 230 255
211 230 255
211 230 255
211 230 255
211 230 255
211 230 255
211 230 255
211 230 255
211 230 255
211 230 255
211 230 255
211 230 255
211 230 255
211 230 255
211 230 255
211 230 255
211 230 255
211 230 255
212 230 255
212 230 255
212 230 255
212 230 255
211 230 255
211 230 255
211 230 255
211 230 255
211 230 255
211 230 255
211 230 255
211 230 255
211 230 255
211 230 255
211 230 255
211 230 255
211 230 255
211 230 255
211 230 255
211 230 255
211 230 255
211 230 255
211 230 255
211 230 255
211 230 255
211 230 255
211 230 255
211 230 255
211 230 255
211 230 255
210 230 255
210 230 255
210 230 255
210 229 255
210 229 255
210 229 255
210 229 255
210 229 255
210 229 255
210 229 255
210 229 255
210 229 255
210 229 255
210 229 255
210 229 255
210 229 255
210 229 255
210 229 255
210 229 255
210 229 255
210 229 255
210 229 255
210 229 255
209 229 255
209 229 255
209 229 255
209 229 255
209 229 255
209 229 255
209 229 255
209 229 255
209 229 255
209 229 255
209 229 255
209 229 255
209 229 255
209 229 255
209 229 255
209 229 255
209 229 255
209 229 255
209 229 255
209 228 255
208 228 255
208 228 255
208 228 255
208 228 255
208 228 255
208 228 255
208 228 255
208 228 255
208 228 255
208 228 255
208 228 255
208 228 255
208 228 255
208 228 255
208 228 255
208 228 255
208 228 255
208 228 255
208 228 255
207 228 255
207 228 255
207 228 255
207 228 255
207 228 255
207 228 255
207 228 255
207 228 255
207 228 255
207 228 255
207 228 255
207 228 255
207 228 255
207 228 255
207 227 255
207 227 255
207 227 255
207 227 255
206 227 255
206 227 255
206 227 255
206 227 255
206 227 255
206 227 255
206 227 255
206 227 255
206 227 255
206 227 255
206 227 255
206 227 255
206 227 255
206 227 255
206 227 255
206 227 255
206 227 255
206 227 255
205 227 255
205 227 255
205 227 255
205 227 255
205 227 255
205 227 255
205 227 255
205 227 255
205 227 255
205 227 255
205 227 255
205 226 255
205 226 255
205 226 255
205 226 255
205 226 255
205 226 255
205 226 255
205 226 255
205 226 255
204 226 255
204 226 255
204 226 255
204 226 255
204 226 255
204 226 255
204 226 255
204 226 255
204 226 255
204 226 255
204 226 255
204 226 255
204 226 255
204 226 255
204 226 255
204 226 255
204 226 255
204 226 255
204 226 255
204 226 255
204 226 255
204 226 255
204 226 255
204 226 255
203 226 255
203 226 255
194 201 227
173 115 130
159 39 44
155 0 0
162 0 0
152 0 0
158 0 0
153 0 0
159 0 0
157 0 0
159 0 0
152 0 0
159 0 0
158 0 0
156 0 0
156 0 0
155 0 0
154 0 0
159 0 0
156 0 0
152 0 0
156 0 0
161 0 0
150 0 0
154 0 0
151 0 0
155 0 0
161 0 0
161 0 0
154 0 0
154 0 0
154 0 0
158 0 0
157 0 0
155 0 0
152 0 0
155 0 0
158 0 0
155 0 0
161 0 0
162 0 0
157 0 0
154 0 0
157 0 0
160 0 0
161 0 0
157 0 0
161 0 0
161 0 0
165 39 44
177 141 159
194 190 215
203 225 254
203 226 255
204 226 255
204 226 255
204 226 255
204 226 255
204 226 255
204 226 255
204 226 255
204 226 255
204 226 255
204 226 255
204 226 255
204 226 255
204 226 255
204 226 255
204 226 255
204 226 255
204 226 255
204 226 255
204 226 255
204 226 255
204 226 255
204 226 255
204 226 255
204 226 255
204 226 255
205 226 255
205 226 255
205 226 255
205 226 255
205 226 255
205 226 255
205 226 255
205 226 255
205 227 255
205 227 255
205 227 255
205 227 255
205 227 255
205 227 255
205 227 255
205 227 255
205 227 255
205 227 255
205 227 255
206 227 255
206 227 255
206 227 255
206 227 255
206 227 255
206 227 255
206 227 255
206 227 255
206 227 255
206 227 255
206 227 255
206 227 255
206 227 255
206 227 255
206 227 255
206 227 255
206 227 255
206 227 255
207 227 255
207 227 255
207 227 255
207 227 255
207 228 255
207 228 255
207 228 255
207 228 255
207 228 255
207 228 255
207 228 255
207 228 255
207 228 255
207 228 255
207 228 255
207 228 255
207 228 255
207 228 255
208 228 255
208 228 255
208 228 255
208 228 255
208 228 255
208 228 255
208 228 255
208 228 255
208 228 255
208 228 255
208 228 255
208 228 255
208 228 255
208 228 255
208 228 255
208 228 255
208 228 255
208 228 255
208 228 255
209 228 255
209 229 255
209 229 255
209 229 255
209 229 255
209 229 255
209 229 255
209 229 255
209 229 255
209 229 255
209 229 255
209 229 255
209 229 255
209 229 255
209 229 255
209 229 255
209 229 255
209 229 255
209 229 255
209 229 255
210 229 255
210 229 255
210 229 255
210 229 255
210 229 255
210 229 255
210 229 255
210 229 255
210 229 255
210 229 255
210 229 255
210 229 255
210 229 255
210 229 255
210 229 255
210 229 255
210 229 255
210 229 255
210 229 255
210 229 255
210 230 255
210 230 255
210 230 255
211 230 255
211 230 255
211 230 255
211 230 255
211 230 255
211 230 255
211 230 255
211 230 255
211 230 255
211 230 255
211 230 255
211 230 255
211 230 255
211 230 255
211 230 255
211 230 255
211 230 255
211 230 255
211 230 255
211 230 255
211 230 255
211 230 255
211 230 255
211 230 255
211 230 255
211 230 255
212 230 255
212 230 255
212 230 255
212 230 255
212 230 255
212 230 255
212 230 255
212 230 255
212 230 255
212 230 255
212 230 255
212 230 255
212 230 255
211 230 255
211 230 255
211 230 255
211 230 255
211 230 255
211 230 255
211 230 255
211 230 255
211 230 255
211 230 255
211 230 255
211 230 255
211 230 255
211 230 255
211 230 255
211 230 255
211 230 255
211 230 255
211 230 255
211 230 255
211 230 255
211 230 255
211 230 255
211 230 255
211 230 255
210 230 255
210 230 255
210 230 255
210 229 255
210 229 255
210 229 255
210 229 255
210 229 255
210 229 255
210 229 255
210 229 255
210 229 255
210 229 255
210 229 255
210 229 255
210 229 255
210 229 255
210 229 255
210 229 255
210 229 255
210 229 255
210 229 255
210 229 255
209 229 255
209 229 255
209 229 255
209 229 255
209 229 255
209 229 255
209 229 255
209 229 255
209 229 255
209 229 255
209 229 255
209 229 255
209 229 255
209 229 255
209 229 255
209 229 255
209 229 255
209 229 255
209 228 255
209 228 255
208 228 255
208 228 255
208 228 255
208 228 255
208 228 255
208 228 255
208 228 255
208 228 255
208 228 255
208 228 255
208 228 255
208 228 255
208 228 255
208 228 255
208 228 255
208 228 255
208 228 255
208 228 255
208 228 255
207 228 255
207 228 255
207 228 255
207 228 255
207 228 255
207 228 255
207 228 255
207 228 255
207 228 255
207 228 255
207 228 255
207 228 255
207 228 255
207 228 255
207 227 255
207 227 255
207 227 255
207 227 255
206 227 255
206 227 255
206 227 255
206 227 255
206 227 255
206 227 255
206 227 255
206 227 255
206 227 255
206 227 255
206 227 255
206 227 255
206 227 255
206 227 255
206 227 255
206 227 255
206 227 255
206 227 255
205 227 255
205 227 255
205 227 255
205 227 255
205 227 255
205 227 255
205 227 255
205 227 255
205 227 255
205 227 255
205 227 255
205 227 255
205 226 255
205 226 255
205 226 255
205 226 255
205 226 255
205 226 255
205 226 255
205 226 255
205 226 255
204 226 255
204 226 255
204 226 255
204 226 255
204 226 255
204 226 255
204 226 255
204 226 255
204 226 255
204 226 255
204 226 255
204 226 255
204 226 255
204 226 255
204 226 255
204 226 255
204 226 255
204 226 255
203 225 254
189 182 206
166 96 108
161 0 0
157 0 0
155 0 0
158 0 0
159 0 0
153 0 0
163 0 0
154 0 0
159 0 0
157 0 0
159 0 0
156 0 0
159 0 0
158 0 0
154 0 0
161 0 0
150 0 0
157 0 0
158 0 0
152 0 0
160 0 0
159 0 0
155 0 0
160 0 0
159 0 0
151 0 0
158 0 0
156 0 0
160 0 0
158 0 0
150 0 0
151 0 0
156 0 0
156 0 0
157 0 0
159 0 0
154 0 0
155 0 0
161 0 0
157 0 0
152 0 0
157 0 0
161 0 0
156 0 0
157 0 0
161 0 0
155 0 0
159 0 0
160 0 0
160 0 0
156 0 0
159 0 0
170 117 133
194 193 218
203 225 254
204 226 255
204 226 255
204 226 255
204 226 255
204 226 255
204 226 255
204 226 255
204 226 255
204 226 255
204 226 255
204 226 255
204 226 255
204 226 255
204 226 255
204 226 255
204 226 255
204 226 255
204 226 255
204 226 255
205 226 255
205 226 255
205 226 255
205 226 255
205 226 255
205 226 255
205 226 255
205 226 255
205 227 255
205 227 255
205 227 255
205 227 255
205 227 255
205 227 255
205 227 255
205 227 255
205 227 255
205 227 255
205 227 255
205 227 255
206 227 255
206 227 255
206 227 255
206 227 255
206 227 255
206 227 255
206 227 255
206 227 255
206 227 255
206 227 255
206 227 255
206 227 255
206 227 255
206 227 255
206 227 255
206 227 255
206 227 255
206 227 255
207 227 255
207 227 255
207 227 255
207 227 255
207 228 255
207 228 255
207 228 255
207 228 255
207 228 255
207 228 255
207 228 255
207 228 255
207 228 255
207 228 255
207 228 255
207 228 255
207 228 255
207 228 255
208 228 255
208 228 255
208 228 255
208 228 255
208 228 255
208 228 255
208 228 255
208 228 255
208 228 255
208 228 255
208 228 255
208 228 255
208 228 255
208 228 255
208 228 255
208 228 255
208 228 255
208 228 255
208 228 255
209 228 255
209 229 255
209 229 255
209 229 255
209 229 255
209 229 255
209 229 255
209 229 255
209 229 255
209 229 255
209 229 255
209 229 255
209 229 255
209 229 255
209 229 255
209 229 255
209 229 255
209 229 255
209 229 255
209 229 255
210 229 255
210 229 255
210 229 255
210 229 255
210 229 255
210 229 255
210 229 255
210 229 255
210 229 255
210 229 255
210 229 255
210 229 255
210 229 255
210 229 255
210 229 255
210 229 255
210 229 255
210 229 255
210 229 255
210 229 255
210 230 255
210 230 255
211 230 255
211 230 255
211 230 255
211 230 255
211 230 255
211 230 255
211 230 255
211 230 255
211 230 255
211 230 255
211 230 255
211 230 255
211 230 255
211 230 255
211 230 255
211 230 255
211 230 255
211 230 255
211 230 255
211 230 255
211 230 255
211 230 255
211 230 255
211 230 255
211 230 255
211 230 255
212 230 255
212 230 255
212 230 255
212 230 255
212 230 255
212 230 255
212 230 255
212 230 255
212 230 255
212 230 255
212 230 255
212 230 255
212 230 255
212 230 255
212 230 255
212 230 255
212 230 255
212 230 255
212 230 255
212 230 255
212 230 255
212 230 255
211 230 255
211 230 255
211 230 255
211 230 255
211 230 255
211 230 255
211 230 255
211 230 255
211 230 255
211 230 255
211 230 255
211 230 255
211 230 255
211 230 255
211 230 255
211 230 255
211 230 255
211 230 255
211 230 255
211 230 255
211 230 255
211 230 255
211 230 255
211 230 255
211 230 255
210 230 255
210 230 255
210 230 255
210 229 255
210 229 255
210 229 255
210 229 255
210 229 255
210 229 255
210 229 255
210 229 255
210 229 255
210 229 255
210 229 255
210 229 255
210 229 255
210 229 255
210 229 255
210 229 255
210 229 255
210 229 255
210 229 255
210 229 255
209 229 255
209 229 255
209 229 255
209 229 255
209 229 255
209 229 255
209 229 255
209 229 255
209 229 255
209 229 255
209 229 255
209 229 255
209 229 255
209 229 255
209 229 255
209 229 255
209 229 255
209 229 255
209 229 255
209 228 255
208 228 255
208 228 255
208 228 255
208 228 255
208 228 255
208 228 255
208 228 255
208 228 255
208 228 255
208 228 255
208 228 255
208 228 255
208 228 255
208 228 255
208 228 255
208 228 255
208 228 255
208 228 255
208 228 255
207 228 255
207 228 255
207 228 255
207 228 255
207 228 255
207 228 255
207 228 255
207 228 255
207 228 255
207 228 255
207 228 255
207 228 255
207 228 255
207 228 255
207 227 255
207 227 255
207 227 255
207 227 255
206 227 255
206 227 255
206 227 255
206 227 255
206 227 255
206 227 255
206 227 255
206 227 255
206 227 255
206 227 255
206 227 255
206 227 255
206 227 255
206 227 255
206 227 255
206 227 255
206 227 255
206 227 255
206 227 255
205 227 255
205 227 255
205 227 255
205 227 255
205 227 255
205 227 255
205 227 255
205 227 255
205 227 255
205 227 255
205 227 255
205 227 255
205 226 255
205 226 255
205 226 255
205 226 255
205 226 255
205 226 255
205 226 255
205 226 255
205 226 255
204 226 255
204 226 255
204 226 255
204 226 255
204 226 255
204 226 255
204 226 255
204 226 255
204 226 255
204 226 255
204 226 255
204 226 255
188 176 199
167 96 108
161 0 0
151 0 0
159 0 0
159 0 0
153 0 0
152 0 0
160 0 0
160 0 0
154 0 0
164 0 0
159 0 0
162 0 0
158 0 0
162 0 0
152 0 0
154 0 0
154 0 0
152 0 0
158 0 0
154 0 0
154 0 0
160 0 0
154 0 0
152 0 0
154 0 0
158 0 0
156 0 0
160 0 0
153 0 0
159 0 0
160 0 0
156 0 0
155 0 0
152 0 0
161 0 0
153 0 0
157 0 0
154 0 0
158 0 0
156 0 0
152 0 0
154 0 0
154 0 0
148 0 0
157 0 0
155 0 0
153 0 0
160 0 0
157 0 0
158 0 0
153 0 0
161 0 0
153 0 0
157 0 0
154 0 0
158 0 0
163 71 80
190 175 198
204 225 254
204 226 255
204 226 255
204 226 255
204 226 255
204 226 255
204 226 255
204 226 255
204 226 255
204 226 255
204 226 255
204 226 255
205 226 255
205 226 255
205 226 255
205 226 255
205 226 255
205 226 255
205 226 255
205 226 255
205 226 255
205 227 255
205 227 255
205 227 255
205 227 255
205 227 255
205 227 255
205 227 255
205 227 255
205 227 255
205 227 255
205 227 255
205 227 255
206 227 255
206 227 255
206 227 255
206 227 255
206 227 255
206 227 255
206 227 255
206 227 255
206 227 255
206 227 255
206 227 255
206 227 255
206 227 255
206 227 255
206 227 255
206 227 255
206 227 255
206 227 255
206 227 255
207 227 255
207 227 255
207 227 255
207 227 255
207 228 255
207 228 255
207 228 255
207 228 255
207 228 255
207 228 255
207 228 255
207 228 255
207 228 255
207 228 255
207 228 255
207 228 255
207 228 255
207 228 255
208 228 255
208 228 255
208 228 255
208 228 255
208 228 255
208 228 255
208 228 255
208 228 255
208 228 255
208 228 255
208 228 255
208 228 255
208 228 255
208 228 255
208 228 255
208 228 255
208 228 255
208 228 255
208 228 255
209 228 255
209 228 255
209 229 255
209 229 255
209 229 255
209 229 255
209 229 255
209 229 255
209 229 255
209 229 255
209 229 255
209 229 255
209 229 255
209 229 255
209 229 255
209 229 255
209 229 255
209 229 255
209 229 255
209 229 255
210 229 255
210 229 255
210 229 255
210 229 255
210 229 255
210 229 255
210 229 255
210 229 255
210 229 255
210 229 255
210 229 255
210 229 255
210 229 255
210 229 255
210 229 255
210 229 255
210 229 255
210 229 255
210 229 255
210 229 255
210 230 255
210 230 255
211 230 255
211 230 255
211 230 255
211 230 255
211 230 255
211 230 255
211 230 255
211 230 255
211 230 255
211 230 255
211 230 255
211 230 255
211 230 255
211 230 255
211 230 255
211 230 255
211 230 255
211 230 255
211 230 255
211 230 255
211 230 255
211 230 255
211 230 255
211 230 255
211 230 255
211 230 255
212 230 255
212 230 255
212 230 255
212 230 255
212 230 255
212 230 255
212 230 255
212 230 255
212 230 255
212 230 255
212 230 255
212 230 255
212 230 255
212 230 255
212 230 255
212 230 255
212 230 255
212 230 255
212 230 255
212 230 255
212 230 255
212 230 255
212 230 255
212 230 255
212 230 255
212 230 255
212 230 255
212 230 255
212 230 255
212 230 255
211 230 255
211 230 255
211 230 255
211 230 255
211 230 255
211 230 255
211 230 255
211 230 255
211 230 255
211 230 255
211 230 255
211 230 255
211 230 255
211 230 255
211 230 255
211 230 255
211 230 255
211 230 255
211 230 255
211 230 255
211 230 255
211 230 255
211 230 255
211 230 255
211 230 255
211 230 255
210 230 255
210 230 255
210 229 255
210 229 255
210 229 255
210 229 255
210 229 255
210 229 255
210 229 255
210 229 255
210 229 255
210 229 255
210 229 255
210 229 255
210 229 255
210 229 255
210 229 255
210 229 255
210 229 255
210 229 255
210 229 255
210 229 255
209 229 255
209 229 255
209 229 255
209 229 255
209 229 255
209 229 255
209 229 255
209 229 255
209 229 255
209 229 255
209 229 255
209 229 255
209 229 255
209 229 255
209 229 255
209 229 255
209 229 255
209 229 255
209 228 255
209 228 255
208 228 255
208 228 255
208 228 255
208 228 255
208 228 255
208 228 255
208 228 255
208 228 255
208 228 255
208 228 255
208 228 255
208 228 255
208 228 255
208 228 255
208 228 255
208 228 255
208 228 255
208 228 255
208 228 255
207 228 255
207 228 255
207 228 255
207 228 255
207 228 255
207 228 255
207 228 255
207 228 255
207 228 255
207 228 255
207 228 255
207 228 255
207 228 255
207 228 255
207 227 255
207 227 255
207 227 255
207 227 255
206 227 255
206 227 255
206 227 255
206 227 255
206 227 255
206 227 255
206 227 255
206 227 255
206 227 255
206 227 255
206 227 255
206 227 255
206 227 255
206 227 255
206 227 255
206 227 255
206 227 255
206 227 255
206 227 255
205 227 255
205 227 255
205 227 255
205 227 255
205 227 255
205 227 255
205 227 255
205 227 255
205 227 255
205 227 255
205 227 255
205 227 255
205 227 255
205 226 255
205 226 255
205 226 255
205 226 255
205 226 255
205 226 255
205 226 255
205 226 255
205 226 255
205 226 255
204 226 255
204 226 255
204 226 255
204 226 255
194 191 215
167 81 92
156 0 0
160 0 0
156 0 0
155 0 0
159 0 0
159 0 0
156 0 0
153 0 0
152 0 0
153 0 0
159 0 0
150 0 0
161 0 0
158 0 0
154 0 0
159 0 0
155 0 0
157 0 0
151 0 0
160 0 0
155 0 0
156 0 0
157 0 0
156 0 0
157 0 0
154 0 0
155 0 0
157 0 0
152 0 0
152 0 0
153 0 0
152 0 0
155 0 0
154 0 0
155 0 0
153 0 0
159 0 0
153 0 0
155 0 0
156 0 0
153 0 0
157 0 0
156 0 0
152 0 0
157 0 0
155 0 0
156 0 0
155 0 0
157 0 0
156 0 0
152 0 0
152 0 0
155 0 0
161 0 0
160 0 0
157 0 0
153 0 0
158 0 0
155 0 0
160 0 0
171 103 117
190 182 206
204 226 255
204 226 255
204 226 255
204 226 255
205 226 255
205 226 255
205 226 255
205 226 255
205 226 255
205 226 255
205 226 255
205 226 255
205 226 255
205 226 255
205 227 255
205 227 255
205 227 255
205 227 255
205 227 255
205 227 255
205 227 255
205 227 255
205 227 255
205 227 255
205 227 255
205 227 255
205 227 255
206 227 255
206 227 255
206 227 255
206 227 255
206 227 255
206 227 255
206 227 255
206 227 255
206 227 255
206 227 255
206 227 255
206 227 255
206 227 255
206 227 255
206 227 255
206 227 255
206 227 255
206 227 255
206 227 255
207 227 255
207 227 255
207 227 255
207 227 255
207 228 255
207 228 255
207 228 255
207 228 255
207 228 255
207 228 255
207 228 255
207 228 255
207 228 255
207 228 255
207 228 255
207 228 255
207 228 255
207 228 255
208 228 255
208 228 255
208 228 255
208 228 255
208 228 255
208 228 255
208 228 255
208 228 255
208 228 255
208 228 255
208 228 255
208 228 255
208 228 255
208 228 255
208 228 255
208 228 255
208 228 255
208 228 255
208 228 255
209 228 255
209 229 255
209 229 255
209 229 255
209 229 255
209 229 255
209 229 255
209 229 255
209 229 255
209 229 255
209 229 255
209 229 255
209 229 255
209 229 255
209 229 255
209 229 255
209 229 255
209 229 255
209 229 255
209 229 255
210 229 255
210 229 255
210 229 255
210 229 255
210 229 255
210 229 255
210 229 255
210 229 255
210 229 255
210 229 255
210 229 255
210 229 255
210 229 255
210 229 255
210 229 255
210 229 255
210 229 255
210 229 255
210 229 255
210 229 255
210 230 255
210 230 255
211 230 255
211 230 255
211 230 255
211 230 255
211 230 255
211 230 255
211 230 255
211 230 255
211 230 255
211 230 255
211 230 255
211 230 255
211 230 255
211 230 255
211 230 255
211 230 255
211 230 255
211 230 255
211 230 255
211 230 255
211 230 255
211 230 255
211 230 255
211 230 255
211 230 255
212 230 255
212 230 255
212 230 255
212 230 255
212 230 255
212 230 255
212 230 255
212 230 255
212 230 255
212 230 255
212 230 255
212 230 255
212 230 255
212 230 255
212 230 255
212 230 255
212 230 255
212 230 255
212 231 255
212 231 255
212 230 255
212 230 255
212 230 255
212 230 255
212 230 255
212 230 255
212 230 255
212 230 255
212 230 255
212 230 255
212 230 255
212 230 255
212 230 255
212 230 255
212 230 255
212 230 255
212 230 255
212 230 255
212 230 255
212 230 255
211 230 255
211 230 255
211 230 255
211 230 255
211 230 255
211 230 255
211 230 255
211 230 255
211 230 255
211 230 255
211 230 255
211 230 255
211 230 255
211 230 255
211 230 255
211 230 255
211 230 255
211 230 255
211 230 255
211 230 255
211 230 255
211 230 255
211 230 255
211 230 255
211 230 255
210 230 255
210 230 255
210 229 255
210 229 255
210 229 255
210 229 255
210 229 255
210 229 255
210 229 255
210 229 255
210 229 255
210 229 255
210 229 255
210 229 255
210 229 255
210 229 255
210 229 255
210 229 255
210 229 255
210 229 255
210 229 255
210 229 255
209 229 255
209 229 255
209 229 255
209 229 255
209 229 255
209 229 255
209 229 255
209 229 255
209 229 255
209 229 255
209 229 255
209 229 255
209 229 255
209 229 255
209 229 255
209 229 255
209 229 255
209 229 255
209 229 255
209 228 255
208 228 255
208 228 255
208 228 255
208 228 255
208 228 255
208 228 255
208 228 255
208 228 255
208 228 255
208 228 255
208 228 255
208 228 255
208 228 255
208 228 255
208 228 255
208 228 255
208 228 255
208 228 255
208 228 255
207 228 255
207 228 255
207 228 255
207 228 255
207 228 255
207 228 255
207 228 255
207 228 255
207 228 255
207 228 255
207 228 255
207 228 255
207 228 255
207 228 255
207 227 255
207 227 255
207 227 255
207 227 255
206 227 255
206 227 255
206 227 255
206 227 255
206 227 255
206 227 255
206 227 255
206 227 255
206 227 255
206 227 255
206 227 255
206 227 255
206 227 255
206 227 255
206 227 255
206 227 255
206 227 255
206 227 255
206 227 255
206 227 255
205 227 255
205 227 255
205 227 255
205 227 255
205 227 255
205 227 255
205 227 255
205 227 255
205 227 255
205 227 255
205 227 255
205 227 255
205 227 255
205 227 255
205 226 255
205 226 255
205 226 255
205 226 255
205 226 255
205 226 255
195 202 228
169 101 114
149 0 0
159 0 0
150 0 0
154 0 0
153 0 0
156 0 0
158 0 0
155 0 0
158 0 0
155 0 0
153 0 0
150 0 0
153 0 0
149 0 0
149 0 0
153 0 0
153 0 0
161 0 0
150 0 0
160 0 0
160 0 0
155 0 0
150 0 0
160 0 0
155 0 0
156 0 0
154 0 0
155 0 0
154 0 0
151 0 0
151 0 0
151 0 0
154 0 0
152 0 0
153 0 0
154 0 0
153 0 0
153 0 0
155 0 0
152 0 0
157 0 0
155 0 0
157 0 0
154 0 0
159 0 0
152 0 0
158 0 0
155 0 0
152 0 0
156 0 0
154 0 0
154 0 0
157 0 0
158 0 0
155 0 0
154 0 0
155 0 0
158 0 0
158 0 0
154 0 0
158 0 0
156 0 0
159 0 0
152 0 0
173 126 142
197 207 234
205 226 255
205 226 255
205 226 255
205 226 255
205 226 255
205 226 255
205 227 255
205 227 255
205 227 255
205 227 255
205 227 255
205 227 255
205 227 255
205 227 255
205 227 255
205 227 255
205 227 255
205 227 255
205 227 255
206 227 255
206 227 255
206 227 255
206 227 255
206 227 255
206 227 255
206 227 255
206 227 255
206 227 255
206 227 255
206 227 255
206 227 255
206 227 255
206 227 255
206 227 255
206 227 255
206 227 255
206 227 255
206 227 255
206 227 255
207 227 255
207 227 255
207 227 255
207 227 255
207 227 255
207 228 255
207 228 255
207 228 255
207 228 255
207 228 255
207 228 255
207 228 255
207 228 255
207 228 255
207 228 255
207 228 255
207 228 255
207 228 255
207 228 255
208 228 255
208 228 255
208 228 255
208 228 255
208 228 255
208 228 255
208 228 255
208 228 255
208 228 255
208 228 255
208 228 255
208 228 255
208 228 255
208 228 255
208 228 255
208 228 255
208 228 255
208 228 255
208 228 255
209 228 255
209 228 255
209 229 255
209 229 255
209 229 255
209 229 255
209 229 255
209 229 255
209 229 255
209 229 255
209 229 255
209 229 255
209 229 255
209 229 255
209 229 255
209 229 255
209 229 255
209 229 255
209 229 255
209 229 255
210 229 255
210 229 255
210 229 255
210 229 255
210 229 255
210 229 255
210 229 255
210 229 255
210 229 255
210 229 255
210 229 255
210 229 255
210 229 255
210 229 255
210 229 255
210 229 255
210 229 255
210 229 255
210 229 255
210 229 255
210 230 255
210 230 255
211 230 255
211 230 255
211 230 255
211 230 255
211 230 255
211 230 255
211 230 255
211 230 255
211 230 255
211 230 255
211 230 255
211 230 255
211 230 255
211 230 255
211 230 255
211 230 255
211 230 255
211 230 255
211 230 255
211 230 255
211 230 255
211 230 255
211 230 255
211 230 255
211 230 255
212 230 255
212 230 255
212 230 255
212 230 255
212 230 255
212 230 255
212 230 255
212 230 255
212 230 255
212 230 255
212 230 255
212 230 255
212 230 255
212 230 255
212 230 255
212 230 255
212 230 255
212 230 255
212 230 255
212 230 255
212 231 255
212 231 255
212 231 255
212 231 255
212 231 255
212 231 255
212 231 255
212 231 255
212 231 255
212 230 255
212 230 255
212 230 255
212 230 255
212 230 255
212 230 255
212 230 255
212 230 255
212 230 255
212 230 255
212 230 255
212 230 255
212 230 255
212 230 255
212 230 255
212 230 255
212 230 255
212 230 255
212 230 255
211 230 255
211 230 255
211 230 255
211 230 255
211 230 255
211 230 255
211 230 255
211 230 255
211 230 255
211 230 255
211 230 255
211 230 255
211 230 255
211 230 255
211 230 255
211 230 255
211 230 255
211 230 255
211 230 255
211 230 255
211 230 255
211 230 255
211 230 255
211 230 255
211 230 255
210 230 255
210 230 255
210 230 255
210 229 255
210 229 255
210 229 255
210 229 255
210 229 255
210 229 255
210 229 255
210 229 255
210 229 255
210 229 255
210 229 255
210 229 255
210 229 255
210 229 255
210 229 255
210 229 255
210 229 255
210 229 255
210 229 255
209 229 255
209 229 255
209 229 255
209 229 255
209 229 255
209 229 255
209 229 255
209 229 255
209 229 255
209 229 255
209 229 255
209 229 255
209 229 255
209 229 255
209 229 255
209 229 255
209 229 255
209 229 255
209 229 255
209 228 255
208 228 255
208 228 255
208 228 255
208 228 255
208 228 255
208 228 255
208 228 255
208 228 255
208 228 255
208 228 255
208 228 255
208 228 255
208 228 255
208 228 255
208 228 255
208 228 255
208 228 255
208 228 255
208 228 255
207 228 255
207 228 255
207 228 255
207 228 255
207 228 255
207 228 255
207 228 255
207 228 255
207 228 255
207 228 255
207 228 255
207 228 255
207 228 255
207 228 255
207 227 255
207 227 255
207 227 255
207 227 255
207 227 255
206 227 255
206 227 255
206 227 255
206 227 255
206 227 255
206 227 255
206 227 255
206 227 255
206 227 255
206 227 255
206 227 255
206 227 255
206 227 255
206 227 255
206 227 255
206 227 255
206 227 255
206 227 255
206 227 255
206 227 255
206 227 255
205 227 255
205 227 255
205 227 255
205 227 255
205 227 255
205 227 255
205 227 255
205 227 255
205 227 255
205 227 255
205 227 255
205 227 255
203 222 250
181 150 169
162 39 44
155 0 0
156 0 0
155 0 0
146 0 0
159 0 0
152 0 0
161 0 0
158 0 0
156 0 0
154 0 0
154 0 0
156 0 0
154 0 0
157 0 0
155 0 0
151 0 0
148 0 0
160 0 0
153 0 0
149 0 0
149 0 0
148 0 0
154 0 0
156 0 0
153 0 0
159 0 0
156 0 0
162 0 0
145 0 0
160 0 0
155 0 0
147 0 0
154 0 0
155 0 0
160 0 0
152 0 0
150 0 0
158 0 0
155 0 0
155 0 0
151 0 0
152 0 0
156 0 0
151 0 0
153 0 0
156 0 0
142 0 0
154 0 0
155 0 0
155 0 0
155 0 0
152 0 0
159 0 0
149 0 0
153 0 0
156 0 0
157 0 0
150 0 0
152 0 0
157 0 0
152 0 0
160 0 0
155 0 0
154 0 0
152 0 0
157 0 0
155 0 0
174 132 149
204 222 250
205 227 255
205 227 255
205 227 255
205 227 255
205 227 255
205 227 255
205 227 255
205 227 255
205 227 255
205 227 255
205 227 255
205 227 255
206 227 255
206 227 255
206 227 255
206 227 255
206 227 255
206 227 255
206 227 255
206 227 255
206 227 255
206 227 255
206 227 255
206 227 255
206 227 255
206 227 255
206 227 255
206 227 255
206 227 255
206 227 255
206 227 255
206 227 255
206 227 255
207 227 255
207 227 255
207 227 255
207 227 255
207 228 255
207 228 255
207 228 255
207 228 255
207 228 255
207 228 255
207 228 255
207 228 255
207 228 255
207 228 255
207 228 255
207 228 255
207 228 255
207 228 255
207 228 255
208 228 255
208 228 255
208 228 255
208 228 255
208 228 255
208 228 255
208 228 255
208 228 255
208 228 255
208 228 255
208 228 255
208 228 255
208 228 255
208 228 255
208 228 255
208 228 255
208 228 255
208 228 255
208 228 255
209 228 255
209 229 255
209 229 255
209 229 255
209 229 255
209 229 255
209 229 255
209 229 255
209 229 255
209 229 255
209 229 255
209 229 255
209 229 255
209 229 255
209 229 255
209 229 255
209 229 255
209 229 255
209 229 255
209 229 255
210 229 255
210 229 255
210 229 255
210 229 255
210 229 255
210 229 255
210 229 255
210 229 255
210 229 255
210 229 255
210 229 255
210 229 255
210 229 255
210 229 255
210 229 255
210 229 255
210 229 255
210 229 255
210 229 255
210 229 255
210 230 255
210 230 255
211 230 255
211 230 255
211 230 255
211 230 255
211 230 255
211 230 255
211 230 255
211 230 255
211 230 255
211 230 255
211 230 255
211 230 255
211 230 255
211 230 255
211 230 255
211 230 255
211 230 255
211 230 255
211 230 255
211 230 255
211 230 255
211 230 255
211 230 255
211 230 255
211 230 255
212 230 255
212 230 255
212 230 255
212 230 255
212 230 255
212 230 255
212 230 255
212 230 255
212 230 255
212 230 255
212 230 255
212 230 255
212 230 255
212 230 255
212 230 255
212 230 255
212 230 255
212 230 255
212 230 255
212 230 255
212 231 255
212 231 255
212 231 255
212 231 255
212 231 255
212 231 255
213 231 255
213 231 255
212 231 255
212 231 255
212 231 255
212 231 255
212 231 255
212 231 255
212 231 255
212 231 255
212 231 255
212 230 255
212 230 255
212 230 255
212 230 255
212 230 255
212 230 255
212 230 255
212 230 255
212 230 255
212 230 255
212 230 255
212 230 255
212 230 255
212 230 255
212 230 255
212 230 255
212 230 255
212 230 255
212 230 255
212 230 255
211 230 255
211 230 255
211 230 255
211 230 255
211 230 255
211 230 255
211 230 255
211 230 255
211 230 255
211 230 255
211 230 255
211 230 255
211 230 255
211 230 255
211 230 255
211 230 255
211 230 255
211 230 255
211 230 255
211 230 255
211 230 255
211 230 255
211 230 255
211 230 255
210 230 255
210 230 255
210 230 255
210 229 255
210 229 255
210 229 255
210 229 255
210 229 255
210 229 255
210 229 255
210 229 255
210 229 255
210 229 255
210 229 255
210 229 255
210 229 255
210 229 255
210 229 255
210 229 255
210 229 255
210 229 255
210 229 255
209 229 255
209 229 255
209 229 255
209 229 255
209 229 255
209 229 255
209 229 255
209 229 255
209 229 255
209 229 255
209 229 255
209 229 255
209 229 255
209 229 255
209 229 255
209 229 255
209 229 255
209 229 255
209 229 255
209 228 255
208 228 255
208 228 255
208 228 255
208 228 255
208 228 255
208 228 255
208 228 255
208 228 255
208 228 255
208 228 255
208 228 255
208 228 255
208 228 255
208 228 255
208 228 255
208 228 255
208 228 255
208 228 255
208 228 255
207 228 255
207 228 255
207 228 255
207 228 255
207 228 255
207 228 255
207 228 255
207 228 255
207 228 255
207 228 255
207 228 255
207 228 255
207 228 255
207 228 255
207 228 255
207 227 255
207 227 255
207 227 255
207 227 255
207 227 255
206 227 255
206 227 255
206 227 255
206 227 255
206 227 255
206 227 255
206 227 255
206 227 255
206 227 255
206 227 255
206 227 255
206 227 255
206 227 255
206 227 255
206 227 255
206 227 255
206 227 255
206 227 255
206 227 255
206 227 255
206 227 255
206 227 255
205 227 255
205 227 255
205 227 255
205 227 255
205 227 255
192 199 224
167 81 92
158 0 0
153 0 0
154 0 0
157 0 0
159 0 0
157 0 0
158 0 0
151 0 0
152 0 0
155 0 0
155 0 0
153 0 0
155 0 0
152 0 0
154 0 0
153 0 0
157 0 0
157 0 0
150 0 0
159 0 0
153 0 0
153 0 0
153 0 0
154 0 0
152 0 0
146 0 0
152 0 0
155 0 0
152 0 0
148 0 0
155 0 0
158 0 0
155 0 0
164 0 0
147 0 0
147 0 0
152 0 0
151 0 0
153 0 0
156 0 0
150 0 0
154 0 0
154 0 0
154 0 0
157 0 0
153 0 0
158 0 0
156 0 0
151 0 0
153 0 0
152 0 0
153 0 0
158 0 0
150 0 0
160 0 0
157 0 0
154 0 0
150 0 0
151 0 0
158 0 0
156 0 0
159 0 0
161 0 0
161 0 0
154 0 0
154 0 0
161 0 0
160 0 0
154 0 0
156 0 0
169 99 111
197 206 233
205 227 255
205 227 255
205 227 255
205 227 255
205 227 255
205 227 255
206 227 255
206 227 255
206 227 255
206 227 255
206 227 255
206 227 255
206 227 255
206 227 255
206 227 255
206 227 255
206 227 255
206 227 255
206 227 255
206 227 255
206 227 255
206 227 255
206 227 255
206 227 255
206 227 255
206 227 255
206 227 255
207 227 255
207 227 255
207 227 255
207 227 255
207 227 255
207 228 255
207 228 255
207 228 255
207 228 255
207 228 255
207 228 255
207 228 255
207 228 255
207 228 255
207 228 255
207 228 255
207 228 255
207 228 255
207 228 255
207 228 255
208 228 255
208 228 255
208 228 255
208 228 255
208 228 255
208 228 255
208 228 255
208 228 255
208 228 255
208 228 255
208 228 255
208 228 255
208 228 255
208 228 255
208 228 255
208 228 255
208 228 255
208 228 255
208 228 255
209 228 255
209 229 255
209 229 255
209 229 255
209 229 255
209 229 255
209 229 255
209 229 255
209 229 255
209 229 255
209 229 255
209 229 255
209 229 255
209 229 255
209 229 255
209 229 255
209 229 255
209 229 255
209 229 255
209 229 255
210 229 255
210 229 255
210 229 255
210 229 255
210 229 255
210 229 255
210 229 255
210 229 255
210 229 255
210 229 255
210 229 255
210 229 255
210 229 255
210 229 255
210 229 255
210 229 255
210 229 255
210 229 255
210 229 255
210 230 255
210 230 255
210 230 255
211 230 255
211 230 255
211 230 255
211 230 255
211 230 255
211 230 255
211 230 255
211 230 255
211 230 255
211 230 255
211 230 255
211 230 255
211 230 255
211 230 255
211 230 255
211 230 255
211 230 255
211 230 255
211 230 255
211 230 255
211 230 255
211 230 255
211 230 255
211 230 255
212 230 255
212 230 255
212 230 255
212 230 255
212 230 255
212 230 255
212 230 255
212 230 255
212 230 255
212 230 255
212 230 255
212 230 255
212 230 255
212 230 255
212 230 255
212 230 255
212 230 255
212 230 255
212 230 255
212 230 255
212 231 255
212 231 255
212 231 255
212 231 255
212 231 255
212 231 255
212 231 255
212 231 255
212 231 255
213 231 255
213 231 255
213 231 255
213 231 255
213 231 255
213 231 255
213 231 255
213 231 255
213 231 255
212 231 255
212 231 255
212 231 255
212 231 255
212 231 255
212 231 255
212 231 255
212 231 255
212 231 255
212 230 255
212 230 255
212 230 255
212 230 255
212 230 255
212 230 255
212 230 255
212 230 255
212 230 255
212 230 255
212 230 255
212 230 255
212 230 255
212 230 255
212 230 255
212 230 255
212 230 255
212 230 255
212 230 255
212 230 255
211 230 255
211 230 255
211 230 255
211 230 255
211 230 255
211 230 255
211 230 255
211 230 255
211 230 255
211 230 255
211 230 255
211 230 255
211 230 255
211 230 255
211 230 255
211 230 255
211 230 255
211 230 255
211 230 255
211 230 255
211 230 255
211 230 255
211 230 255
211 230 255
210 230 255
210 230 255
210 229 255
210 229 255
210 229 255
210 229 255
210 229 255
210 229 255
210 229 255
210 229 255
210 229 255
210 229 255
210 229 255
210 229 255
210 229 255
210 229 255
210 229 255
210 229 255
210 229 255
210 229 255
210 229 255
210 229 255
209 229 255
209 229 255
209 229 255
209 229 255
209 229 255
209 229 255
209 229 255
209 229 255
209 229 255
209 229 255
209 229 255
209 229 255
209 229 255
209 229 255
209 229 255
209 229 255
209 229 255
209 229 255
209 228 255
208 228 255
208 228 255
208 228 255
208 228 255
208 228 255
208 228 255
208 228 255
208 228 255
208 228 255
208 228 255
208 228 255
208 228 255
208 228 255
208 228 255
208 228 255
208 228 255
208 228 255
208 228 255
208 228 255
208 228 255
207 228 255
207 228 255
207 228 255
207 228 255
207 228 255
207 228 255
207 228 255
207 228 255
207 228 255
207 228 255
207 228 255
207 228 255
207 228 255
207 228 255
207 228 255
207 227 255
207 227 255
207 227 255
207 227 255
207 227 255
206 227 255
206 227 255
206 227 255
206 227 255
206 227 255
206 227 255
206 227 255
206 227 255
206 227 255
206 227 255
206 227 255
206 227 255
206 227 255
206 227 255
206 227 255
206 227 255
206 227 255
206 227 255
206 227 255
206 227 255
204 222 250
183 159 179
156 22 25
158 0 0
150 0 0
155 0 0
153 0 0
154 0 0
155 0 0
152 0 0
151 0 0
159 0 0
154 0 0
142 0 0
155 0 0
155 0 0
145 0 0
150 0 0
156 0 0
155 0 0
150 0 0
155 0 0
156 0 0
150 0 0
150 0 0
153 0 0
155 0 0
150 0 0
157 0 0
160 0 0
157 0 0
150 0 0
152 0 0
154 0 0
151 0 0
148 0 0
149 0 0
153 0 0
150 0 0
144 0 0
153 0 0
153 0 0
151 0 0
152 0 0
150 0 0
156 0 0
147 0 0
154 0 0
141 0 0
162 0 0
143 0 0
155 0 0
152 0 0
153 0 0
151 0 0
153 0 0
158 0 0
151 0 0
152 0 0
148 0 0
155 0 0
154 0 0
155 0 0
153 0 0
150 0 0
160 0 0
156 0 0
159 0 0
150 0 0
154 0 0
156 0 0
149 0 0
156 0 0
155 0 0
160 0 0
152 22 25
182 155 175
205 225 253
206 227 255
206 227 255
206 227 255
206 227 255
206 227 255
206 227 255
206 227 255
206 227 255
206 227 255
206 227 255
206 227 255
206 227 255
206 227 255
206 227 255
206 227 255
206 227 255
206 227 255
206 227 255
206 227 255
206 227 255
207 227 255
207 227 255
207 227 255
207 227 255
207 227 255
207 228 255
207 228 255
207 228 255
207 228 255
207 228 255
207 228 255
207 228 255
207 228 255
207 228 255
207 228 255
207 228 255
207 228 255
207 228 255
207 228 255
207 228 255
208 228 255
208 228 255
208 228 255
208 228 255
208 228 255
208 228 255
208 228 255
208 228 255
208 228 255
208 228 255
208 228 255
208 228 255
208 228 255
208 228 255
208 228 255
208 228 255
208 228 255
208 228 255
208 228 255
208 228 255
209 228 255
209 229 255
209 229 255
209 229 255
209 229 255
209 229 255
209 229 255
209 229 255
209 229 255
209 229 255
209 229 255
209 229 255
209 229 255
209 229 255
209 229 255
209 229 255
209 229 255
209 229 255
209 229 255
209 229 255
210 229 255
210 229 255
210 229 255
210 229 255
210 229 255
210 229 255
210 229 255
210 229 255
210 229 255
210 229 255
210 229 255
210 229 255
210 229 255
210 229 255
210 229 255
210 229 255
210 229 255
210 229 255
210 229 255
210 230 255
210 230 255
211 230 255
211 230 255
211 230 255
211 230 255
211 230 255
211 230 255
211 230 255
211 230 255
211 230 255
211 230 255
211 230 255
211 230 255
211 230 255
211 230 255
211 230 255
211 230 255
211 230 255
211 230 255
211 230 255
211 230 255
211 230 255
211 230 255
211 230 255
211 230 255
211 230 255
212 230 255
212 230 255
212 230 255
212 230 255
212 230 255
212 230 255
212 230 255
212 230 255
212 230 255
212 230 255
212 230 255
212 230 255
212 230 255
212 230 255
212 230 255
212 230 255
212 230 255
212 230 255
212 230 255
212 231 255
212 231 255
212 231 255
212 231 255
212 231 255
212 231 255
212 231 255
212 231 255
212 231 255
213 231 255
213 231 255
213 231 255
213 231 255
213 231 255
213 231 255
213 231 255
213 231 255
213 231 255
213 231 255
213 231 255
213 231 255
213 231 255
213 231 255
213 231 255
213 231 255
213 231 255
213 231 255
213 231 255
212 231 255
212 231 255
212 231 255
212 231 255
212 231 255
212 231 255
212 231 255
212 231 255
212 231 255
212 230 255
212 230 255
212 230 255
212 230 255
212 230 255
212 230 255
212 230 255
212 230 255
212 230 255
212 230 255
212 230 255
212 230 255
212 230 255
212 230 255
212 230 255
212 230 255
212 230 255
212 230 255
212 230 255
211 230 255
211 230 255
211 230 255
211 230 255
211 230 255
211 230 255
211 230 255
211 230 255
211 230 255
211 230 255
211 230 255
211 230 255
211 230 255
211 230 255
211 230 255
211 230 255
211 230 255
211 230 255
211 230 255
211 230 255
211 230 255
211 230 255
211 230 255
211 230 255
210 230 255
210 230 255
210 229 255
210 229 255
210 229 255
210 229 255
210 229 255
210 229 255
210 229 255
210 229 255
210 229 255
210 229 255
210 229 255
210 229 255
210 229 255
210 229 255
210 229 255
210 229 255
210 229 255
210 229 255
210 229 255
209 229 255
209 229 255
209 229 255
209 229 255
209 229 255
209 229 255
209 229 255
209 229 255
209 229 255
209 229 255
209 229 255
209 229 255
209 229 255
209 229 255
209 229 255
209 229 255
209 229 255
209 229 255
209 229 255
209 228 255
209 228 255
208 228 255
208 228 255
208 228 255
208 228 255
208 228 255
208 228 255
208 228 255
208 228 255
208 228 255
208 228 255
208 228 255
208 228 255
208 228 255
208 228 255
208 228 255
208 228 255
208 228 255
208 228 255
208 228 255
207 228 255
207 228 255
207 228 255
207 228 255
207 228 255
207 228 255
207 228 255
207 228 255
207 228 255
207 228 255
207 228 255
207 228 255
207 228 255
207 228 255
207 228 255
207 228 255
207 227 255
207 227 255
207 227 255
207 227 255
207 227 255
206 227 255
206 227 255
206 227 255
206 227 255
206 227 255
206 227 255
206 227 255
206 227 255
206 227 255
206 227 255
206 227 255
206 227 255
206 227 255
206 227 255
201 213 240
170 113 128
157 0 0
160 0 0
159 0 0
152 0 0
150 0 0
153 0 0
154 0 0
155 0 0
155 0 0
156 0 0
160 0 0
153 0 0
152 0 0
156 0 0
145 0 0
153 0 0
147 0 0
155 0 0
147 0 0
152 0 0
151 0 0
149 0 0
152 0 0
155 0 0
147 0 0
156 0 0
155 0 0
151 0 0
151 0 0
152 0 0
155 0 0
159 0 0
151 0 0
158 0 0
149 0 0
156 0 0
158 0 0
150 0 0
152 0 0
151 0 0
148 0 0
150 0 0
150 0 0
149 0 0
156 0 0
155 0 0
154 0 0
152 0 0
151 0 0
153 0 0
151 0 0
146 0 0
155 0 0
153 0 0
149 0 0
156 0 0
150 0 0
147 0 0
152 0 0
154 0 0
152 0 0
153 0 0
149 0 0
153 0 0
147 0 0
150 0 0
153 0 0
158 0 0
156 0 0
152 0 0
150 0 0
145 0 0
159 0 0
155 0 0
156 0 0
159 0 0
169 104 117
203 214 241
206 227 255
206 227 255
206 227 255
206 227 255
206 227 255
206 227 255
206 227 255
206 227 255
206 227 255
206 227 255
206 227 255
206 227 255
206 227 255
206 227 255
207 227 255
207 227 255
207 227 255
207 227 255
207 227 255
207 228 255
207 228 255
207 228 255
207 228 255
207 228 255
207 228 255
207 228 255
207 228 255
207 228 255
207 228 255
207 228 255
207 228 255
207 228 255
207 228 255
207 228 255
207 228 255
208 228 255
208 228 255
208 228 255
208 228 255
208 228 255
208 228 255
208 228 255
208 228 255
208 228 255
208 228 255
208 228 255
208 228 255
208 228 255
208 228 255
208 228 255
208 228 255
208 228 255
208 228 255
208 228 255
209 228 255
209 228 255
209 229 255
209 229 255
209 229 255
209 229 255
209 229 255
209 229 255
209 229 255
209 229 255
209 229 255
209 229 255
209 229 255
209 229 255
209 229 255
209 229 255
209 229 255
209 229 255
209 229 255
209 229 255
210 229 255
210 229 255
210 229 255
210 229 255
210 229 255
210 229 255
210 229 255
210 229 255
210 229 255
210 229 255
210 229 255
210 229 255
210 229 255
210 229 255
210 229 255
210 229 255
210 229 255
210 229 255
210 229 255
210 229 255
210 230 255
210 230 255
211 230 255
211 230 255
211 230 255
211 230 255
211 230 255
211 230 255
211 230 255
211 230 255
211 230 255
211 230 255
211 230 255
211 230 255
211 230 255
211 230 255
211 230 255
211 230 255
211 230 255
211 230 255
211 230 255
211 230 255
211 230 255
211 230 255
211 230 255
211 230 255
212 230 255
212 230 255
212 230 255
212 230 255
212 230 255
212 230 255
212 230 255
212 230 255
212 230 255
212 230 255
212 230 255
212 230 255
212 230 255
212 230 255
212 230 255
212 230 255
212 230 255
212 230 255
212 230 255
212 231 255
212 231 255
212 231 255
212 231 255
212 231 255
212 231 255
212 231 255
212 231 255
212 231 255
213 231 255
213 231 255
213 231 255
213 231 255
213 231 255
213 231 255
213 231 255
213 231 255
213 231 255
213 231 255
213 231 255
213 231 255
213 231 255
213 231 255
213 231 255
213 231 255
213 231 255
213 231 255
213 231 255
213 231 255
213 231 255
213 231 255
213 231 255
213 231 255
213 231 255
213 231 255
213 231 255
213 231 255
213 231 255
212 231 255
212 231 255
212 231 255
212 231 255
212 231 255
212 231 255
212 231 255
212 231 255
212 231 255
212 230 255
212 230 255
212 230 255
212 230 255
212 230 255
212 230 255
212 230 255
212 230 255
212 230 255
212 230 255
212 230 255
212 230 255
212 230 255
212 230 255
212 230 255
212 230 255
212 230 255
212 230 255
212 230 255
211 230 255
211 230 255
211 230 255
211 230 255
211 230 255
211 230 255
211 230 255
211 230 255
211 230 255
211 230 255
211 230 255
211 230 255
211 230 255
211 230 255
211 230 255
211 230 255
211 230 255
211 230 255
211 230 255
211 230 255
211 230 255
211 230 255
211 230 255
210 230 255
210 230 255
210 230 255
210 229 255
210 229 255
210 229 255
210 229 255
210 229 255
210 229 255
210 229 255
210 229 255
210 229 255
210 229 255
210 229 255
210 229 255
210 229 255
210 229 255
210 229 255
210 229 255
210 229 255
210 229 255
210 229 255
209 229 255
209 229 255
209 229 255
209 229 255
209 229 255
209 229 255
209 229 255
209 229 255
209 229 255
209 229 255
209 229 255
209 229 255
209 229 255
209 229 255
209 229 255
209 229 255
209 229 255
209 229 255
209 229 255
209 228 255
208 228 255
208 228 255
208 228 255
208 228 255
208 228 255
208 228 255
208 228 255
208 228 255
208 228 255
208 228 255
208 228 255
208 228 255
208 228 255
208 228 255
208 228 255
208 228 255
208 228 255
208 228 255
208 228 255
208 228 255
207 228 255
207 228 255
207 228 255
207 228 255
207 228 255
207 228 255
207 228 255
207 228 255
207 228 255
207 228 255
207 228 255
207 228 255
207 228 255
207 228 255
207 228 255
207 228 255
207 227 255
207 227 255
207 227 255
207 227 255
207 227 255
207 227 255
206 227 255
206 227 255
206 227 255
206 227 255
206 227 255
206 227 255
206 227 255
188 180 203
160 68 76
159 0 0
154 0 0
151 0 0
157 0 0
152 0 0
151 0 0
154 0 0
152 0 0
153 0 0
152 0 0
155 0 0
150 0 0
154 0 0
151 0 0
152 0 0
154 0 0
157 0 0
151 0 0
159 0 0
151 0 0
154 0 0
152 0 0
155 0 0
153 0 0
150 0 0
148 0 0
149 0 0
146 0 0
152 0 0
144 0 0
153 0 0
154 0 0
150 0 0
154 0 0
154 0 0
149 0 0
149 0 0
155 0 0
156 0 0
156 0 0
150 0 0
149 0 0
151 0 0
148 0 0
155 0 0
154 0 0
150 0 0
145 0 0
147 0 0
148 0 0
148 0 0
152 0 0
151 0 0
149 0 0
154 0 0
150 0 0
151 0 0
156 0 0
152 0 0
150 0 0
158 0 0
154 0 0
153 0 0
157 0 0
154 0 0
152 0 0
144 0 0
154 0 0
154 0 0
155 0 0
153 0 0
149 0 0
153 0 0
152 0 0
144 0 0
153 0 0
153 0 0
152 0 0
164 78 88
197 199 224
206 227 255
206 227 255
206 227 255
206 227 255
206 227 255
206 227 255
206 227 255
207 227 255
207 227 255
207 227 255
207 227 255
207 227 255
207 227 255
207 228 255
207 228 255
207 228 255
207 228 255
207 228 255
207 228 255
207 228 255
207 228 255
207 228 255
207 228 255
207 228 255
207 228 255
207 228 255
207 228 255
207 228 255
207 228 255
208 228 255
208 228 255
208 228 255
208 228 255
208 228 255
208 228 255
208 228 255
208 228 255
208 228 255
208 228 255
208 228 255
208 228 255
208 228 255
208 228 255
208 228 255
208 228 255
208 228 255
208 228 255
208 228 255
208 228 255
209 228 255
209 229 255
209 229 255
209 229 255
209 229 255
209 229 255
209 229 255
209 229 255
209 229 255
209 229 255
209 229 255
209 229 255
209 229 255
209 229 255
209 229 255
209 229 255
209 229 255
209 229 255
209 229 255
209 229 255
210 229 255
210 229 255
210 229 255
210 229 255
210 229 255
210 229 255
210 229 255
210 229 255
210 229 255
210 229 255
210 229 255
210 229 255
210 229 255
210 229 255
210 229 255
210 229 255
210 229 255
210 229 255
210 229 255
210 230 255
210 230 255
211 230 255
211 230 255
211 230 255
211 230 255
211 230 255
211 230 255
211 230 255
211 230 255
211 230 255
211 230 255
211 230 255
211 230 255
211 230 255
211 230 255
211 230 255
211 230 255
211 230 255
211 230 255
211 230 255
211 230 255
211 230 255
211 230 255
211 230 255
211 230 255
212 230 255
212 230 255
212 230 255
212 230 255
212 230 255
212 230 255
212 230 255
212 230 255
212 230 255
212 230 255
212 230 255
212 230 255
212 230 255
212 230 255
212 230 255
212 230 255
212 230 255
212 230 255
212 230 255
212 230 255
212 231 255
212 231 255
212 231 255
212 231 255
212 231 255
212 231 255
212 231 255
212 231 255
213 231 255
213 231 255
213 231 255
213 231 255
213 231 255
213 231 255
213 231 255
213 231 255
213 231 255
213 231 255
213 231 255
213 231 255
213 231 255
213 231 255
213 231 255
213 231 255
213 231 255
213 231 255
213 231 255
213 231 255
213 231 255
213 231 255
213 231 255
213 231 255
213 231 255
213 231 255
213 231 255
213 231 255
213 231 255
213 231 255
213 231 255
213 231 255
213 231 255
213 231 255
213 231 255
213 231 255
213 231 255
213 231 255
213 231 255
212 231 255
212 231 255
212 231 255
212 231 255
212 231 255
212 231 255
212 231 255
212 231 255
212 230 255
212 230 255
212 230 255
212 230 255
212 230 255
212 230 255
212 230 255
212 230 255
212 230 255
212 230 255
212 230 255
212 230 255
212 230 255
212 230 255
212 230 255
212 230 255
212 230 255
212 230 255
212 230 255
211 230 255
211 230 255
211 230 255
211 230 255
211 230 255
211 230 255
211 230 255
211 230 255
211 230 255
211 230 255
211 230 255
211 230 255
211 230 255
211 230 255
211 230 255
211 230 255
211 230 255
211 230 255
211 230 255
211 230 255
211 230 255
211 230 255
211 230 255
211 230 255
210 230 255
210 230 255
210 229 255
210 229 255
210 229 255
210 229 255
210 229 255
210 229 255
210 229 255
210 229 255
210 229 255
210 229 255
210 229 255
210 229 255
210 229 255
210 229 255
210 229 255
210 229 255
210 229 255
210 229 255
210 229 255
209 229 255
209 229 255
209 229 255
209 229 255
209 229 255
209 229 255
209 229 255
209 229 255
209 229 255
209 229 255
209 229 255
209 229 255
209 229 255
209 229 255
209 229 255
209 229 255
209 229 255
209 229 255
209 229 255
209 228 255
209 228 255
208 228 255
208 228 255
208 228 255
208 228 255
208 228 255
208 228 255
208 228 255
208 228 255
208 228 255
208 228 255
208 228 255
208 228 255
208 228 255
208 228 255
208 228 255
208 228 255
208 228 255
208 228 255
208 228 255
208 228 255
207 228 255
207 228 255
207 228 255
207 228 255
207 228 255
207 228 255
207 228 255
207 228 255
207 228 255
207 228 255
207 228 255
207 228 255
207 228 255
207 228 255
207 228 255
207 228 255
207 228 255
207 227 255
207 227 255
207 227 255
207 227 255
207 227 255
207 227 255
185 164 184
152 0 0
155 0 0
156 0 0
151 0 0
154 0 0
157 0 0
144 0 0
148 0 0
156 0 0
152 0 0
150 0 0
149 0 0
150 0 0
152 0 0
154 0 0
142 0 0
147 0 0
155 0 0
148 0 0
156 0 0
154 0 0
145 0 0
154 0 0
150 0 0
153 0 0
154 0 0
149 0 0
151 0 0
151 0 0
154 0 0
156 0 0
141 0 0
153 0 0
149 0 0
152 0 0
136 0 0
153 0 0
151 0 0
154 0 0
151 0 0
151 0 0
154 0 0
151 0 0
151 0 0
153 0 0
151 0 0
152 0 0
144 0 0
149 0 0
152 0 0
152 0 0
150 0 0
149 0 0
147 0 0
155 0 0
156 0 0
146 0 0
150 0 0
159 0 0
144 0 0
156 0 0
151 0 0
152 0 0
158 0 0
151 0 0
146 0 0
156 0 0
152 0 0
152 0 0
151 0 0
151 0 0
146 0 0
146 0 0
145 0 0
152 0 0
152 0 0
155 0 0
153 0 0
157 0 0
158 0 0
152 0 0
159 22 25
183 149 167
206 226 254
207 227 255
207 227 255
207 227 255
207 227 255
207 227 255
207 228 255
207 228 255
207 228 255
207 228 255
207 228 255
207 228 255
207 228 255
207 228 255
207 228 255
207 228 255
207 228 255
207 228 255
207 228 255
207 228 255
207 228 255
207 228 255
207 228 255
208 228 255
208 228 255
208 228 255
208 228 255
208 228 255
208 228 255
208 228 255
208 228 255
208 228 255
208 228 255
208 228 255
208 228 255
208 228 255
208 228 255
208 228 255
208 228 255
208 228 255
208 228 255
208 228 255
208 228 255
209 228 255
209 228 255
209 229 255
209 229 255
209 229 255
209 229 255
209 229 255
209 229 255
209 229 255
209 229 255
209 229 255
209 229 255
209 229 255
209 229 255
209 229 255
209 229 255
209 229 255
209 229 255
209 229 255
209 229 255
210 229 255
210 229 255
210 229 255
210 229 255
210 229 255
210 229 255
210 229 255
210 229 255
210 229 255
210 229 255
210 229 255
210 229 255
210 229 255
210 229 255
210 229 255
210 229 255
210 229 255
210 229 255
210 229 255
210 229 255
210 230 255
210 230 255
211 230 255
211 230 255
211 230 255
211 230 255
211 230 255
211 230 255
211 230 255
211 230 255
211 230 255
211 230 255
211 230 255
211 230 255
211 230 255
211 230 255
211 230 255
211 230 255
211 230 255
211 230 255
211 230 255
211 230 255
211 230 255
211 230 255
211 230 255
211 230 255
212 230 255
212 230 255
212 230 255
212 230 255
212 230 255
212 230 255
212 230 255
212 230 255
212 230 255
212 230 255
212 230 255
212 230 255
212 230 255
212 230 255
212 230 255
212 230 255
212 230 255
212 230 255
212 230 255
212 231 255
212 231 255
212 231 255
212 231 255
212 231 255
212 231 255
212 231 255
212 231 255
213 231 255
213 231 255
213 231 255
213 231 255
213 231 255
213 231 255
213 231 255
213 231 255
213 231 255
213 231 255
213 231 255
213 231 255
213 231 255
213 231 255
213 231 255
213 231 255
213 231 255
213 231 255
213 231 255
213 231 255
213 231 255
213 231 255
213 231 255
213 231 255
213 231 255
213 231 255
213 231 255
213 231 255
213 231 255
213 231 255
213 231 255
213 231 255
213 231 255
213 231 255
213 231 255
213 231 255
213 231 255
213 231 255
213 231 255
213 231 255
213 231 255
213 231 255
213 231 255
213 231 255
213 231 255
213 231 255
213 231 255
213 231 255
213 231 255
212 231 255
212 231 255
212 231 255
212 231 255
212 231 255
212 231 255
212 231 255
212 231 255
212 230 255
212 230 255
212 230 255
212 230 255
212 230 255
212 230 255
212 230 255
212 230 255
212 230 255
212 230 255
212 230 255
212 230 255
212 230 255
212 230 255
212 230 255
212 230 255
212 230 255
212 230 255
212 230 255
211 230 255
211 230 255
211 230 255
211 230 255
211 230 255
211 230 255
211 230 255
211 230 255
211 230 255
211 230 255
211 230 255
211 230 255
211 230 255
211 230 255
211 230 255
211 230 255
211 230 255
211 230 255
211 230 255
211 230 255
211 230 255
211 230 255
211 230 255
210 230 255
210 230 255
210 230 255
210 229 255
210 229 255
210 229 255
210 229 255
210 229 255
210 229 255
210 229 255
210 229 255
210 229 255
210 229 255
210 229 255
210 229 255
210 229 255
210 229 255
210 229 255
210 229 255
210 229 255
210 229 255
210 229 255
209 229 255
209 229 255
209 229 255
209 229 255
209 229 255
209 229 255
209 229 255
209 229 255
209 229 255
209 229 255
209 229 255
209 229 255
209 229 255
209 229 255
209 229 255
209 229 255
209 229 255
209 229 255
209 229 255
209 228 255
209 228 255
208 228 255
208 228 255
208 228 255
208 228 255
208 228 255
208 228 255
208 228 255
208 228 255
208 228 255
208 228 255
208 228 255
208 228 255
208 228 255
208 228 255
208 228 255
208 228 255
208 228 255
208 228 255
208 228 255
208 228 255
207 228 255
207 228 255
207 228 255
207 228 255
207 228 255
207 228 255
207 228 255
207 228 255
207 228 255
207 228 255
207 228 255
207 228 255
207 228 255
207 228 255
207 228 255
207 228 255
206 226 254
172 130 147
157 0 0
151 0 0
153 0 0
150 0 0
151 0 0
153 0 0
148 0 0
149 0 0
157 0 0
153 0 0
152 0 0
151 0 0
151 0 0
151 0 0
159 0 0
146 0 0
138 0 0
151 0 0
155 0 0
151 0 0
158 0 0
140 0 0
148 0 0
146 0 0
144 0 0
153 0 0
154 0 0
151 0 0
154 0 0
146 0 0
152 0 0
147 0 0
157 0 0
149 0 0
155 0 0
150 0 0
143 0 0
155 0 0
146 0 0
150 0 0
142 0 0
154 0 0
151 0 0
151 0 0
146 0 0
147 0 0
154 0 0
148 0 0
145 0 0
143 0 0
157 0 0
151 0 0
154 0 0
147 0 0
148 0 0
147 0 0
148 0 0
151 0 0
151 0 0
152 0 0
154 0 0
153 0 0
152 0 0
146 0 0
154 0 0
151 0 0
148 0 0
155 0 0
142 0 0
148 0 0
148 0 0
155 0 0
151 0 0
154 0 0
153 0 0
147 0 0
151 0 0
154 0 0
152 0 0
155 0 0
157 0 0
151 0 0
153 0 0
156 0 0
180 140 157
206 225 253
207 228 255
207 228 255
207 228 255
207 228 255
207 228 255
207 228 255
207 228 255
207 228 255
207 228 255
207 228 255
207 228 255
207 228 255
207 228 255
207 228 255
207 228 255
208 228 255
208 228 255
208 228 255
208 228 255
208 228 255
208 228 255
208 228 255
208 228 255
208 228 255
208 228 255
208 228 255
208 228 255
208 228 255
208 228 255
208 228 255
208 228 255
208 228 255
208 228 255
208 228 255
208 228 255
208 228 255
209 228 255
209 228 255
209 229 255
209 229 255
209 229 255
209 229 255
209 229 255
209 229 255
209 229 255
209 229 255
209 229 255
209 229 255
209 229 255
209 229 255
209 229 255
209 229 255
209 229 255
209 229 255
209 229 255
209 229 255
209 229 255
210 229 255
210 229 255
210 229 255
210 229 255
210 229 255
210 229 255
210 229 255
210 229 255
210 229 255
210 229 255
210 229 255
210 229 255
210 229 255
210 229 255
210 229 255
210 229 255
210 229 255
210 229 255
210 229 255
210 230 255
210 230 255
211 230 255
211 230 255
211 230 255
211 230 255
211 230 255
211 230 255
211 230 255
211 230 255
211 230 255
211 230 255
211 230 255
211 230 255
211 230 255
211 230 255
211 230 255
211 230 255
211 230 255
211 230 255
211 230 255
211 230 255
211 230 255
211 230 255
211 230 255
211 230 255
212 230 255
212 230 255
212 230 255
212 230 255
212 230 255
212 230 255
212 230 255
212 230 255
212 230 255
212 230 255
212 230 255
212 230 255
212 230 255
212 230 255
212 230 255
212 230 255
212 230 255
212 230 255
212 230 255
212 231 255
212 231 255
212 231 255
212 231 255
212 231 255
212 231 255
212 231 255
212 231 255
213 231 255
213 231 255
213 231 255
213 231 255
213 231 255
213 231 255
213 231 255
213 231 255
213 231 255
213 231 255
213 231 255
213 231 255
213 231 255
213 231 255
213 231 255
213 231 255
213 231 255
213 231 255
213 231 255
213 231 255
213 231 255
213 231 255
213 231 255
213 231 255
213 231 255
213 231 255
213 231 255
213 231 255
213 231 255
213 231 255
213 231 255
213 231 255
213 231 255
213 231 255
213 231 255
213 231 255
213 231 255
213 231 255
213 231 255
213 231 255
213 231 255
213 231 255
213 231 255
213 231 255
213 231 255
213 231 255
213 231 255
213 231 255
213 231 255
213 231 255
213 231 255
213 231 255
213 231 255
213 231 255
213 231 255
213 231 255
213 231 255
213 231 255
213 231 255
212 231 255
212 231 255
212 231 255
212 231 255
212 231 255
212 231 255
212 231 255
212 231 255
212 230 255
212 230 255
212 230 255
212 230 255
212 230 255
212 230 255
212 230 255
212 230 255
212 230 255
212 230 255
212 230 255
212 230 255
212 230 255
212 230 255
212 230 255
212 230 255
212 230 255
212 230 255
212 230 255
211 230 255
211 230 255
211 230 255
211 230 255
211 230 255
211 230 255
211 230 255
211 230 255
211 230 255
211 230 255
211 230 255
211 230 255
211 230 255
211 230 255
211 230 255
211 230 255
211 230 255
211 230 255
211 230 255
211 230 255
211 230 255
211 230 255
211 230 255
210 230 255
210 230 255
210 230 255
210 229 255
210 229 255
210 229 255
210 229 255
210 229 255
210 229 255
210 229 255
210 229 255
210 229 255
210 229 255
210 229 255
210 229 255
210 229 255
210 229 255
210 229 255
210 229 255
210 229 255
210 229 255
210 229 255
209 229 255
209 229 255
209 229 255
209 229 255
209 229 255
209 229 255
209 229 255
209 229 255
209 229 255
209 229 255
209 229 255
209 229 255
209 229 255
209 229 255
209 229 255
209 229 255
209 229 255
209 229 255
209 229 255
209 228 255
208 228 255
208 228 255
208 228 255
208 228 255
208 228 255
208 228 255
208 228 255
208 228 255
208 228 255
208 228 255
208 228 255
208 228 255
208 228 255
208 228 255
208 228 255
208 228 255
208 228 255
208 228 255
208 228 255
208 228 255
208 228 255
208 228 255
207 228 255
207 228 255
207 228 255
207 228 255
207 228 255
207 228 255
207 228 255
207 228 255
207 228 255
206 223 250
167 129 144
153 0 0
147 0 0
154 0 0
149 0 0
145 0 0
150 0 0
151 0 0
152 0 0
151 0 0
157 0 0
150 0 0
153 0 0
149 0 0
153 0 0
155 0 0
151 0 0
155 0 0
148 0 0
156 0 0
147 0 0
151 0 0
147 0 0
151 0 0
155 0 0
148 0 0
141 0 0
151 0 0
154 0 0
155 0 0
150 0 0
149 0 0
154 0 0
151 0 0
150 0 0
151 0 0
146 0 0
148 0 0
145 0 0
152 0 0
152 0 0
151 0 0
143 0 0
148 0 0
151 0 0
149 0 0
151 0 0
150 0 0
146 0 0
156 0 0
152 0 0
149 0 0
148 0 0
143 0 0
153 0 0
150 0 0
142 0 0
146 0 0
147 0 0
151 0 0
147 0 0
146 0 0
152 0 0
155 0 0
149 0 0
147 0 0
147 0 0
153 0 0
152 0 0
149 0 0
148 0 0
160 0 0
150 0 0
150 0 0
148 0 0
145 0 0
152 0 0
148 0 0
157 0 0
157 0 0
153 0 0
151 0 0
149 0 0
149 0 0
152 0 0
160 0 0
151 0 0
172 124 140
204 218 245
207 228 255
207 228 255
207 228 255
207 228 255
207 228 255
207 228 255
207 228 255
207 228 255
207 228 255
208 228 255
208 228 255
208 228 255
208 228 255
208 228 255
208 228 255
208 228 255
208 228 255
208 228 255
208 228 255
208 228 255
208 228 255
208 228 255
208 228 255
208 228 255
208 228 255
208 228 255
208 228 255
208 228 255
208 228 255
208 228 255
208 228 255
209 228 255
209 229 255
209 229 255
209 229 255
209 229 255
209 229 255
209 229 255
209 229 255
209 229 255
209 229 255
209 229 255
209 229 255
209 229 255
209 229 255
209 229 255
209 229 255
209 229 255
209 229 255
209 229 255
209 229 255
210 229 255
210 229 255
210 229 255
210 229 255
210 229 255
210 229 255
210 229 255
210 229 255
210 229 255
210 229 255
210 229 255
210 229 255
210 229 255
210 229 255
210 229 255
210 229 255
210 229 255
210 229 255
210 229 255
210 230 255
210 230 255
210 230 255
211 230 255
211 230 255
211 230 255
211 230 255
211 230 255
211 230 255
211 230 255
211 230 255
211 230 255
211 230 255
211 230 255
211 230 255
211 230 255
211 230 255
211 230 255
211 230 255
211 230 255
211 230 255
211 230 255
211 230 255
211 230 255
211 230 255
211 230 255
211 230 255
212 230 255
212 230 255
212 230 255
212 230 255
212 230 255
212 230 255
212 230 255
212 230 255
212 230 255
212 230 255
212 230 255
212 230 255
212 230 255
212 230 255
212 230 255
212 230 255
212 230 255
212 230 255
212 231 255
212 231 255
212 231 255
212 231 255
212 231 255
212 231 255
212 231 255
212 231 255
213 231 255
213 231 255
213 231 255
213 231 255
213 231 255
213 231 255
213 231 255
213 231 255
213 231 255
213 231 255
213 231 255
213 231 255
213 231 255
213 231 255
213 231 255
213 231 255
213 231 255
213 231 255
213 231 255
213 231 255
213 231 255
213 231 255
213 231 255
213 231 255
213 231 255
213 231 255
213 231 255
213 231 255
213 231 255
213 231 255
213 231 255
213 231 255
214 231 255
214 231 255
214 231 255
214 231 255
214 231 255
213 231 255
213 231 255
213 231 255
213 231 255
213 231 255
213 231 255
213 231 255
213 231 255
213 231 255
213 231 255
213 231 255
213 231 255
213 231 255
213 231 255
213 231 255
213 231 255
213 231 255
213 231 255
213 231 255
213 231 255
213 231 255
213 231 255
213 231 255
213 231 255
213 231 255
213 231 255
213 231 255
213 231 255
213 231 255
213 231 255
213 231 255
213 231 255
212 231 255
212 231 255
212 231 255
212 231 255
212 231 255
212 231 255
212 231 255
212 231 255
212 230 255
212 230 255
212 230 255
212 230 255
212 230 255
212 230 255
212 230 255
212 230 255
212 230 255
212 230 255
212 230 255
212 230 255
212 230 255
212 230 255
212 230 255
212 230 255
212 230 255
212 230 255
212 230 255
211 230 255
211 230 255
211 230 255
211 230 255
211 230 255
211 230 255
211 230 255
211 230 255
211 230 255
211 230 255
211 230 255
211 230 255
211 230 255
211 230 255
211 230 255
211 230 255
211 230 255
211 230 255
211 230 255
211 230 255
211 230 255
211 230 255
211 230 255
210 230 255
210 230 255
210 229 255
210 229 255
210 229 255
210 229 255
210 229 255
210 229 255
210 229 255
210 229 255
210 229 255
210 229 255
210 229 255
210 229 255
210 229 255
210 229 255
210 229 255
210 229 255
210 229 255
210 229 255
210 229 255
209 229 255
209 229 255
209 229 255
209 229 255
209 229 255
209 229 255
209 229 255
209 229 255
209 229 255
209 229 255
209 229 255
209 229 255
209 229 255
209 229 255
209 229 255
209 229 255
209 229 255
209 229 255
209 229 255
209 229 255
209 228 255
209 228 255
208 228 255
208 228 255
208 228 255
208 228 255
208 228 255
208 228 255
208 228 255
208 228 255
208 228 255
208 228 255
208 228 255
208 228 255
208 228 255
208 228 255
208 228 255
208 228 255
208 228 255
208 228 255
208 228 255
208 228 255
208 228 255
208 228 255
208 228 255
207 228 255
206 226 253
166 107 120
155 0 0
154 0 0
152 0 0
155 0 0
157 0 0
148 0 0
151 0 0
148 0 0
152 0 0
148 0 0
152 0 0
143 0 0
147 0 0
149 0 0
152 0 0
143 0 0
151 0 0
154 0 0
152 0 0
155 0 0
160 0 0
153 0 0
152 0 0
147 0 0
147 0 0
152 0 0
151 0 0
142 0 0
147 0 0
143 0 0
146 0 0
145 0 0
152 0 0
156 0 0
153 0 0
147 0 0
155 0 0
149 0 0
146 0 0
151 0 0
148 0 0
154 0 0
149 0 0
153 0 0
146 0 0
149 0 0
151 0 0
149 0 0
149 0 0
151 0 0
150 0 0
149 0 0
159 0 0
150 0 0
143 0 0
152 0 0
162 0 0
151 0 0
152 0 0
157 0 0
148 0 0
149 0 0
150 0 0
151 0 0
150 0 0
151 0 0
148 0 0
150 0 0
149 0 0
148 0 0
146 0 0
155 0 0
150 0 0
151 0 0
152 0 0
153 0 0
150 0 0
149 0 0
151 0 0
152 0 0
150 0 0
145 0 0
151 0 0
145 0 0
156 0 0
151 0 0
154 0 0
149 0 0
164 88 99
205 221 248
207 228 255
208 228 255
208 228 255
208 228 255
208 228 255
208 228 255
208 228 255
208 228 255
208 228 255
208 228 255
208 228 255
208 228 255
208 228 255
208 228 255
208 228 255
208 228 255
208 228 255
208 228 255
208 228 255
208 228 255
208 228 255
208 228 255
208 228 255
208 228 255
209 228 255
209 228 255
209 229 255
209 229 255
209 229 255
209 229 255
209 229 255
209 229 255
209 229 255
209 229 255
209 229 255
209 229 255
209 229 255
209 229 255
209 229 255
209 229 255
209 229 255
209 229 255
209 229 255
209 229 255
209 229 255
209 229 255
210 229 255
210 229 255
210 229 255
210 229 255
210 229 255
210 229 255
210 229 255
210 229 255
210 229 255
210 229 255
210 229 255
210 229 255
210 229 255
210 229 255
210 229 255
210 229 255
210 229 255
210 229 255
210 229 255
210 230 255
210 230 255
211 230 255
211 230 255
211 230 255
211 230 255
211 230 255
211 230 255
211 230 255
211 230 255
211 230 255
211 230 255
211 230 255
211 230 255
211 230 255
211 230 255
211 230 255
211 230 255
211 230 255
211 230 255
211 230 255
211 230 255
211 230 255
211 230 255
211 230 255
212 230 255
212 230 255
212 230 255
212 230 255
212 230 255
212 230 255
212 230 255
212 230 255
212 230 255
212 230 255
212 230 255
212 230 255
212 230 255
212 230 255
212 230 255
212 230 255
212 230 255
212 230 255
212 230 255
212 231 255
212 231 255
212 231 255
212 231 255
212 231 255
212 231 255
212 231 255
212 231 255
213 231 255
213 231 255
213 231 255
213 231 255
213 231 255
213 231 255
213 231 255
213 231 255
213 231 255
213 231 255
213 231 255
213 231 255
213 231 255
213 231 255
213 231 255
213 231 255
213 231 255
213 231 255
213 231 255
213 231 255
213 231 255
213 231 255
213 231 255
213 231 255
213 231 255
213 231 255
213 231 255
213 231 255
213 231 255
213 231 255
213 231 255
214 231 255
214 231 255
214 231 255
214 231 255
214 231 255
214 231 255
214 231 255
214 231 255
214 231 255
214 231 255
214 231 255
214 231 255
214 231 255
214 231 255
214 231 255
214 231 255
214 231 255
213 231 255
213 231 255
213 231 255
213 231 255
213 231 255
213 231 255
213 231 255
213 231 255
213 231 255
213 231 255
213 231 255
213 231 255
213 231 255
213 231 255
213 231 255
213 231 255
213 231 255
213 231 255
213 231 255
213 231 255
213 231 255
213 231 255
213 231 255
213 231 255
213 231 255
213 231 255
213 231 255
213 231 255
213 231 255
213 231 255
213 231 255
212 231 255
212 231 255
212 231 255
212 231 255
212 231 255
212 231 255
212 231 255
212 231 255
212 230 255
212 230 255
212 230 255
212 230 255
212 230 255
212 230 255
212 230 255
212 230 255
212 230 255
212 230 255
212 230 255
212 230 255
212 230 255
212 230 255
212 230 255
212 230 255
212 230 255
212 230 255
212 230 255
211 230 255
211 230 255
211 230 255
211 230 255
211 230 255
211 230 255
211 230 255
211 230 255
211 230 255
211 230 255
211 230 255
211 230 255
211 230 255
211 230 255
211 230 255
211 230 255
211 230 255
211 230 255
211 230 255
211 230 255
211 230 255
211 230 255
211 230 255
210 230 255
210 230 255
210 229 255
210 229 255
210 229 255
210 229 255
210 229 255
210 229 255
210 229 255
210 229 255
210 229 255
210 229 255
210 229 255
210 229 255
210 229 255
210 229 255
210 229 255
210 229 255
210 229 255
210 229 255
210 229 255
209 229 255
209 229 255
209 229 255
209 229 255
209 229 255
209 229 255
209 229 255
209 229 255
209 229 255
209 229 255
209 229 255
209 229 255
209 229 255
209 229 255
209 229 255
209 229 255
209 229 255
209 229 255
209 229 255
209 229 255
209 229 255
209 228 255
208 228 255
208 228 255
208 228 255
208 228 255
208 228 255
208 228 255
208 228 255
208 228 255
208 228 255
208 228 255
208 228 255
208 228 255
208 228 255
208 228 255
208 228 255
208 228 255
208 228 255
208 228 255
202 215 241
168 114 128
151 0 0
151 0 0
152 0 0
152 0 0
152 0 0
160 0 0
153 0 0
152 0 0
157 0 0
140 0 0
151 0 0
149 0 0
142 0 0
150 0 0
149 0 0
145 0 0
150 0 0
150 0 0
154 0 0
151 0 0
149 0 0
143 0 0
150 0 0
151 0 0
152 0 0
154 0 0
149 0 0
148 0 0
151 0 0
147 0 0
145 0 0
146 0 0
149 0 0
145 0 0
146 0 0
156 0 0
151 0 0
152 0 0
153 0 0
153 0 0
140 0 0
158 0 0
150 0 0
151 0 0
149 0 0
155 0 0
144 0 0
154 0 0
148 0 0
155 0 0
149 0 0
140 0 0
147 0 0
152 0 0
146 0 0
151 0 0
134 0 0
148 0 0
154 0 0
149 0 0
158 0 0
146 0 0
143 0 0
149 0 0
153 0 0
145 0 0
151 0 0
154 0 0
146 0 0
145 0 0
158 0 0
149 0 0
145 0 0
153 0 0
146 0 0
152 0 0
152 0 0
150 0 0
151 0 0
150 0 0
144 0 0
152 0 0
147 0 0
153 0 0
158 0 0
151 0 0
152 0 0
151 0 0
150 0 0
154 0 0
162 102 114
205 220 246
208 228 255
208 228 255
208 228 255
208 228 255
208 228 255
208 228 255
208 228 255
208 228 255
208 228 255
208 228 255
208 228 255
208 228 255
208 228 255
208 228 255
208 228 255
208 228 255
208 228 255
208 228 255
209 228 255
209 229 255
209 229 255
209 229 255
209 229 255
209 229 255
209 229 255
209 229 255
209 229 255
209 229 255
209 229 255
209 229 255
209 229 255
209 229 255
209 229 255
209 229 255
209 229 255
209 229 255
209 229 255
209 229 255
209 229 255
210 229 255
210 229 255
210 229 255
210 229 255
210 229 255
210 229 255
210 229 255
210 229 255
210 229 255
210 229 255
210 229 255
210 229 255
210 229 255
210 229 255
210 229 255
210 229 255
210 229 255
210 229 255
210 229 255
210 229 255
210 230 255
210 230 255
211 230 255
211 230 255
211 230 255
211 230 255
211 230 255
211 230 255
211 230 255
211 230 255
211 230 255
211 230 255
211 230 255
211 230 255
211 230 255
211 230 255
211 230 255
211 230 255
211 230 255
211 230 255
211 230 255
211 230 255
211 230 255
211 230 255
211 230 255
212 230 255
212 230 255
212 230 255
212 230 255
212 230 255
212 230 255
212 230 255
212 230 255
212 230 255
212 230 255
212 230 255
212 230 255
212 230 255
212 230 255
212 230 255
212 230 255
212 230 255
212 230 255
212 230 255
212 231 255
212 231 255
212 231 255
212 231 255
212 231 255
212 231 255
212 231 255
212 231 255
213 231 255
213 231 255
213 231 255
213 231 255
213 231 255
213 231 255
213 231 255
213 231 255
213 231 255
213 231 255
213 231 255
213 231 255
213 231 255
213 231 255
213 231 255
213 231 255
213 231 255
213 231 255
213 231 255
213 231 255
213 231 255
213 231 255
213 231 255
213 231 255
213 231 255
213 231 255
213 231 255
213 231 255
213 231 255
213 231 255
213 231 255
214 231 255
214 231 255
214 231 255
214 231 255
214 231 255
214 231 255
214 231 255
214 231 255
214 231 255
214 231 255
214 231 255
214 231 255
214 231 255
214 231 255
214 231 255
214 231 255
214 231 255
214 231 255
214 231 255
214 231 255
214 231 255
214 231 255
214 231 255
214 231 255
214 231 255
214 231 255
214 231 255
214 231 255
213 231 255
213 231 255
213 231 255
213 231 255
213 231 255
213 231 255
213 231 255
213 231 255
213 231 255
213 231 255
213 231 255
213 231 255
213 231 255
213 231 255
213 231 255
213 231 255
213 231 255
213 231 255
213 231 255
213 231 255
213 231 255
213 231 255
213 231 255
213 231 255
213 231 255
213 231 255
213 231 255
213 231 255
213 231 255
213 231 255
212 231 255
212 231 255
212 231 255
212 231 255
212 231 255
212 231 255
212 231 255
212 231 255
212 230 255
212 230 255
212 230 255
212 230 255
212 230 255
212 230 255
212 230 255
212 230 255
212 230 255
212 230 255
212 230 255
212 230 255
212 230 255
212 230 255
212 230 255
212 230 255
212 230 255
212 230 255
212 230 255
211 230 255
211 230 255
211 230 255
211 230 255
211 230 255
211 230 255
211 230 255
211 230 255
211 230 255
211 230 255
211 230 255
211 230 255
211 230 255
211 230 255
211 230 255
211 230 255
211 230 255
211 230 255
211 230 255
211 230 255
211 230 255
211 230 255
211 230 255
210 230 255
210 230 255
210 229 255
210 229 255
210 229 255
210 229 255
210 229 255
210 229 255
210 229 255
210 229 255
210 229 255
210 229 255
210 229 255
210 229 255
210 229 255
210 229 255
210 229 255
210 229 255
210 229 255
210 229 255
210 229 255
210 229 255
209 229 255
209 229 255
209 229 255
209 229 255
209 229 255
209 229 255
209 229 255
209 229 255
209 229 255
209 229 255
209 229 255
209 229 255
209 229 255
209 229 255
209 229 255
209 229 255
209 229 255
209 229 255
209 229 255
209 229 255
209 229 255
209 228 255
208 228 255
208 228 255
208 228 255
208 228 255
208 228 255
208 228 255
208 228 255
208 228 255
208 228 255
208 228 255
208 228 255
207 226 253
170 129 144
146 0 0
154 0 0
153 0 0
155 0 0
147 0 0
150 0 0
146 0 0
149 0 0
150 0 0
152 0 0
147 0 0
153 0 0
155 0 0
145 0 0
153 0 0
150 0 0
153 0 0
152 0 0
159 0 0
141 0 0
148 0 0
153 0 0
149 0 0
152 0 0
150 0 0
144 0 0
140 0 0
154 0 0
146 0 0
152 0 0
155 0 0
155 0 0
145 0 0
151 0 0
149 0 0
147 0 0
150 0 0
148 0 0
153 0 0
149 0 0
148 0 0
144 0 0
143 0 0
145 0 0
150 0 0
147 0 0
150 0 0
148 0 0
154 0 0
151 0 0
146 0 0
136 0 0
141 0 0
148 0 0
152 0 0
154 0 0
148 0 0
146 0 0
148 0 0
150 0 0
155 0 0
152 0 0
149 0 0
149 0 0
148 0 0
149 0 0
145 0 0
148 0 0
150 0 0
148 0 0
148 0 0
149 0 0
148 0 0
154 0 0
154 0 0
151 0 0
144 0 0
151 0 0
143 0 0
150 0 0
146 0 0
142 0 0
149 0 0
147 0 0
149 0 0
156 0 0
155 0 0
151 0 0
145 0 0
143 0 0
152 0 0
158 0 0
166 120 135
206 222 249
208 228 255
208 228 255
208 228 255
208 228 255
208 228 255
208 228 255
208 228 255
208 228 255
208 228 255
208 228 255
208 228 255
209 228 255
209 229 255
209 229 255
209 229 255
209 229 255
209 229 255
209 229 255
209 229 255
209 229 255
209 229 255
209 229 255
209 229 255
209 229 255
209 229 255
209 229 255
209 229 255
209 229 255
209 229 255
209 229 255
209 229 255
209 229 255
209 229 255
209 229 255
210 229 255
210 229 255
210 229 255
210 229 255
210 229 255
210 229 255
210 229 255
210 229 255
210 229 255
210 229 255
210 229 255
210 229 255
210 229 255
210 229 255
210 229 255
210 229 255
210 229 255
210 229 255
210 229 255
210 230 255
210 230 255
211 230 255
211 230 255
211 230 255
211 230 255
211 230 255
211 230 255
211 230 255
211 230 255
211 230 255
211 230 255
211 230 255
211 230 255
211 230 255
211 230 255
211 230 255
211 230 255
211 230 255
211 230 255
211 230 255
211 230 255
211 230 255
211 230 255
211 230 255
212 230 255
212 230 255
212 230 255
212 230 255
212 230 255
212 230 255
212 230 255
212 230 255
212 230 255
212 230 255
212 230 255
212 230 255
212 230 255
212 230 255
212 230 255
212 230 255
212 230 255
212 230 255
212 230 255
212 231 255
212 231 255
212 231 255
212 231 255
212 231 255
212 231 255
212 231 255
212 231 255
213 231 255
213 231 255
213 231 255
213 231 255
213 231 255
213 231 255
213 231 255
213 231 255
213 231 255
213 231 255
213 231 255
213 231 255
213 231 255
213 231 255
213 231 255
213 231 255
213 231 255
213 231 255
213 231 255
213 231 255
213 231 255
213 231 255
213 231 255
213 231 255
213 231 255
213 231 255
213 231 255
213 231 255
213 231 255
213 231 255
214 231 255
214 231 255
214 231 255
214 231 255
214 231 255
214 231 255
214 231 255
214 231 255
214 231 255
214 231 255
214 231 255
214 231 255
214 231 255
214 231 255
214 231 255
214 231 255
214 231 255
214 232 255
214 232 255
214 232 255
214 232 255
214 232 255
214 231 255
214 231 255
214 231 255
214 231 255
214 231 255
214 231 255
214 231 255
214 231 255
214 231 255
214 231 255
214 231 255
214 231 255
214 231 255
214 231 255
214 231 255
214 231 255
214 231 255
214 231 255
213 231 255
213 231 255
213 231 255
213 231 255
213 231 255
213 231 255
213 231 255
213 231 255
213 231 255
213 231 255
213 231 255
213 231 255
213 231 255
213 231 255
213 231 255
213 231 255
213 231 255
213 231 255
213 231 255
213 231 255
213 231 255
213 231 255
213 231 255
213 231 255
213 231 255
213 231 255
213 231 255
213 231 255
213 231 255
213 231 255
212 231 255
212 231 255
212 231 255
212 231 255
212 231 255
212 231 255
212 231 255
212 231 255
212 230 255
212 230 255
212 230 255
212 230 255
212 230 255
212 230 255
212 230 255
212 230 255
212 230 255
212 230 255
212 230 255
212 230 255
212 230 255
212 230 255
212 230 255
212 230 255
212 230 255
212 230 255
211 230 255
211 230 255
211 230 255
211 230 255
211 230 255
211 230 255
211 230 255
211 230 255
211 230 255
211 230 255
211 230 255
211 230 255
211 230 255
211 230 255
211 230 255
211 230 255
211 230 255
211 230 255
211 230 255
211 230 255
211 230 255
211 230 255
211 230 255
210 230 255
210 230 255
210 229 255
210 229 255
210 229 255
210 229 255
210 229 255
210 229 255
210 229 255
210 229 255
210 229 255
210 229 255
210 229 255
210 229 255
210 229 255
210 229 255
210 229 255
210 229 255
210 229 255
210 229 255
210 229 255
210 229 255
209 229 255
209 229 255
209 229 255
209 229 255
209 229 255
209 229 255
209 229 255
209 229 255
209 229 255
209 229 255
209 229 255
209 229 255
209 229 255
209 229 255
209 229 255
209 229 255
209 229 255
209 229 255
209 229 255
209 229 255
209 229 255
209 228 255
209 228 255
208 228 255
208 228 255
208 228 255
208 228 255
206 223 249
172 121 135
144 0 0
152 0 0
146 0 0
147 0 0
147 0 0
150 0 0
159 0 0
151 0 0
145 0 0
144 0 0
149 0 0
148 0 0
148 0 0
145 0 0
147 0 0
144 0 0
152 0 0
149 0 0
150 0 0
151 0 0
151 0 0
154 0 0
149 0 0
149 0 0
147 0 0
145 0 0
146 0 0
157 0 0
154 0 0
154 0 0
146 0 0
147 0 0
151 0 0
146 0 0
142 0 0
149 0 0
144 0 0
150 0 0
142 0 0
151 0 0
147 0 0
145 0 0
156 0 0
145 0 0
141 0 0
154 0 0
145 0 0
148 0 0
147 0 0
148 0 0
145 0 0
141 0 0
150 0 0
153 0 0
156 0 0
149 0 0
147 0 0
142 0 0
142 0 0
146 0 0
151 0 0
144 0 0
142 0 0
144 0 0
153 0 0
151 0 0
160 0 0
149 0 0
144 0 0
147 0 0
142 0 0
147 0 0
155 0 0
153 0 0
149 0 0
143 0 0
150 0 0
145 0 0
147 0 0
152 0 0
144 0 0
153 0 0
149 0 0
149 0 0
151 0 0
151 0 0
155 0 0
147 0 0
151 0 0
152 0 0
150 0 0
157 0 0
151 0 0
151 0 0
166 107 120
206 224 250
208 228 255
208 228 255
208 228 255
208 228 255
209 228 255
209 229 255
209 229 255
209 229 255
209 229 255
209 229 255
209 229 255
209 229 255
209 229 255
209 229 255
209 229 255
209 229 255
209 229 255
209 229 255
209 229 255
209 229 255
209 229 255
209 229 255
209 229 255
209 229 255
209 229 255
209 229 255
209 229 255
210 229 255
210 229 255
210 229 255
210 229 255
210 229 255
210 229 255
210 229 255
210 229 255
210 229 255
210 229 255
210 229 255
210 229 255
210 229 255
210 229 255
210 229 255
210 229 255
210 229 255
210 229 255
210 229 255
210 229 255
210 230 255
210 230 255
211 230 255
211 230 255
211 230 255
211 230 255
211 230 255
211 230 255
211 230 255
211 230 255
211 230 255
211 230 255
211 230 255
211 230 255
211 230 255
211 230 255
211 230 255
211 230 255
211 230 255
211 230 255
211 230 255
211 230 255
211 230 255
211 230 255
211 230 255
212 230 255
212 230 255
212 230 255
212 230 255
212 230 255
212 230 255
212 230 255
212 230 255
212 230 255
212 230 255
212 230 255
212 230 255
212 230 255
212 230 255
212 230 255
212 230 255
212 230 255
212 230 255
212 231 255
212 231 255
212 231 255
212 231 255
212 231 255
212 231 255
212 231 255
212 231 255
212 231 255
213 231 255
213 231 255
213 231 255
213 231 255
213 231 255
213 231 255
213 231 255
213 231 255
213 231 255
213 231 255
213 231 255
213 231 255
213 231 255
213 231 255
213 231 255
213 231 255
213 231 255
213 231 255
213 231 255
213 231 255
213 231 255
213 231 255
213 231 255
213 231 255
213 231 255
213 231 255
213 231 255
213 231 255
213 231 255
213 231 255
214 231 255
214 231 255
214 231 255
214 231 255
214 231 255
214 231 255
214 231 255
214 231 255
214 231 255
214 231 255
214 231 255
214 231 255
214 231 255
214 231 255
214 231 255
214 231 255
214 231 255
214 231 255
214 232 255
214 232 255
214 232 255
214 232 255
214 232 255
214 232 255
214 232 255
214 232 255
214 232 255
214 232 255
214 232 255
214 232 255
214 232 255
214 232 255
214 231 255
214 231 255
214 231 255
214 231 255
214 231 255
214 231 255
214 231 255
214 231 255
214 231 255
214 231 255
214 231 255
214 231 255
214 231 255
214 231 255
214 231 255
214 231 255
214 231 255
214 231 255
213 231 255
213 231 255
213 231 255
213 231 255
213 231 255
213 231 255
213 231 255
213 231 255
213 231 255
213 231 255
213 231 255
213 231 255
213 231 255
213 231 255
213 231 255
213 231 255
213 231 255
213 231 255
213 231 255
213 231 255
213 231 255
213 231 255
213 231 255
213 231 255
213 231 255
213 231 255
213 231 255
213 231 255
213 231 255
213 231 255
212 231 255
212 231 255
212 231 255
212 231 255
212 231 255
212 231 255
212 231 255
212 231 255
212 230 255
212 230 255
212 230 255
212 230 255
212 230 255
212 230 255
212 230 255
212 230 255
212 230 255
212 230 255
212 230 255
212 230 255
212 230 255
212 230 255
212 230 255
212 230 255
212 230 255
212 230 255
211 230 255
211 230 255
211 230 255
211 230 255
211 230 255
211 230 255
211 230 255
211 230 255
211 230 255
211 230 255
211 230 255
211 230 255
211 230 255
211 230 255
211 230 255
211 230 255
211 230 255
211 230 255
211 230 255
211 230 255
211 230 255
211 230 255
211 230 255
210 230 255
210 230 255
210 229 255
210 229 255
210 229 255
210 229 255
210 229 255
210 229 255
210 229 255
210 229 255
210 229 255
210 229 255
210 229 255
210 229 255
210 229 255
210 229 255
210 229 255
210 229 255
210 229 255
210 229 255
210 229 255
210 229 255
210 229 255
209 229 255
209 229 255
209 229 255
209 229 255
209 229 255
209 229 255
209 229 255
209 229 255
209 229 255
209 229 255
209 229 255
209 229 255
209 229 255
209 229 255
209 229 255
209 229 255
209 229 255
209 229 255
209 229 255
209 229 255
208 227 254
173 135 151
148 0 0
149 0 0
156 0 0
150 0 0
151 0 0
153 0 0
151 0 0
151 0 0
148 0 0
146 0 0
150 0 0
140 0 0
149 0 0
146 0 0
152 0 0
148 0 0
139 0 0
149 0 0
154 0 0
145 0 0
154 0 0
144 0 0
147 0 0
145 0 0
148 0 0
145 0 0
156 0 0
143 0 0
145 0 0
157 0 0
143 0 0
141 0 0
151 0 0
152 0 0
154 0 0
143 0 0
149 0 0
153 0 0
143 0 0
147 0 0
152 0 0
149 0 0
145 0 0
143 0 0
147 0 0
139 0 0
146 0 0
148 0 0
151 0 0
143 0 0
145 0 0
146 0 0
146 0 0
144 0 0
144 0 0
144 0 0
154 0 0
152 0 0
150 0 0
145 0 0
143 0 0
143 0 0
137 0 0
146 0 0
145 0 0
146 0 0
148 0 0
149 0 0
146 0 0
145 0 0
146 0 0
147 0 0
148 0 0
148 0 0
149 0 0
146 0 0
147 0 0
145 0 0
144 0 0
145 0 0
154 0 0
151 0 0
141 0 0
156 0 0
148 0 0
148 0 0
151 0 0
149 0 0
153 0 0
153 0 0
157 0 0
151 0 0
154 0 0
148 0 0
159 0 0
156 0 0
172 127 142
208 227 254
209 229 255
209 229 255
209 229 255
209 229 255
209 229 255
209 229 255
209 229 255
209 229 255
209 229 255
209 229 255
209 229 255
209 229 255
209 229 255
209 229 255
209 229 255
209 229 255
209 229 255
209 229 255
209 229 255
209 229 255
209 229 255
210 229 255
210 229 255
210 229 255
210 229 255
210 229 255
210 229 255
210 229 255
210 229 255
210 229 255
210 229 255
210 229 255
210 229 255
210 229 255
210 229 255
210 229 255
210 229 255
210 229 255
210 229 255
210 229 255
210 229 255
210 230 255
210 230 255
211 230 255
211 230 255
211 230 255
211 230 255
211 230 255
211 230 255
211 230 255
211 230 255
211 230 255
211 230 255
211 230 255
211 230 255
211 230 255
211 230 255
211 230 255
211 230 255
211 230 255
211 230 255
211 230 255
211 230 255
211 230 255
211 230 255
211 230 255
212 230 255
212 230 255
212 230 255
212 230 255
212 230 255
212 230 255
212 230 255
212 230 255
212 230 255
212 230 255
212 230 255
212 230 255
212 230 255
212 230 255
212 230 255
212 230 255
212 230 255
212 230 255
212 231 255
212 231 255
212 231 255
212 231 255
212 231 255
212 231 255
212 231 255
212 231 255
213 231 255
213 231 255
213 231 255
213 231 255
213 231 255
213 231 255
213 231 255
213 231 255
213 231 255
213 231 255
213 231 255
213 231 255
213 231 255
213 231 255
213 231 255
213 231 255
213 231 255
213 231 255
213 231 255
213 231 255
213 231 255
213 231 255
213 231 255
213 231 255
213 231 255
213 231 255
213 231 255
213 231 255
213 231 255
213 231 255
214 231 255
214 231 255
214 231 255
214 231 255
214 231 255
214 231 255
214 231 255
214 231 255
214 231 255
214 231 255
214 231 255
214 231 255
214 231 255
214 231 255
214 231 255
214 231 255
214 231 255
214 231 255
214 232 255
214 232 255
214 232 255
214 232 255
214 232 255
214 232 255
214 232 255
214 232 255
214 232 255
214 232 255
214 232 255
214 232 255
214 232 255
214 232 255
214 232 255
214 232 255
214 232 255
214 232 255
214 232 255
214 232 255
214 232 255
214 232 255
214 232 255
214 232 255
214 232 255
214 232 255
214 232 255
214 231 255
214 231 255
214 231 255
214 231 255
214 231 255
214 231 255
214 231 255
214 231 255
214 231 255
214 231 255
214 231 255
214 231 255
214 231 255
214 231 255
214 231 255
214 231 255
214 231 255
213 231 255
213 231 255
213 231 255
213 231 255
213 231 255
213 231 255
213 231 255
213 231 255
213 231 255
213 231 255
213 231 255
213 231 255
213 231 255
213 231 255
213 231 255
213 231 255
213 231 255
213 231 255
213 231 255
213 231 255
213 231 255
213 231 255
213 231 255
213 231 255
213 231 255
213 231 255
213 231 255
213 231 255
213 231 255
212 231 255
212 231 255
212 231 255
212 231 255
212 231 255
212 231 255
212 231 255
212 231 255
212 230 255
212 230 255
212 230 255
212 230 255
212 230 255
212 230 255
212 230 255
212 230 255
212 230 255
212 230 255
212 230 255
212 230 255
212 230 255
212 230 255
212 230 255
212 230 255
212 230 255
212 230 255
211 230 255
211 230 255
211 230 255
211 230 255
211 230 255
211 230 255
211 230 255
211 230 255
211 230 255
211 230 255
211 230 255
211 230 255
211 230 255
211 230 255
211 230 255
211 230 255
211 230 255
211 230 255
211 230 255
211 230 255
211 230 255
211 230 255
211 230 255
210 230 255
210 230 255
210 230 255
210 229 255
210 229 255
210 229 255
210 229 255
210 229 255
210 229 255
210 229 255
210 229 255
210 229 255
210 229 255
210 229 255
210 229 255
210 229 255
210 229 255
210 229 255
210 229 255
210 229 255
210 229 255
210 229 255
210 229 255
210 229 255
209 229 255
209 229 255
209 229 255
209 229 255
209 229 255
209 229 255
209 229 255
209 229 255
209 229 255
209 229 255
209 229 255
209 229 255
209 229 255
209 229 255
178 148 165
157 0 0
155 0 0
156 0 0
148 0 0
150 0 0
150 0 0
153 0 0
146 0 0
140 0 0
146 0 0
150 0 0
150 0 0
147 0 0
151 0 0
146 0 0
146 0 0
138 0 0
155 0 0
155 0 0
144 0 0
144 0 0
149 0 0
144 0 0
149 0 0
148 0 0
148 0 0
147 0 0
155 0 0
139 0 0
149 0 0
145 0 0
145 0 0
147 0 0
139 0 0
152 0 0
142 0 0
147 0 0
149 0 0
143 0 0
145 0 0
146 0 0
156 0 0
152 0 0
143 0 0
149 0 0
145 0 0
143 0 0
149 0 0
144 0 0
151 0 0
148 0 0
148 0 0
152 0 0
151 0 0
141 0 0
146 0 0
146 0 0
150 0 0
145 0 0
141 0 0
152 0 0
140 0 0
149 0 0
143 0 0
154 0 0
151 0 0
140 0 0
142 0 0
146 0 0
154 0 0
149 0 0
149 0 0
150 0 0
147 0 0
145 0 0
148 0 0
147 0 0
153 0 0
140 0 0
149 0 0
146 0 0
139 0 0
150 0 0
154 0 0
156 0 0
149 0 0
145 0 0
152 0 0
146 0 0
153 0 0
152 0 0
146 0 0
157 0 0
144 0 0
148 0 0
144 0 0
155 0 0
150 0 0
181 165 184
209 229 255
209 229 255
209 229 255
209 229 255
209 229 255
209 229 255
209 229 255
209 229 255
209 229 255
209 229 255
209 229 255
209 229 255
209 229 255
209 229 255
210 229 255
210 229 255
210 229 255
210 229 255
210 229 255
210 229 255
210 229 255
210 229 255
210 229 255
210 229 255
210 229 255
210 229 255
210 229 255
210 229 255
210 229 255
210 229 255
210 229 255
210 229 255
210 229 255
210 229 255
210 229 255
210 230 255
210 230 255
210 230 255
211 230 255
211 230 255
211 230 255
211 230 255
211 230 255
211 230 255
211 230 255
211 230 255
211 230 255
211 230 255
211 230 255
211 230 255
211 230 255
211 230 255
211 230 255
211 230 255
211 230 255
211 230 255
211 230 255
211 230 255
211 230 255
211 230 255
211 230 255
212 230 255
212 230 255
212 230 255
212 230 255
212 230 255
212 230 255
212 230 255
212 230 255
212 230 255
212 230 255
212 230 255
212 230 255
212 230 255
212 230 255
212 230 255
212 230 255
212 230 255
212 230 255
212 231 255
212 231 255
212 231 255
212 231 255
212 231 255
212 231 255
212 231 255
213 231 255
213 231 255
213 231 255
213 231 255
213 231 255
213 231 255
213 231 255
213 231 255
213 231 255
213 231 255
213 231 255
213 231 255
213 231 255
213 231 255
213 231 255
213 231 255
213 231 255
213 231 255
213 231 255
213 231 255
213 231 255
213 231 255
213 231 255
213 231 255
213 231 255
213 231 255
213 231 255
213 231 255
213 231 255
213 231 255
214 231 255
214 231 255
214 231 255
214 231 255
214 231 255
214 231 255
214 231 255
214 231 255
214 231 255
214 231 255
214 231 255
214 231 255
214 231 255
214 231 255
214 231 255
214 231 255
214 231 255
214 232 255
214 232 255
214 232 255
214 232 255
214 232 255
214 232 255
214 232 255
214 232 255
214 232 255
214 232 255
214 232 255
214 232 255
214 232 255
214 232 255
214 232 255
214 232 255
214 232 255
215 232 255
215 232 255
215 232 255
215 232 255
214 232 255
214 232 255
214 232 255
214 232 255
214 232 255
214 232 255
214 232 255
214 232 255
214 232 255
214 232 255
214 232 255
214 232 255
214 232 255
214 232 255
214 232 255
214 232 255
214 232 255
214 232 255
214 232 255
214 231 255
214 231 255
214 231 255
214 231 255
214 231 255
214 231 255
214 231 255
214 231 255
214 231 255
214 231 255
214 231 255
214 231 255
214 231 255
214 231 255
214 231 255
214 231 255
213 231 255
213 231 255
213 231 255
213 231 255
213 231 255
213 231 255
213 231 255
213 231 255
213 231 255
213 231 255
213 231 255
213 231 255
213 231 255
213 231 255
213 231 255
213 231 255
213 231 255
213 231 255
213 231 255
213 231 255
213 231 255
213 231 255
213 231 255
213 231 255
213 231 255
213 231 255
213 231 255
213 231 255
213 231 255
213 231 255
212 231 255
212 231 255
212 231 255
212 231 255
212 231 255
212 231 255
212 231 255
212 230 255
212 230 255
212 230 255
212 230 255
212 230 255
212 230 255
212 230 255
212 230 255
212 230 255
212 230 255
212 230 255
212 230 255
212 230 255
212 230 255
212 230 255
212 230 255
212 230 255
212 230 255
211 230 255
211 230 255
211 230 255
211 230 255
211 230 255
211 230 255
211 230 255
211 230 255
211 230 255
211 230 255
211 230 255
211 230 255
211 230 255
211 230 255
211 230 255
211 230 255
211 230 255
211 230 255
211 230 255
211 230 255
211 230 255
211 230 255
211 230 255
211 230 255
210 230 255
210 230 255
210 230 255
210 229 255
210 229 255
210 229 255
210 229 255
210 229 255
210 229 255
210 229 255
210 229 255
210 229 255
210 229 255
210 229 255
210 229 255
210 229 255
210 229 255
210 229 255
210 229 255
210 229 255
210 229 255
210 229 255
210 229 255
210 229 255
210 229 255
209 229 255
209 229 255
209 229 255
209 229 255
209 229 255
209 229 255
189 176 196
154 22 25
155 0 0
144 0 0
147 0 0
151 0 0
150 0 0
147 0 0
147 0 0
148 0 0
142 0 0
150 0 0
144 0 0
147 0 0
148 0 0
149 0 0
138 0 0
147 0 0
145 0 0
151 0 0
150 0 0
140 0 0
146 0 0
140 0 0
148 0 0
151 0 0
150 0 0
151 0 0
145 0 0
156 0 0
139 0 0
149 0 0
152 0 0
148 0 0
151 0 0
146 0 0
152 0 0
152 0 0
142 0 0
138 0 0
145 0 0
147 0 0
150 0 0
150 0 0
143 0 0
151 0 0
148 0 0
153 0 0
138 0 0
145 0 0
151 0 0
144 0 0
144 0 0
151 0 0
147 0 0
147 0 0
137 0 0
149 0 0
141 0 0
150 0 0
140 0 0
146 0 0
146 0 0
152 0 0
149 0 0
144 0 0
145 0 0
149 0 0
144 0 0
137 0 0
143 0 0
148 0 0
151 0 0
149 0 0
148 0 0
146 0 0
150 0 0
152 0 0
143 0 0
146 0 0
153 0 0
150 0 0
148 0 0
142 0 0
147 0 0
148 0 0
151 0 0
147 0 0
145 0 0
139 0 0
138 0 0
157 0 0
142 0 0
151 0 0
149 0 0
138 0 0
143 0 0
144 0 0
155 0 0
148 0 0
148 22 25
194 189 211
209 229 255
209 229 255
209 229 255
209 229 255
209 229 255
209 229 255
209 229 255
210 229 255
210 229 255
210 229 255
210 229 255
210 229 255
210 229 255
210 229 255
210 229 255
210 229 255
210 229 255
210 229 255
210 229 255
210 229 255
210 229 255
210 229 255
210 229 255
210 229 255
210 229 255
210 229 255
210 229 255
210 229 255
210 230 255
210 230 255
210 230 255
211 230 255
211 230 255
211 230 255
211 230 255
211 230 255
211 230 255
211 230 255
211 230 255
211 230 255
211 230 255
211 230 255
211 230 255
211 230 255
211 230 255
211 230 255
211 230 255
211 230 255
211 230 255
211 230 255
211 230 255
211 230 255
211 230 255
211 230 255
211 230 255
212 230 255
212 230 255
212 230 255
212 230 255
212 230 255
212 230 255
212 230 255
212 230 255
212 230 255
212 230 255
212 230 255
212 230 255
212 230 255
212 230 255
212 230 255
212 230 255
212 230 255
212 231 255
212 231 255
212 231 255
212 231 255
212 231 255
212 231 255
212 231 255
212 231 255
213 231 255
213 231 255
213 231 255
213 231 255
213 231 255
213 231 255
213 231 255
213 231 255
213 231 255
213 231 255
213 231 255
213 231 255
213 231 255
213 231 255
213 231 255
213 231 255
213 231 255
213 231 255
213 231 255
213 231 255
213 231 255
213 231 255
213 231 255
213 231 255
213 231 255
213 231 255
213 231 255
213 231 255
213 231 255
213 231 255
214 231 255
214 231 255
214 231 255
214 231 255
214 231 255
214 231 255
214 231 255
214 231 255
214 231 255
214 231 255
214 231 255
214 231 255
214 231 255
214 231 255
214 231 255
214 231 255
214 232 255
214 232 255
214 232 255
214 232 255
214 232 255
214 232 255
214 232 255
214 232 255
214 232 255
214 232 255
214 232 255
214 232 255
214 232 255
214 232 255
214 232 255
214 232 255
214 232 255
214 232 255
214 232 255
215 232 255
215 232 255
215 232 255
215 232 255
215 232 255
215 232 255
215 232 255
215 232 255
215 232 255
215 232 255
215 232 255
215 232 255
215 232 255
215 232 255
215 232 255
214 232 255
214 232 255
214 232 255
214 232 255
214 232 255
214 232 255
214 232 255
214 232 255
214 232 255
214 232 255
214 232 255
214 232 255
214 232 255
214 232 255
214 232 255
214 232 255
214 232 255
214 231 255
214 231 255
214 231 255
214 231 255
214 231 255
214 231 255
214 231 255
214 231 255
214 231 255
214 231 255
214 231 255
214 231 255
214 231 255
214 231 255
214 231 255
214 231 255
214 231 255
213 231 255
213 231 255
213 231 255
213 231 255
213 231 255
213 231 255
213 231 255
213 231 255
213 231 255
213 231 255
213 231 255
213 231 255
213 231 255
213 231 255
213 231 255
213 231 255
213 231 255
213 231 255
213 231 255
213 231 255
213 231 255
213 231 255
213 231 255
213 231 255
213 231 255
213 231 255
213 231 255
213 231 255
213 231 255
213 231 255
212 231 255
212 231 255
212 231 255
212 231 255
212 231 255
212 231 255
212 231 255
212 230 255
212 230 255
212 230 255
212 230 255
212 230 255
212 230 255
212 230 255
212 230 255
212 230 255
212 230 255
212 230 255
212 230 255
212 230 255
212 230 255
212 230 255
212 230 255
212 230 255
212 230 255
211 230 255
211 230 255
211 230 255
211 230 255
211 230 255
211 230 255
211 230 255
211 230 255
211 230 255
211 230 255
211 230 255
211 230 255
211 230 255
211 230 255
211 230 255
211 230 255
211 230 255
211 230 255
211 230 255
211 230 255
211 230 255
211 230 255
211 230 255
211 230 255
210 230 255
210 230 255
210 230 255
210 229 255
210 229 255
210 229 255
210 229 255
210 229 255
210 229 255
210 229 255
210 229 255
210 229 255
210 229 255
210 229 255
210 229 255
210 229 255
210 229 255
210 229 255
210 229 255
210 229 255
210 229 255
210 229 255
210 229 255
210 229 255
202 205 228
161 45 51
149 0 0
154 0 0
150 0 0
148 0 0
157 0 0
152 0 0
147 0 0
148 0 0
146 0 0
148 0 0
149 0 0
148 0 0
143 0 0
153 0 0
146 0 0
144 0 0
152 0 0
151 0 0
147 0 0
144 0 0
143 0 0
147 0 0
149 0 0
141 0 0
141 0 0
151 0 0
149 0 0
150 0 0
147 0 0
144 0 0
138 0 0
146 0 0
142 0 0
141 0 0
143 0 0
143 0 0
150 0 0
142 0 0
144 0 0
147 0 0
147 0 0
143 0 0
147 0 0
144 0 0
144 0 0
148 0 0
148 0 0
148 0 0
141 0 0
148 0 0
155 0 0
148 0 0
142 0 0
141 0 0
150 0 0
144 0 0
147 0 0
142 0 0
149 0 0
146 0 0
147 0 0
150 0 0
141 0 0
153 0 0
138 0 0
135 0 0
152 0 0
141 0 0
143 0 0
153 0 0
149 0 0
137 0 0
146 0 0
141 0 0
149 0 0
139 0 0
147 0 0
156 0 0
146 0 0
140 0 0
144 0 0
146 0 0
148 0 0
152 0 0
146 0 0
145 0 0
143 0 0
156 0 0
144 0 0
152 0 0
145 0 0
146 0 0
152 0 0
148 0 0
146 0 0
149 0 0
140 0 0
142 0 0
158 0 0
146 0 0
152 39 44
197 194 217
210 229 255
210 229 255
210 229 255
210 229 255
210 229 255
210 229 255
210 229 255
210 229 255
210 229 255
210 229 255
210 229 255
210 229 255
210 229 255
210 229 255
210 229 255
210 229 255
210 229 255
210 229 255
210 229 255
210 229 255
210 229 255
210 230 255
210 230 255
210 230 255
211 230 255
211 230 255
211 230 255
211 230 255
211 230 255
211 230 255
211 230 255
211 230 255
211 230 255
211 230 255
211 230 255
211 230 255
211 230 255
211 230 255
211 230 255
211 230 255
211 230 255
211 230 255
211 230 255
211 230 255
211 230 255
211 230 255
211 230 255
211 230 255
212 230 255
212 230 255
212 230 255
212 230 255
212 230 255
212 230 255
212 230 255
212 230 255
212 230 255
212 230 255
212 230 255
212 230 255
212 230 255
212 230 255
212 230 255
212 230 255
212 230 255
212 230 255
212 231 255
212 231 255
212 231 255
212 231 255
212 231 255
212 231 255
212 231 255
213 231 255
213 231 255
213 231 255
213 231 255
213 231 255
213 231 255
213 231 255
213 231 255
213 231 255
213 231 255
213 231 255
213 231 255
213 231 255
213 231 255
213 231 255
213 231 255
213 231 255
213 231 255
213 231 255
213 231 255
213 231 255
213 231 255
213 231 255
213 231 255
213 231 255
213 231 255
213 231 255
213 231 255
213 231 255
213 231 255
214 231 255
214 231 255
214 231 255
214 231 255
214 231 255
214 231 255
214 231 255
214 231 255
214 231 255
214 231 255
214 231 255
214 231 255
214 231 255
214 231 255
214 231 255
214 231 255
214 232 255
214 232 255
214 232 255
214 232 255
214 232 255
214 232 255
214 232 255
214 232 255
214 232 255
214 232 255
214 232 255
214 232 255
214 232 255
214 232 255
214 232 255
214 232 255
214 232 255
214 232 255
215 232 255
215 232 255
215 232 255
215 232 255
215 232 255
215 232 255
215 232 255
215 232 255
215 232 255
215 232 255
215 232 255
215 232 255
215 232 255
215 232 255
215 232 255
215 232 255
215 232 255
215 232 255
215 232 255
215 232 255
215 232 255
215 232 255
215 232 255
215 232 255
215 232 255
215 232 255
215 232 255
215 232 255
214 232 255
214 232 255
214 232 255
214 232 255
214 232 255
214 232 255
214 232 255
214 232 255
214 232 255
214 232 255
214 232 255
214 232 255
214 232 255
214 232 255
214 232 255
214 232 255
214 232 255
214 232 255
214 231 255
214 231 255
214 231 255
214 231 255
214 231 255
214 231 255
214 231 255
214 231 255
214 231 255
214 231 255
214 231 255
214 231 255
214 231 255
214 231 255
214 231 255
214 231 255
213 231 255
213 231 255
213 231 255
213 231 255
213 231 255
213 231 255
213 231 255
213 231 255
213 231 255
213 231 255
213 231 255
213 231 255
213 231 255
213 231 255
213 231 255
213 231 255
213 231 255
213 231 255
213 231 255
213 231 255
213 231 255
213 231 255
213 231 255
213 231 255
213 231 255
213 231 255
213 231 255
213 231 255
213 231 255
212 231 255
212 231 255
212 231 255
212 231 255
212 231 255
212 231 255
212 231 255
212 231 255
212 230 255
212 230 255
212 230 255
212 230 255
212 230 255
212 230 255
212 230 255
212 230 255
212 230 255
212 230 255
212 230 255
212 230 255
212 230 255
212 230 255
212 230 255
212 230 255
212 230 255
212 230 255
211 230 255
211 230 255
211 230 255
211 230 255
211 230 255
211 230 255
211 230 255
211 230 255
211 230 255
211 230 255
211 230 255
211 230 255
211 230 255
211 230 255
211 230 255
211 230 255
211 230 255
211 230 255
211 230 255
211 230 255
211 230 255
211 230 255
211 230 255
211 230 255
210 230 255
210 230 255
210 230 255
210 229 255
210 229 255
210 229 255
210 229 255
210 229 255
210 229 255
210 229 255
210 229 255
210 229 255
210 229 255
210 229 255
210 229 255
210 229 255
210 229 255
208 226 252
158 76 84
140 0 0
150 0 0
154 0 0
153 0 0
149 0 0
145 0 0
146 0 0
143 0 0
145 0 0
156 0 0
147 0 0
152 0 0
143 0 0
153 0 0
145 0 0
151 0 0
145 0 0
152 0 0
153 0 0
147 0 0
145 0 0
151 0 0
148 0 0
150 0 0
141 0 0
150 0 0
141 0 0
151 0 0
145 0 0
143 0 0
147 0 0
140 0 0
149 0 0
136 0 0
148 0 0
141 0 0
147 0 0
143 0 0
143 0 0
151 0 0
150 0 0
154 0 0
148 0 0
151 0 0
153 0 0
146 0 0
134 0 0
135 0 0
147 0 0
142 0 0
137 0 0
152 0 0
147 0 0
142 0 0
143 0 0
147 0 0
138 0 0
138 0 0
146 0 0
145 0 0
150 0 0
144 0 0
143 0 0
146 0 0
152 0 0
149 0 0
147 0 0
142 0 0
143 0 0
140 0 0
146 0 0
140 0 0
145 0 0
150 0 0
136 0 0
147 0 0
144 0 0
145 0 0
143 0 0
144 0 0
136 0 0
142 0 0
149 0 0
140 0 0
141 0 0
145 0 0
150 0 0
141 0 0
145 0 0
143 0 0
143 0 0
146 0 0
149 0 0
152 0 0
147 0 0
154 0 0
145 0 0
148 0 0
149 0 0
148 0 0
147 0 0
146 0 0
157 91 102
203 219 244
210 229 255
210 229 255
210 229 255
210 229 255
210 229 255
210 229 255
210 229 255
210 229 255
210 229 255
210 229 255
210 229 255
210 229 255
210 229 255
210 229 255
210 230 255
210 230 255
211 230 255
211 230 255
211 230 255
211 230 255
211 230 255
211 230 255
211 230 255
211 230 255
211 230 255
211 230 255
211 230 255
211 230 255
211 230 255
211 230 255
211 230 255
211 230 255
211 230 255
211 230 255
211 230 255
211 230 255
211 230 255
211 230 255
211 230 255
211 230 255
211 230 255
212 230 255
212 230 255
212 230 255
212 230 255
212 230 255
212 230 255
212 230 255
212 230 255
212 230 255
212 230 255
212 230 255
212 230 255
212 230 255
212 230 255
212 230 255
212 230 255
212 230 255
212 230 255
212 231 255
212 231 255
212 231 255
212 231 255
212 231 255
212 231 255
212 231 255
212 231 255
213 231 255
213 231 255
213 231 255
213 231 255
213 231 255
213 231 255
213 231 255
213 231 255
213 231 255
213 231 255
213 231 255
213 231 255
213 231 255
213 231 255
213 231 255
213 231 255
213 231 255
213 231 255
213 231 255
213 231 255
213 231 255
213 231 255
213 231 255
213 231 255
213 231 255
213 231 255
213 231 255
213 231 255
213 231 255
214 231 255
214 231 255
214 231 255
214 231 255
214 231 255
214 231 255
214 231 255
214 231 255
214 231 255
214 231 255
214 231 255
214 231 255
214 231 255
214 231 255
214 231 255
214 231 255
214 232 255
214 232 255
214 232 255
214 232 255
214 232 255
214 232 255
214 232 255
214 232 255
214 232 255
214 232 255
214 232 255
214 232 255
214 232 255
214 232 255
214 232 255
214 232 255
214 232 255
214 232 255
215 232 255
215 232 255
215 232 255
215 232 255
215 232 255
215 232 255
215 232 255
215 232 255
215 232 255
215 232 255
215 232 255
215 232 255
215 232 255
215 232 255
215 232 255
215 232 255
215 232 255
215 232 255
215 232 255
215 232 255
215 232 255
215 232 255
215 232 255
215 232 255
215 232 255
215 232 255
215 232 255
215 232 255
215 232 255
215 232 255
215 232 255
215 232 255
215 232 255
215 232 255
215 232 255
215 232 255
215 232 255
215 232 255
215 232 255
215 232 255
214 232 255
214 232 255
214 232 255
214 232 255
214 232 255
214 232 255
214 232 255
214 232 255
214 232 255
214 232 255
214 232 255
214 232 255
214 232 255
214 232 255
214 232 255
214 232 255
214 232 255
214 232 255
214 231 255
214 231 255
214 231 255
214 231 255
214 231 255
214 231 255
214 231 255
214 231 255
214 231 255
214 231 255
214 231 255
214 231 255
214 231 255
214 231 255
214 231 255
214 231 255
213 231 255
213 231 255
213 231 255
213 231 255
213 231 255
213 231 255
213 231 255
213 231 255
213 231 255
213 231 255
213 231 255
213 231 255
213 231 255
213 231 255
213 231 255
213 231 255
213 231 255
213 231 255
213 231 255
213 231 255
213 231 255
213 231 255
213 231 255
213 231 255
213 231 255
213 231 255
213 231 255
213 231 255
213 231 255
212 231 255
212 231 255
212 231 255
212 231 255
212 231 255
212 231 255
212 231 255
212 231 255
212 230 255
212 230 255
212 230 255
212 230 255
212 230 255
212 230 255
212 230 255
212 230 255
212 230 255
212 230 255
212 230 255
212 230 255
212 230 255
212 230 255
212 230 255
212 230 255
212 230 255
212 230 255
211 230 255
211 230 255
211 230 255
211 230 255
211 230 255
211 230 255
211 230 255
211 230 255
211 230 255
211 230 255
211 230 255
211 230 255
211 230 255
211 230 255
211 230 255
211 230 255
211 230 255
211 230 255
211 230 255
211 230 255
211 230 255
211 230 255
211 230 255
211 230 255
211 230 255
210 230 255
210 230 255
210 229 255
210 229 255
210 229 255
210 229 255
210 229 255
210 229 255
210 229 255
210 229 255
173 137 153
152 0 0
149 0 0
151 0 0
152 0 0
143 0 0
139 0 0
146 0 0
150 0 0
144 0 0
146 0 0
134 0 0
151 0 0
149 0 0
145 0 0
145 0 0
143 0 0
146 0 0
139 0 0
141 0 0
141 0 0
143 0 0
139 0 0
140 0 0
146 0 0
148 0 0
157 0 0
147 0 0
139 0 0
149 0 0
150 0 0
145 0 0
140 0 0
146 0 0
143 0 0
143 0 0
143 0 0
146 0 0
146 0 0
143 0 0
151 0 0
146 0 0
138 0 0
142 0 0
154 0 0
142 0 0
155 0 0
145 0 0
142 0 0
148 0 0
142 0 0
146 0 0
144 0 0
153 0 0
146 0 0
147 0 0
149 0 0
149 0 0
147 0 0
141 0 0
143 0 0
144 0 0
144 0 0
150 0 0
150 0 0
140 0 0
146 0 0
146 0 0
151 0 0
140 0 0
145 0 0
150 0 0
142 0 0
144 0 0
148 0 0
138 0 0
143 0 0
144 0 0
149 0 0
141 0 0
147 0 0
148 0 0
146 0 0
136 0 0
140 0 0
142 0 0
151 0 0
149 0 0
144 0 0
146 0 0
148 0 0
152 0 0
144 0 0
147 0 0
148 0 0
146 0 0
141 0 0
150 0 0
137 0 0
157 0 0
152 0 0
141 0 0
152 0 0
152 0 0
144 0 0
174 121 135
210 229 255
210 229 255
210 229 255
210 229 255
210 229 255
210 229 255
210 229 255
210 230 255
210 230 255
210 230 255
211 230 255
211 230 255
211 230 255
211 230 255
211 230 255
211 230 255
211 230 255
211 230 255
211 230 255
211 230 255
211 230 255
211 230 255
211 230 255
211 230 255
211 230 255
211 230 255
211 230 255
211 230 255
211 230 255
211 230 255
211 230 255
211 230 255
211 230 255
211 230 255
211 230 255
212 230 255
212 230 255
212 230 255
212 230 255
212 230 255
212 230 255
212 230 255
212 230 255
212 230 255
212 230 255
212 230 255
212 230 255
212 230 255
212 230 255
212 230 255
212 230 255
212 230 255
212 230 255
212 231 255
212 231 255
212 231 255
212 231 255
212 231 255
212 231 255
212 231 255
212 231 255
213 231 255
213 231 255
213 231 255
213 231 255
213 231 255
213 231 255
213 231 255
213 231 255
213 231 255
213 231 255
213 231 255
213 231 255
213 231 255
213 231 255
213 231 255
213 231 255
213 231 255
213 231 255
213 231 255
213 231 255
213 231 255
213 231 255
213 231 255
213 231 255
213 231 255
213 231 255
213 231 255
213 231 255
214 231 255
214 231 255
214 231 255
214 231 255
214 231 255
214 231 255
214 231 255
214 231 255
214 231 255
214 231 255
214 231 255
214 231 255
214 231 255
214 231 255
214 231 255
214 231 255
214 231 255
214 232 255
214 232 255
214 232 255
214 232 255
214 232 255
214 232 255
214 232 255
214 232 255
214 232 255
214 232 255
214 232 255
214 232 255
214 232 255
214 232 255
214 232 255
214 232 255
214 232 255
215 232 255
215 232 255
215 232 255
215 232 255
215 232 255
215 232 255
215 232 255
215 232 255
215 232 255
215 232 255
215 232 255
215 232 255
215 232 255
215 232 255
215 232 255
215 232 255
215 232 255
215 232 255
215 232 255
215 232 255
215 232 255
215 232 255
215 232 255
215 232 255
215 232 255
215 232 255
215 232 255
215 232 255
215 232 255
215 232 255
215 232 255
215 232 255
215 232 255
215 232 255
215 232 255
215 232 255
215 232 255
215 232 255
215 232 255
215 232 255
215 232 255
215 232 255
215 232 255
215 232 255
215 232 255
215 232 255
215 232 255
215 232 255
215 232 255
215 232 255
215 232 255
215 232 255
215 232 255
215 232 255
214 232 255
214 232 255
214 232 255
214 232 255
214 232 255
214 232 255
214 232 255
214 232 255
214 232 255
214 232 255
214 232 255
214 232 255
214 232 255
214 232 255
214 232 255
214 232 255
214 232 255
214 231 255
214 231 255
214 231 255
214 231 255
214 231 255
214 231 255
214 231 255
214 231 255
214 231 255
214 231 255
214 231 255
214 231 255
214 231 255
214 231 255
214 231 255
214 231 255
213 231 255
213 231 255
213 231 255
213 231 255
213 231 255
213 231 255
213 231 255
213 231 255
213 231 255
213 231 255
213 231 255
213 231 255
213 231 255
213 231 255
213 231 255
213 231 255
213 231 255
213 231 255
213 231 255
213 231 255
213 231 255
213 231 255
213 231 255
213 231 255
213 231 255
213 231 255
213 231 255
213 231 255
213 231 255
212 231 255
212 231 255
212 231 255
212 231 255
212 231 255
212 231 255
212 231 255
212 231 255
212 230 255
212 230 255
212 230 255
212 230 255
212 230 255
212 230 255
212 230 255
212 230 255
212 230 255
212 230 255
212 230 255
212 230 255
212 230 255
212 230 255
212 230 255
212 230 255
212 230 255
212 230 255
211 230 255
211 230 255
211 230 255
211 230 255
211 230 255
211 230 255
211 230 255
211 230 255
211 230 255
211 230 255
211 230 255
211 230 255
211 230 255
211 230 255
211 230 255
211 230 255
211 230 255
211 230 255
211 230 255
211 230 255
211 230 255
211 230 255
211 230 255
211 230 255
211 230 255
211 230 255
210 230 255
210 230 255
190 188 209
150 0 0
149 0 0
150 0 0
146 0 0
153 0 0
148 0 0
148 0 0
149 0 0
151 0 0
141 0 0
147 0 0
136 0 0
135 0 0
153 0 0
146 0 0
148 0 0
150 0 0
150 0 0
150 0 0
148 0 0
137 0 0
150 0 0
152 0 0
154 0 0
151 0 0
146 0 0
142 0 0
144 0 0
146 0 0
152 0 0
152 0 0
153 0 0
132 0 0
144 0 0
142 0 0
148 0 0
144 0 0
149 0 0
141 0 0
142 0 0
142 0 0
135 0 0
139 0 0
135 0 0
134 0 0
147 0 0
145 0 0
143 0 0
154 0 0
150 0 0
149 0 0
144 0 0
146 0 0
148 0 0
142 0 0
151 0 0
146 0 0
151 0 0
144 0 0
147 0 0
148 0 0
141 0 0
146 0 0
133 0 0
143 0 0
138 0 0
151 0 0
138 0 0
150 0 0
146 0 0
150 0 0
144 0 0
140 0 0
144 0 0
144 0 0
147 0 0
135 0 0
144 0 0
151 0 0
148 0 0
148 0 0
151 0 0
141 0 0
143 0 0
147 0 0
148 0 0
146 0 0
147 0 0
143 0 0
140 0 0
147 0 0
149 0 0
149 0 0
148 0 0
148 0 0
139 0 0
144 0 0
148 0 0
145 0 0
150 0 0
149 0 0
156 0 0
154 0 0
151 0 0
146 0 0
147 0 0
190 175 194
210 230 255
210 230 255
211 230 255
211 230 255
211 230 255
211 230 255
211 230 255
211 230 255
211 230 255
211 230 255
211 230 255
211 230 255
211 230 255
211 230 255
211 230 255
211 230 255
211 230 255
211 230 255
211 230 255
211 230 255
211 230 255
211 230 255
211 230 255
211 230 255
211 230 255
211 230 255
211 230 255
211 230 255
212 230 255
212 230 255
212 230 255
212 230 255
212 230 255
212 230 255
212 230 255
212 230 255
212 230 255
212 230 255
212 230 255
212 230 255
212 230 255
212 230 255
212 230 255
212 230 255
212 230 255
212 230 255
212 231 255
212 231 255
212 231 255
212 231 255
212 231 255
212 231 255
212 231 255
212 231 255
213 231 255
213 231 255
213 231 255
213 231 255
213 231 255
213 231 255
213 231 255
213 231 255
213 231 255
213 231 255
213 231 255
213 231 255
213 231 255
213 231 255
213 231 255
213 231 255
213 231 255
213 231 255
213 231 255
213 231 255
213 231 255
213 231 255
213 231 255
213 231 255
213 231 255
213 231 255
213 231 255
213 231 255
214 231 255
214 231 255
214 231 255
214 231 255
214 231 255
214 231 255
214 231 255
214 231 255
214 231 255
214 231 255
214 231 255
214 231 255
214 231 255
214 231 255
214 231 255
214 231 255
214 232 255
214 232 255
214 232 255
214 232 255
214 232 255
214 232 255
214 232 255
214 232 255
214 232 255
214 232 255
214 232 255
214 232 255
214 232 255
214 232 255
214 232 255
214 232 255
214 232 255
214 232 255
215 232 255
215 232 255
215 232 255
215 232 255
215 232 255
215 232 255
215 232 255
215 232 255
215 232 255
215 232 255
215 232 255
215 232 255
215 232 255
215 232 255
215 232 255
215 232 255
215 232 255
215 232 255
215 232 255
215 232 255
215 232 255
215 232 255
215 232 255
215 232 255
215 232 255
215 232 255
215 232 255
215 232 255
215 232 255
215 232 255
215 232 255
215 232 255
215 232 255
215 232 255
215 232 255
215 232 255
215 232 255
215 232 255
215 232 255
215 232 255
215 232 255
215 232 255
215 232 255
215 232 255
215 232 255
215 232 255
215 232 255
215 232 255
215 232 255
215 232 255
215 232 255
215 232 255
215 232 255
215 232 255
215 232 255
215 232 255
215 232 255
215 232 255
215 232 255
215 232 255
215 232 255
215 232 255
215 232 255
215 232 255
215 232 255
215 232 255
215 232 255
214 232 255
214 232 255
214 232 255
214 232 255
214 232 255
214 232 255
214 232 255
214 232 255
214 232 255
214 232 255
214 232 255
214 232 255
214 232 255
214 232 255
214 232 255
214 232 255
214 231 255
214 231 255
214 231 255
214 231 255
214 231 255
214 231 255
214 231 255
214 231 255
214 231 255
214 231 255
214 231 255
214 231 255
214 231 255
214 231 255
214 231 255
214 231 255
214 231 255
213 231 255
213 231 255
213 231 255
213 231 255
213 231 255
213 231 255
213 231 255
213 231 255
213 231 255
213 231 255
213 231 255
213 231 255
213 231 255
213 231 255
213 231 255
213 231 255
213 231 255
213 231 255
213 231 255
213 231 255
213 231 255
213 231 255
213 231 255
213 231 255
213 231 255
213 231 255
213 231 255
213 231 255
213 231 255
212 231 255
212 231 255
212 231 255
212 231 255
212 231 255
212 231 255
212 231 255
212 230 255
212 230 255
212 230 255
212 230 255
212 230 255
212 230 255
212 230 255
212 230 255
212 230 255
212 230 255
212 230 255
212 230 255
212 230 255
212 230 255
212 230 255
212 230 255
212 230 255
212 230 255
211 230 255
211 230 255
211 230 255
211 230 255
211 230 255
211 230 255
211 230 255
211 230 255
211 230 255
211 230 255
211 230 255
211 230 255
211 230 255
211 230 255
211 230 255
211 230 255
211 230 255
211 230 255
211 230 255
211 230 255
211 230 255
203 217 241
156 46 51
139 0 0
148 0 0
145 0 0
148 0 0
147 0 0
145 0 0
142 0 0
146 0 0
152 0 0
149 0 0
150 0 0
147 0 0
149 0 0
138 0 0
143 0 0
144 0 0
144 0 0
142 0 0
141 0 0
146 0 0
141 0 0
145 0 0
149 0 0
143 0 0
137 0 0
149 0 0
135 0 0
149 0 0
143 0 0
145 0 0
150 0 0
143 0 0
142 0 0
145 0 0
152 0 0
138 0 0
147 0 0
148 0 0
148 0 0
145 0 0
143 0 0
143 0 0
136 0 0
138 0 0
140 0 0
142 0 0
149 0 0
145 0 0
143 0 0
150 0 0
145 0 0
147 0 0
148 0 0
139 0 0
153 0 0
142 0 0
146 0 0
142 0 0
141 0 0
141 0 0
143 0 0
148 0 0
145 0 0
149 0 0
145 0 0
142 0 0
145 0 0
139 0 0
135 0 0
144 0 0
154 0 0
147 0 0
139 0 0
149 0 0
142 0 0
134 0 0
135 0 0
142 0 0
140 0 0
141 0 0
149 0 0
149 0 0
144 0 0
145 0 0
145 0 0
139 0 0
148 0 0
144 0 0
142 0 0
135 0 0
153 0 0
147 0 0
145 0 0
138 0 0
151 0 0
146 0 0
146 0 0
152 0 0
145 0 0
149 0 0
147 0 0
139 0 0
155 0 0
146 0 0
141 0 0
142 0 0
151 39 44
208 221 246
211 230 255
211 230 255
211 230 255
211 230 255
211 230 255
211 230 255
211 230 255
211 230 255
211 230 255
211 230 255
211 230 255
211 230 255
211 230 255
211 230 255
211 230 255
211 230 255
211 230 255
211 230 255
211 230 255
211 230 255
211 230 255
212 230 255
212 230 255
212 230 255
212 230 255
212 230 255
212 230 255
212 230 255
212 230 255
212 230 255
212 230 255
212 230 255
212 230 255
212 230 255
212 230 255
212 230 255
212 230 255
212 230 255
212 230 255
212 231 255
212 231 255
212 231 255
212 231 255
212 231 255
212 231 255
212 231 255
212 231 255
213 231 255
213 231 255
213 231 255
213 231 255
213 231 255
213 231 255
213 231 255
213 231 255
213 231 255
213 231 255
213 231 255
213 231 255
213 231 255
213 231 255
213 231 255
213 231 255
213 231 255
213 231 255
213 231 255
213 231 255
213 231 255
213 231 255
213 231 255
213 231 255
213 231 255
213 231 255
213 231 255
213 231 255
214 231 255
214 231 255
214 231 255
214 231 255
214 231 255
214 231 255
214 231 255
214 231 255
214 231 255
214 231 255
214 231 255
214 231 255
214 231 255
214 231 255
214 231 255
214 231 255
214 232 255
214 232 255
214 232 255
214 232 255
214 232 255
214 232 255
214 232 255
214 232 255
214 232 255
214 232 255
214 232 255
214 232 255
214 232 255
214 232 255
214 232 255
214 232 255
214 232 255
215 232 255
215 232 255
215 232 255
215 232 255
215 232 255
215 232 255
215 232 255
215 232 255
215 232 255
215 232 255
215 232 255
215 232 255
215 232 255
215 232 255
215 232 255
215 232 255
215 232 255
215 232 255
215 232 255
215 232 255
215 232 255
215 232 255
215 232 255
215 232 255
215 232 255
215 232 255
215 232 255
215 232 255
215 232 255
215 232 255
215 232 255
215 232 255
215 232 255
215 232 255
215 232 255
215 232 255
215 232 255
216 232 255
216 232 255
216 232 255
215 232 255
215 232 255
215 232 255
215 232 255
215 232 255
215 232 255
215 232 255
215 232 255
215 232 255
215 232 255
215 232 255
215 232 255
215 232 255
215 232 255
215 232 255
215 232 255
215 232 255
215 232 255
215 232 255
215 232 255
215 232 255
215 232 255
215 232 255
215 232 255
215 232 255
215 232 255
215 232 255
215 232 255
215 232 255
215 232 255
215 232 255
215 232 255
215 232 255
215 232 255
215 232 255
215 232 255
215 232 255
215 232 255
215 232 255
215 232 255
215 232 255
214 232 255
214 232 255
214 232 255
214 232 255
214 232 255
214 232 255
214 232 255
214 232 255
214 232 255
214 232 255
214 232 255
214 232 255
214 232 255
214 232 255
214 232 255
214 232 255
214 231 255
214 231 255
214 231 255
214 231 255
214 231 255
214 231 255
214 231 255
214 231 255
214 231 255
214 231 255
214 231 255
214 231 255
214 231 255
214 231 255
214 231 255
214 231 255
213 231 255
213 231 255
213 231 255
213 231 255
213 231 255
213 231 255
213 231 255
213 231 255
213 231 255
213 231 255
213 231 255
213 231 255
213 231 255
213 231 255
213 231 255
213 231 255
213 231 255
213 231 255
213 231 255
213 231 255
213 231 255
213 231 255
213 231 255
213 231 255
213 231 255
213 231 255
213 231 255
213 231 255
213 231 255
212 231 255
212 231 255
212 231 255
212 231 255
212 231 255
212 231 255
212 231 255
212 230 255
212 230 255
212 230 255
212 230 255
212 230 255
212 230 255
212 230 255
212 230 255
212 230 255
212 230 255
212 230 255
212 230 255
212 230 255
212 230 255
212 230 255
212 230 255
212 230 255
212 230 255
212 230 255
211 230 255
211 230 255
211 230 255
211 230 255
211 230 255
211 230 255
211 230 255
211 230 255
211 230 255
211 230 255
211 230 255
211 230 255
211 230 255
211 230 255
168 138 153
147 0 0
143 0 0
146 0 0
153 0 0
150 0 0
148 0 0
142 0 0
148 0 0
145 0 0
153 0 0
147 0 0
143 0 0
148 0 0
142 0 0
145 0 0
150 0 0
151 0 0
146 0 0
145 0 0
149 0 0
146 0 0
145 0 0
150 0 0
146 0 0
142 0 0
140 0 0
146 0 0
150 0 0
141 0 0
145 0 0
140 0 0
143 0 0
150 0 0
147 0 0
137 0 0
145 0 0
139 0 0
148 0 0
138 0 0
138 0 0
150 0 0
135 0 0
146 0 0
139 0 0
144 0 0
149 0 0
141 0 0
142 0 0
133 0 0
149 0 0
137 0 0
138 0 0
140 0 0
135 0 0
139 0 0
146 0 0
146 0 0
137 0 0
142 0 0
136 0 0
148 0 0
136 0 0
148 0 0
139 0 0
143 0 0
141 0 0
145 0 0
140 0 0
150 0 0
142 0 0
142 0 0
147 0 0
146 0 0
147 0 0
137 0 0
150 0 0
146 0 0
144 0 0
149 0 0
154 0 0
146 0 0
144 0 0
138 0 0
152 0 0
145 0 0
153 0 0
136 0 0
140 0 0
145 0 0
147 0 0
137 0 0
144 0 0
145 0 0
146 0 0
141 0 0
152 0 0
141 0 0
144 0 0
147 0 0
147 0 0
148 0 0
142 0 0
141 0 0
154 0 0
145 0 0
148 0 0
147 0 0
155 0 0
169 121 135
211 230 255
211 230 255
211 230 255
211 230 255
211 230 255
211 230 255
211 230 255
211 230 255
211 230 255
211 230 255
211 230 255
211 230 255
211 230 255
212 230 255
212 230 255
212 230 255
212 230 255
212 230 255
212 230 255
212 230 255
212 230 255
212 230 255
212 230 255
212 230 255
212 230 255
212 230 255
212 230 255
212 230 255
212 230 255
212 230 255
212 230 255
212 230 255
212 231 255
212 231 255
212 231 255
212 231 255
212 231 255
212 231 255
212 231 255
212 231 255
213 231 255
213 231 255
213 231 255
213 231 255
213 231 255
213 231 255
213 231 255
213 231 255
213 231 255
213 231 255
213 231 255
213 231 255
213 231 255
213 231 255
213 231 255
213 231 255
213 231 255
213 231 255
213 231 255
213 231 255
213 231 255
213 231 255
213 231 255
213 231 255
213 231 255
213 231 255
213 231 255
213 231 255
213 231 255
214 231 255
214 231 255
214 231 255
214 231 255
214 231 255
214 231 255
214 231 255
214 231 255
214 231 255
214 231 255
214 231 255
214 231 255
214 231 255
214 231 255
214 231 255
214 231 255
214 232 255
214 232 255
214 232 255
214 232 255
214 232 255
214 232 255
214 232 255
214 232 255
214 232 255
214 232 255
214 232 255
214 232 255
214 232 255
214 232 255
214 232 255
214 232 255
214 232 255
215 232 255
215 232 255
215 232 255
215 232 255
215 232 255
215 232 255
215 232 255
215 232 255
215 232 255
215 232 255
215 232 255
215 232 255
215 232 255
215 232 255
215 232 255
215 232 255
215 232 255
215 232 255
215 232 255
215 232 255
215 232 255
215 232 255
215 232 255
215 232 255
215 232 255
215 232 255
215 232 255
215 232 255
215 232 255
215 232 255
215 232 255
215 232 255
215 232 255
215 232 255
215 232 255
215 232 255
215 232 255
215 232 255
215 232 255
215 232 255
216 232 255
216 232 255
216 232 255
216 232 255
216 232 255
216 232 255
216 232 255
216 232 255
216 232 255
216 232 255
216 232 255
216 232 255
216 232 255
215 232 255
215 232 255
215 232 255
215 232 255
215 232 255
215 232 255
215 232 255
215 232 255
215 232 255
215 232 255
215 232 255
215 232 255
215 232 255
215 232 255
215 232 255
215 232 255
215 232 255
215 232 255
215 232 255
215 232 255
215 232 255
215 232 255
215 232 255
215 232 255
215 232 255
215 232 255
215 232 255
215 232 255
215 232 255
215 232 255
215 232 255
215 232 255
215 232 255
215 232 255
215 232 255
215 232 255
215 232 255
215 232 255
215 232 255
215 232 255
214 232 255
214 232 255
214 232 255
214 232 255
214 232 255
214 232 255
214 232 255
214 232 255
214 232 255
214 232 255
214 232 255
214 232 255
214 232 255
214 232 255
214 232 255
214 232 255
214 232 255
214 231 255
214 231 255
214 231 255
214 231 255
214 231 255
214 231 255
214 231 255
214 231 255
214 231 255
214 231 255
214 231 255
214 231 255
214 231 255
214 231 255
214 231 255
214 231 255
213 231 255
213 231 255
213 231 255
213 231 255
213 231 255
213 231 255
213 231 255
213 231 255
213 231 255
213 231 255
213 231 255
213 231 255
213 231 255
213 231 255
213 231 255
213 231 255
213 231 255
213 231 255
213 231 255
213 231 255
213 231 255
213 231 255
213 231 255
213 231 255
213 231 255
213 231 255
213 231 255
213 231 255
212 231 255
212 231 255
212 231 255
212 231 255
212 231 255
212 231 255
212 231 255
212 231 255
212 230 255
212 230 255
212 230 255
212 230 255
212 230 255
212 230 255
212 230 255
212 230 255
212 230 255
212 230 255
212 230 255
212 230 255
212 230 255
212 230 255
212 230 255
212 230 255
212 230 255
212 230 255
212 230 255
212 230 255
211 230 255
211 230 255
211 230 255
211 230 255
211 230 255
189 180 199
150 0 0
146 0 0
143 0 0
147 0 0
148 0 0
138 0 0
141 0 0
146 0 0
150 0 0
148 0 0
144 0 0
140 0 0
140 0 0
147 0 0
146 0 0
143 0 0
142 0 0
141 0 0
148 0 0
142 0 0
139 0 0
144 0 0
142 0 0
138 0 0
146 0 0
153 0 0
142 0 0
145 0 0
144 0 0
145 0 0
140 0 0
142 0 0
145 0 0
149 0 0
141 0 0
149 0 0
140 0 0
144 0 0
141 0 0
146 0 0
146 0 0
143 0 0
140 0 0
142 0 0
144 0 0
142 0 0
140 0 0
129 0 0
141 0 0
157 0 0
144 0 0
152 0 0
141 0 0
141 0 0
133 0 0
149 0 0
151 0 0
138 0 0
133 0 0
147 0 0
143 0 0
144 0 0
150 0 0
148 0 0
146 0 0
140 0 0
147 0 0
142 0 0
136 0 0
145 0 0
143 0 0
144 0 0
147 0 0
147 0 0
145 0 0
133 0 0
155 0 0
152 0 0
143 0 0
147 0 0
146 0 0
143 0 0
130 0 0
143 0 0
137 0 0
150 0 0
142 0 0
145 0 0
147 0 0
143 0 0
140 0 0
146 0 0
136 0 0
143 0 0
146 0 0
146 0 0
139 0 0
136 0 0
149 0 0
151 0 0
156 0 0
147 0 0
144 0 0
148 0 0
141 0 0
149 0 0
147 0 0
144 0 0
145 0 0
155 0 0
192 185 206
211 230 255
211 230 255
211 230 255
211 230 255
211 230 255
212 230 255
212 230 255
212 230 255
212 230 255
212 230 255
212 230 255
212 230 255
212 230 255
212 230 255
212 230 255
212 230 255
212 230 255
212 230 255
212 230 255
212 230 255
212 230 255
212 230 255
212 230 255
212 230 255
212 230 255
212 231 255
212 231 255
212 231 255
212 231 255
212 231 255
212 231 255
212 231 255
212 231 255
213 231 255
213 231 255
213 231 255
213 231 255
213 231 255
213 231 255
213 231 255
213 231 255
213 231 255
213 231 255
213 231 255
213 231 255
213 231 255
213 231 255
213 231 255
213 231 255
213 231 255
213 231 255
213 231 255
213 231 255
213 231 255
213 231 255
213 231 255
213 231 255
213 231 255
213 231 255
213 231 255
213 231 255
213 231 255
214 231 255
214 231 255
214 231 255
214 231 255
214 231 255
214 231 255
214 231 255
214 231 255
214 231 255
214 231 255
214 231 255
214 231 255
214 231 255
214 231 255
214 231 255
214 232 255
214 232 255
214 232 255
214 232 255
214 232 255
214 232 255
214 232 255
214 232 255
214 232 255
214 232 255
214 232 255
214 232 255
214 232 255
214 232 255
214 232 255
214 232 255
214 232 255
215 232 255
215 232 255
215 232 255
215 232 255
215 232 255
215 232 255
215 232 255
215 232 255
215 232 255
215 232 255
215 232 255
215 232 255
215 232 255
215 232 255
215 232 255
215 232 255
215 232 255
215 232 255
215 232 255
215 232 255
215 232 255
215 232 255
215 232 255
215 232 255
215 232 255
215 232 255
215 232 255
215 232 255
215 232 255
215 232 255
215 232 255
215 232 255
215 232 255
215 232 255
215 232 255
215 232 255
215 232 255
215 232 255
215 232 255
216 232 255
216 232 255
216 232 255
216 232 255
216 232 255
216 232 255
216 232 255
216 232 255
216 232 255
216 232 255
216 232 255
216 233 255
216 233 255
216 233 255
216 232 255
216 232 255
216 232 255
216 232 255
216 232 255
216 232 255
216 232 255
216 232 255
216 232 255
216 232 255
216 232 255
216 232 255
216 232 255
216 232 255
215 232 255
215 232 255
215 232 255
215 232 255
215 232 255
215 232 255
215 232 255
215 232 255
215 232 255
215 232 255
215 232 255
215 232 255
215 232 255
215 232 255
215 232 255
215 232 255
215 232 255
215 232 255
215 232 255
215 232 255
215 232 255
215 232 255
215 232 255
215 232 255
215 232 255
215 232 255
215 232 255
215 232 255
215 232 255
215 232 255
215 232 255
215 232 255
215 232 255
215 232 255
215 232 255
215 232 255
215 232 255
215 232 255
215 232 255
215 232 255
214 232 255
214 232 255
214 232 255
214 232 255
214 232 255
214 232 255
214 232 255
214 232 255
214 232 255
214 232 255
214 232 255
214 232 255
214 232 255
214 232 255
214 232 255
214 232 255
214 231 255
214 231 255
214 231 255
214 231 255
214 231 255
214 231 255
214 231 255
214 231 255
214 231 255
214 231 255
214 231 255
214 231 255
214 231 255
214 231 255
214 231 255
214 231 255
213 231 255
213 231 255
213 231 255
213 231 255
213 231 255
213 231 255
213 231 255
213 231 255
213 231 255
213 231 255
213 231 255
213 231 255
213 231 255
213 231 255
213 231 255
213 231 255
213 231 255
213 231 255
213 231 255
213 231 255
213 231 255
213 231 255
213 231 255
213 231 255
213 231 255
213 231 255
213 231 255
213 231 255
213 231 255
212 231 255
212 231 255
212 231 255
212 231 255
212 231 255
212 231 255
212 231 255
212 231 255
212 231 255
212 230 255
212 230 255
212 230 255
212 230 255
212 230 255
212 230 255
212 230 255
212 230 255
212 230 255
212 230 255
212 230 255
212 230 255
212 230 255
212 230 255
212 230 255
212 230 255
210 224 249
157 76 84
143 0 0
146 0 0
156 0 0
145 0 0
146 0 0
147 0 0
144 0 0
144 0 0
151 0 0
144 0 0
138 0 0
143 0 0
139 0 0
142 0 0
139 0 0
135 0 0
141 0 0
144 0 0
143 0 0
138 0 0
145 0 0
143 0 0
152 0 0
141 0 0
144 0 0
150 0 0
141 0 0
146 0 0
145 0 0
146 0 0
141 0 0
141 0 0
140 0 0
147 0 0
139 0 0
128 0 0
148 0 0
142 0 0
143 0 0
151 0 0
142 0 0
144 0 0
149 0 0
148 0 0
150 0 0
144 0 0
147 0 0
138 0 0
147 0 0
132 0 0
142 0 0
145 0 0
140 0 0
144 0 0
144 0 0
144 0 0
139 0 0
146 0 0
143 0 0
136 0 0
147 0 0
145 0 0
142 0 0
136 0 0
141 0 0
148 0 0
143 0 0
145 0 0
146 0 0
149 0 0
147 0 0
138 0 0
142 0 0
138 0 0
147 0 0
148 0 0
146 0 0
143 0 0
140 0 0
143 0 0
141 0 0
143 0 0
142 0 0
155 0 0
141 0 0
146 0 0
148 0 0
136 0 0
142 0 0
141 0 0
150 0 0
149 0 0
139 0 0
139 0 0
140 0 0
144 0 0
148 0 0
154 0 0
147 0 0
144 0 0
146 0 0
148 0 0
145 0 0
142 0 0
145 0 0
143 0 0
145 0 0
147 0 0
146 0 0
146 0 0
161 65 72
209 224 249
212 230 255
212 230 255
212 230 255
212 230 255
212 230 255
212 230 255
212 230 255
212 230 255
212 230 255
212 230 255
212 230 255
212 230 255
212 230 255
212 230 255
212 230 255
212 230 255
212 230 255
212 231 255
212 231 255
212 231 255
212 231 255
212 231 255
212 231 255
212 231 255
213 231 255
213 231 255
213 231 255
213 231 255
213 231 255
213 231 255
213 231 255
213 231 255
213 231 255
213 231 255
213 231 255
213 231 255
213 231 255
213 231 255
213 231 255
213 231 255
213 231 255
213 231 255
213 231 255
213 231 255
213 231 255
213 231 255
213 231 255
213 231 255
213 231 255
213 231 255
213 231 255
213 231 255
213 231 255
213 231 255
214 231 255
214 231 255
214 231 255
214 231 255
214 231 255
214 231 255
214 231 255
214 231 255
214 231 255
214 231 255
214 231 255
214 231 255
214 231 255
214 231 255
214 231 255
214 231 255
214 232 255
214 232 255
214 232 255
214 232 255
214 232 255
214 232 255
214 232 255
214 232 255
214 232 255
214 232 255
214 232 255
214 232 255
214 232 255
214 232 255
214 232 255
215 232 255
215 232 255
215 232 255
215 232 255
215 232 255
215 232 255
215 232 255
215 232 255
215 232 255
215 232 255
215 232 255
215 232 255
215 232 255
215 232 255
215 232 255
215 232 255
215 232 255
215 232 255
215 232 255
215 232 255
215 232 255
215 232 255
215 232 255
215 232 255
215 232 255
215 232 255
215 232 255
215 232 255
215 232 255
215 232 255
215 232 255
215 232 255
215 232 255
215 232 255
215 232 255
215 232 255
215 232 255
215 232 255
215 232 255
215 232 255
216 232 255
216 232 255
216 232 255
216 232 255
216 232 255
216 232 255
216 232 255
216 232 255
216 232 255
216 232 255
216 232 255
216 232 255
216 232 255
216 232 255
216 233 255
216 233 255
216 233 255
216 233 255
216 233 255
216 233 255
216 233 255
216 233 255
216 233 255
216 233 255
216 233 255
216 233 255
216 233 255
216 233 255
216 233 255
216 232 255
216 232 255
216 232 255
216 232 255
216 232 255
216 232 255
216 232 255
216 232 255
216 232 255
216 232 255
216 232 255
216 232 255
216 232 255
216 232 255
216 232 255
215 232 255
215 232 255
215 232 255
215 232 255
215 232 255
215 232 255
215 232 255
215 232 255
215 232 255
215 232 255
215 232 255
215 232 255
215 232 255
215 232 255
215 232 255
215 232 255
215 232 255
215 232 255
215 232 255
215 232 255
215 232 255
215 232 255
215 232 255
215 232 255
215 232 255
215 232 255
215 232 255
215 232 255
215 232 255
215 232 255
215 232 255
215 232 255
215 232 255
215 232 255
215 232 255
215 232 255
215 232 255
215 232 255
215 232 255
214 232 255
214 232 255
214 232 255
214 232 255
214 232 255
214 232 255
214 232 255
214 232 255
214 232 255
214 232 255
214 232 255
214 232 255
214 232 255
214 232 255
214 232 255
214 232 255
214 231 255
214 231 255
214 231 255
214 231 255
214 231 255
214 231 255
214 231 255
214 231 255
214 231 255
214 231 255
214 231 255
214 231 255
214 231 255
214 231 255
214 231 255
214 231 255
213 231 255
213 231 255
213 231 255
213 231 255
213 231 255
213 231 255
213 231 255
213 231 255
213 231 255
213 231 255
213 231 255
213 231 255
213 231 255
213 231 255
213 231 255
213 231 255
213 231 255
213 231 255
213 231 255
213 231 255
213 231 255
213 231 255
213 231 255
213 231 255
213 231 255
213 231 255
213 231 255
213 231 255
213 231 255
212 231 255
212 231 255
212 231 255
212 231 255
212 231 255
212 231 255
212 231 255
212 231 255
212 230 255
212 230 255
212 230 255
212 230 255
212 230 255
212 230 255
212 230 255
212 230 255
212 230 255
179 161 179
145 0 0
137 0 0
152 0 0
138 0 0
153 0 0
134 0 0
143 0 0
147 0 0
142 0 0
144 0 0
148 0 0
148 0 0
146 0 0
137 0 0
138 0 0
138 0 0
143 0 0
149 0 0
147 0 0
141 0 0
153 0 0
144 0 0
146 0 0
142 0 0
148 0 0
139 0 0
144 0 0
144 0 0
147 0 0
143 0 0
144 0 0
136 0 0
135 0 0
144 0 0
130 0 0
136 0 0
139 0 0
144 0 0
139 0 0
141 0 0
146 0 0
148 0 0
137 0 0
136 0 0
154 0 0
138 0 0
128 0 0
140 0 0
145 0 0
144 0 0
137 0 0
147 0 0
131 0 0
138 0 0
138 0 0
143 0 0
136 0 0
146 0 0
147 0 0
142 0 0
137 0 0
139 0 0
141 0 0
140 0 0
141 0 0
138 0 0
146 0 0
145 0 0
145 0 0
143 0 0
149 0 0
146 0 0
141 0 0
147 0 0
145 0 0
139 0 0
148 0 0
141 0 0
141 0 0
139 0 0
143 0 0
149 0 0
143 0 0
144 0 0
142 0 0
141 0 0
140 0 0
144 0 0
144 0 0
143 0 0
136 0 0
149 0 0
146 0 0
139 0 0
141 0 0
143 0 0
143 0 0
140 0 0
150 0 0
141 0 0
146 0 0
147 0 0
138 0 0
139 0 0
151 0 0
142 0 0
148 0 0
146 0 0
146 0 0
144 0 0
144 0 0
143 0 0
178 154 171
212 230 255
212 230 255
212 230 255
212 230 255
212 230 255
212 230 255
212 230 255
212 230 255
212 230 255
212 231 255
212 231 255
212 231 255
212 231 255
212 231 255
212 231 255
212 231 255
212 231 255
213 231 255
213 231 255
213 231 255
213 231 255
213 231 255
213 231 255
213 231 255
213 231 255
213 231 255
213 231 255
213 231 255
213 231 255
213 231 255
213 231 255
213 231 255
213 231 255
213 231 255
213 231 255
213 231 255
213 231 255
213 231 255
213 231 255
213 231 255
213 231 255
213 231 255
213 231 255
213 231 255
213 231 255
213 231 255
213 231 255
214 231 255
214 231 255
214 231 255
214 231 255
214 231 255
214 231 255
214 231 255
214 231 255
214 231 255
214 231 255
214 231 255
214 231 255
214 231 255
214 231 255
214 231 255
214 232 255
214 232 255
214 232 255
214 232 255
214 232 255
214 232 255
214 232 255
214 232 255
214 232 255
214 232 255
214 232 255
214 232 255
214 232 255
214 232 255
214 232 255
214 232 255
214 232 255
215 232 255
215 232 255
215 232 255
215 232 255
215 232 255
215 232 255
215 232 255
215 232 255
215 232 255
215 232 255
215 232 255
215 232 255
215 232 255
215 232 255
215 232 255
215 232 255
215 232 255
215 232 255
215 232 255
215 232 255
215 232 255
215 232 255
215 232 255
215 232 255
215 232 255
215 232 255
215 232 255
215 232 255
215 232 255
215 232 255
215 232 255
215 232 255
215 232 255
215 232 255
215 232 255
215 232 255
215 232 255
215 232 255
216 232 255
216 232 255
216 232 255
216 232 255
216 232 255
216 232 255
216 232 255
216 232 255
216 232 255
216 232 255
216 232 255
216 232 255
216 232 255
216 232 255
216 233 255
216 233 255
216 233 255
216 233 255
216 233 255
216 233 255
216 233 255
216 233 255
216 233 255
216 233 255
216 233 255
216 233 255
216 233 255
216 233 255
216 233 255
216 233 255
216 233 255
216 233 255
216 233 255
216 233 255
216 233 255
216 233 255
216 233 255
216 233 255
216 233 255
216 233 255
216 233 255
216 233 255
216 233 255
216 233 255
216 233 255
216 232 255
216 232 255
216 232 255
216 232 255
216 232 255
216 232 255
216 232 255
216 232 255
216 232 255
216 232 255
216 232 255
216 232 255
216 232 255
216 232 255
215 232 255
215 232 255
215 232 255
215 232 255
215 232 255
215 232 255
215 232 255
215 232 255
215 232 255
215 232 255
215 232 255
215 232 255
215 232 255
215 232 255
215 232 255
215 232 255
215 232 255
215 232 255
215 232 255
215 232 255
215 232 255
215 232 255
215 232 255
215 232 255
215 232 255
215 232 255
215 232 255
215 232 255
215 232 255
215 232 255
215 232 255
215 232 255
215 232 255
215 232 255
215 232 255
215 232 255
215 232 255
215 232 255
215 232 255
214 232 255
214 232 255
214 232 255
214 232 255
214 232 255
214 232 255
214 232 255
214 232 255
214 232 255
214 232 255
214 232 255
214 232 255
214 232 255
214 232 255
214 232 255
214 232 255
214 231 255
214 231 255
214 231 255
214 231 255
214 231 255
214 231 255
214 231 255
214 231 255
214 231 255
214 231 255
214 231 255
214 231 255
214 231 255
214 231 255
214 231 255
214 231 255
213 231 255
213 231 255
213 231 255
213 231 255
213 231 255
213 231 255
213 231 255
213 231 255
213 231 255
213 231 255
213 231 255
213 231 255
213 231 255
213 231 255
213 231 255
213 231 255
213 231 255
213 231 255
213 231 255
213 231 255
213 231 255
213 231 255
213 231 255
213 231 255
213 231 255
213 231 255
213 231 255
213 231 255
213 231 255
212 231 255
212 231 255
212 231 255
212 231 255
212 231 255
212 231 255
212 231 255
212 231 255
212 231 255
207 220 244
148 23 25
147 0 0
151 0 0
137 0 0
145 0 0
148 0 0
147 0 0
145 0 0
143 0 0
139 0 0
140 0 0
140 0 0
147 0 0
149 0 0
149 0 0
150 0 0
140 0 0
138 0 0
141 0 0
132 0 0
144 0 0
143 0 0
146 0 0
151 0 0
143 0 0
148 0 0
139 0 0
148 0 0
143 0 0
144 0 0
148 0 0
139 0 0
144 0 0
143 0 0
148 0 0
138 0 0
139 0 0
141 0 0
135 0 0
148 0 0
145 0 0
144 0 0
145 0 0
148 0 0
145 0 0
142 0 0
146 0 0
138 0 0
140 0 0
138 0 0
138 0 0
139 0 0
139 0 0
147 0 0
142 0 0
137 0 0
136 0 0
141 0 0
142 0 0
138 0 0
139 0 0
141 0 0
132 0 0
137 0 0
147 0 0
142 0 0
137 0 0
139 0 0
141 0 0
135 0 0
140 0 0
144 0 0
147 0 0
149 0 0
138 0 0
143 0 0
142 0 0
141 0 0
141 0 0
145 0 0
146 0 0
138 0 0
136 0 0
135 0 0
133 0 0
141 0 0
143 0 0
141 0 0
140 0 0
135 0 0
137 0 0
141 0 0
135 0 0
146 0 0
146 0 0
129 0 0
146 0 0
135 0 0
141 0 0
145 0 0
152 0 0
143 0 0
148 0 0
137 0 0
146 0 0
147 0 0
140 0 0
140 0 0
144 0 0
147 0 0
148 0 0
143 0 0
141 0 0
152 56 62
207 221 245
212 231 255
212 231 255
212 231 255
212 231 255
212 231 255
212 231 255
212 231 255
212 231 255
213 231 255
213 231 255
213 231 255
213 231 255
213 231 255
213 231 255
213 231 255
213 231 255
213 231 255
213 231 255
213 231 255
213 231 255
213 231 255
213 231 255
213 231 255
213 231 255
213 231 255
213 231 255
213 231 255
213 231 255
213 231 255
213 231 255
213 231 255
213 231 255
213 231 255
213 231 255
213 231 255
213 231 255
213 231 255
213 231 255
214 231 255
214 231 255
214 231 255
214 231 255
214 231 255
214 231 255
214 231 255
214 231 255
214 231 255
214 231 255
214 231 255
214 231 255
214 231 255
214 231 255
214 231 255
214 231 255
214 232 255
214 232 255
214 232 255
214 232 255
214 232 255
214 232 255
214 232 255
214 232 255
214 232 255
214 232 255
214 232 255
214 232 255
214 232 255
214 232 255
214 232 255
214 232 255
215 232 255
215 232 255
215 232 255
215 232 255
215 232 255
215 232 255
215 232 255
215 232 255
215 232 255
215 232 255
215 232 255
215 232 255
215 232 255
215 232 255
215 232 255
215 232 255
215 232 255
215 232 255
215 232 255
215 232 255
215 232 255
215 232 255
215 232 255
215 232 255
215 232 255
215 232 255
215 232 255
215 232 255
215 232 255
215 232 255
215 232 255
215 232 255
215 232 255
215 232 255
215 232 255
215 232 255
215 232 255
215 232 255
215 232 255
216 232 255
216 232 255
216 232 255
216 232 255
216 232 255
216 232 255
216 232 255
216 232 255
216 232 255
216 232 255
216 232 255
216 232 255
216 232 255
216 232 255
216 233 255
216 233 255
216 233 255
216 233 255
216 233 255
216 233 255
216 233 255
216 233 255
216 233 255
216 233 255
216 233 255
216 233 255
216 233 255
216 233 255
216 233 255
216 233 255
216 233 255
216 233 255
216 233 255
216 233 255
216 233 255
216 233 255
216 233 255
216 233 255
216 233 255
216 233 255
216 233 255
216 233 255
216 233 255
216 233 255
216 233 255
216 233 255
216 233 255
216 233 255
216 233 255
216 233 255
216 233 255
216 233 255
216 233 255
216 233 255
216 233 255
216 233 255
216 233 255
216 233 255
216 233 255
216 233 255
216 232 255
216 232 255
216 232 255
216 232 255
216 232 255
216 232 255
216 232 255
216 232 255
216 232 255
216 232 255
216 232 255
216 232 255
216 232 255
216 232 255
215 232 255
215 232 255
215 232 255
215 232 255
215 232 255
215 232 255
215 232 255
215 232 255
215 232 255
215 232 255
215 232 255
215 232 255
215 232 255
215 232 255
215 232 255
215 232 255
215 232 255
215 232 255
215 232 255
215 232 255
215 232 255
215 232 255
215 232 255
215 232 255
215 232 255
215 232 255
215 232 255
215 232 255
215 232 255
215 232 255
215 232 255
215 232 255
215 232 255
215 232 255
215 232 255
215 232 255
215 232 255
215 232 255
214 232 255
214 232 255
214 232 255
214 232 255
214 232 255
214 232 255
214 232 255
214 232 255
214 232 255
214 232 255
214 232 255
214 232 255
214 232 255
214 232 255
214 232 255
214 232 255
214 231 255
214 231 255
214 231 255
214 231 255
214 231 255
214 231 255
214 231 255
214 231 255
214 231 255
214 231 255
214 231 255
214 231 255
214 231 255
214 231 255
214 231 255
214 231 255
213 231 255
213 231 255
213 231 255
213 231 255
213 231 255
213 231 255
213 231 255
213 231 255
213 231 255
213 231 255
213 231 255
213 231 255
213 231 255
213 231 255
213 231 255
213 231 255
213 231 255
213 231 255
213 231 255
213 231 255
213 231 255
213 231 255
213 231 255
213 231 255
213 231 255
213 231 255
213 231 255
213 231 255
213 231 255
213 231 255
213 231 255
172 134 149
147 0 0
144 0 0
140 0 0
134 0 0
142 0 0
143 0 0
143 0 0
138 0 0
144 0 0
142 0 0
138 0 0
143 0 0
142 0 0
146 0 0
143 0 0
145 0 0
136 0 0
143 0 0
143 0 0
143 0 0
144 0 0
140 0 0
141 0 0
144 0 0
146 0 0
135 0 0
146 0 0
138 0 0
150 0 0
144 0 0
150 0 0
142 0 0
145 0 0
143 0 0
139 0 0
149 0 0
135 0 0
139 0 0
131 0 0
133 0 0
143 0 0
144 0 0
138 0 0
140 0 0
143 0 0
140 0 0
134 0 0
138 0 0
139 0 0
142 0 0
149 0 0
139 0 0
144 0 0
148 0 0
137 0 0
151 0 0
141 0 0
144 0 0
142 0 0
137 0 0
147 0 0
139 0 0
149 0 0
136 0 0
142 0 0
144 0 0
142 0 0
139 0 0
154 0 0
137 0 0
131 0 0
135 0 0
135 0 0
139 0 0
148 0 0
138 0 0
137 0 0
136 0 0
144 0 0
147 0 0
147 0 0
146 0 0
145 0 0
142 0 0
146 0 0
145 0 0
148 0 0
144 0 0
143 0 0
149 0 0
141 0 0
143 0 0
142 0 0
140 0 0
132 0 0
149 0 0
137 0 0
145 0 0
141 0 0
142 0 0
143 0 0
142 0 0
155 0 0
139 0 0
143 0 0
142 0 0
137 0 0
133 0 0
144 0 0
145 0 0
148 0 0
149 0 0
144 0 0
140 0 0
170 134 149
213 231 255
213 231 255
213 231 255
213 231 255
213 231 255
213 231 255
213 231 255
213 231 255
213 231 255
213 231 255
213 231 255
213 231 255
213 231 255
213 231 255
213 231 255
213 231 255
213 231 255
213 231 255
213 231 255
213 231 255
213 231 255
213 231 255
213 231 255
213 231 255
213 231 255
213 231 255
213 231 255
213 231 255
213 231 255
213 231 255
213 231 255
214 231 255
214 231 255
214 231 255
214 231 255
214 231 255
214 231 255
214 231 255
214 231 255
214 231 255
214 231 255
214 231 255
214 231 255
214 231 255
214 231 255
214 231 255
214 231 255
214 232 255
214 232 255
214 232 255
214 232 255
214 232 255
214 232 255
214 232 255
214 232 255
214 232 255
214 232 255
214 232 255
214 232 255
214 232 255
214 232 255
214 232 255
214 232 255
215 232 255
215 232 255
215 232 255
215 232 255
215 232 255
215 232 255
215 232 255
215 232 255
215 232 255
215 232 255
215 232 255
215 232 255
215 232 255
215 232 255
215 232 255
215 232 255
215 232 255
215 232 255
215 232 255
215 232 255
215 232 255
215 232 255
215 232 255
215 232 255
215 232 255
215 232 255
215 232 255
215 232 255
215 232 255
215 232 255
215 232 255
215 232 255
215 232 255
215 232 255
215 232 255
215 232 255
215 232 255
215 232 255
216 232 255
216 232 255
216 232 255
216 232 255
216 232 255
216 232 255
216 232 255
216 232 255
216 232 255
216 232 255
216 232 255
216 232 255
216 232 255
216 233 255
216 233 255
216 233 255
216 233 255
216 233 255
216 233 255
216 233 255
216 233 255
216 233 255
216 233 255
216 233 255
216 233 255
216 233 255
216 233 255
216 233 255
216 233 255
216 233 255
216 233 255
216 233 255
216 233 255
216 233 255
216 233 255
216 233 255
216 233 255
216 233 255
216 233 255
216 233 255
216 233 255
217 233 255
216 233 255
216 233 255
216 233 255
216 233 255
216 233 255
216 233 255
216 233 255
216 233 255
216 233 255
216 233 255
216 233 255
216 233 255
216 233 255
216 233 255
216 233 255
216 233 255
216 233 255
216 233 255
216 233 255
216 233 255
216 233 255
216 233 255
216 233 255
216 233 255
216 233 255
216 233 255
216 233 255
216 233 255
216 233 255
216 233 255
216 233 255
216 233 255
216 233 255
216 233 255
216 233 255
216 232 255
216 232 255
216 232 255
216 232 255
216 232 255
216 232 255
216 232 255
216 232 255
216 232 255
216 232 255
216 232 255
216 232 255
216 232 255
215 232 255
215 232 255
215 232 255
215 232 255
215 232 255
215 232 255
215 232 255
215 232 255
215 232 255
215 232 255
215 232 255
215 232 255
215 232 255
215 232 255
215 232 255
215 232 255
215 232 255
215 232 255
215 232 255
215 232 255
215 232 255
215 232 255
215 232 255
215 232 255
215 232 255
215 232 255
215 232 255
215 232 255
215 232 255
215 232 255
215 232 255
215 232 255
215 232 255
215 232 255
215 232 255
215 232 255
215 232 255
214 232 255
214 232 255
214 232 255
214 232 255
214 232 255
214 232 255
214 232 255
214 232 255
214 232 255
214 232 255
214 232 255
214 232 255
214 232 255
214 232 255
214 232 255
214 232 255
214 232 255
214 231 255
214 231 255
214 231 255
214 231 255
214 231 255
214 231 255
214 231 255
214 231 255
214 231 255
214 231 255
214 231 255
214 231 255
214 231 255
214 231 255
214 231 255
214 231 255
213 231 255
213 231 255
213 231 255
213 231 255
213 231 255
213 231 255
213 231 255
213 231 255
213 231 255
213 231 255
213 231 255
213 231 255
213 231 255
213 231 255
213 231 255
213 231 255
213 231 255
213 231 255
213 231 255
213 231 255
213 231 255
213 231 255
208 220 244
150 32 36
146 0 0
148 0 0
141 0 0
141 0 0
141 0 0
143 0 0
147 0 0
138 0 0
143 0 0
149 0 0
132 0 0
141 0 0
144 0 0
135 0 0
148 0 0
149 0 0
142 0 0
144 0 0
148 0 0
141 0 0
137 0 0
134 0 0
141 0 0
141 0 0
141 0 0
138 0 0
135 0 0
142 0 0
136 0 0
143 0 0
141 0 0
145 0 0
138 0 0
143 0 0
136 0 0
141 0 0
134 0 0
135 0 0
144 0 0
146 0 0
135 0 0
141 0 0
142 0 0
139 0 0
150 0 0
141 0 0
141 0 0
144 0 0
143 0 0
144 0 0
138 0 0
145 0 0
133 0 0
135 0 0
136 0 0
139 0 0
140 0 0
145 0 0
139 0 0
141 0 0
139 0 0
138 0 0
136 0 0
147 0 0
144 0 0
146 0 0
132 0 0
144 0 0
140 0 0
151 0 0
143 0 0
144 0 0
140 0 0
140 0 0
148 0 0
145 0 0
140 0 0
141 0 0
140 0 0
129 0 0
145 0 0
139 0 0
145 0 0
143 0 0
145 0 0
133 0 0
145 0 0
144 0 0
135 0 0
133 0 0
140 0 0
144 0 0
143 0 0
149 0 0
134 0 0
146 0 0
151 0 0
146 0 0
141 0 0
145 0 0
140 0 0
141 0 0
146 0 0
141 0 0
142 0 0
139 0 0
149 0 0
131 0 0
137 0 0
145 0 0
142 0 0
146 0 0
146 0 0
141 0 0
132 0 0
209 219 242
213 231 255
213 231 255
213 231 255
213 231 255
213 231 255
213 231 255
213 231 255
213 231 255
213 231 255
213 231 255
213 231 255
213 231 255
213 231 255
213 231 255
213 231 255
213 231 255
213 231 255
213 231 255
213 231 255
213 231 255
213 231 255
213 231 255
214 231 255
214 231 255
214 231 255
214 231 255
214 231 255
214 231 255
214 231 255
214 231 255
214 231 255
214 231 255
214 231 255
214 231 255
214 231 255
214 231 255
214 231 255
214 231 255
214 232 255
214 232 255
214 232 255
214 232 255
214 232 255
214 232 255
214 232 255
214 232 255
214 232 255
214 232 255
214 232 255
214 232 255
214 232 255
214 232 255
214 232 255
214 232 255
215 232 255
215 232 255
215 232 255
215 232 255
215 232 255
215 232 255
215 232 255
215 232 255
215 232 255
215 232 255
215 232 255
215 232 255
215 232 255
215 232 255
215 232 255
215 232 255
215 232 255
215 232 255
215 232 255
215 232 255
215 232 255
215 232 255
215 232 255
215 232 255
215 232 255
215 232 255
215 232 255
215 232 255
215 232 255
215 232 255
215 232 255
215 232 255
215 232 255
215 232 255
215 232 255
215 232 255
215 232 255
215 232 255
216 232 255
216 232 255
216 232 255
216 232 255
216 232 255
216 232 255
216 232 255
216 232 255
216 232 255
216 232 255
216 232 255
216 232 255
216 232 255
216 233 255
216 233 255
216 233 255
216 233 255
216 233 255
216 233 255
216 233 255
216 233 255
216 233 255
216 233 255
216 233 255
216 233 255
216 233 255
216 233 255
216 233 255
216 233 255
216 233 255
216 233 255
216 233 255
216 233 255
216 233 255
216 233 255
216 233 255
216 233 255
216 233 255
216 233 255
216 233 255
216 233 255
216 233 255
216 233 255
216 233 255
216 233 255
216 233 255
216 233 255
216 233 255
217 233 255
217 233 255
217 233 255
217 233 255
217 233 255
217 233 255
217 233 255
217 233 255
217 233 255
217 233 255
217 233 255
216 233 255
216 233 255
216 233 255
216 233 255
216 233 255
216 233 255
216 233 255
216 233 255
216 233 255
216 233 255
216 233 255
216 233 255
216 233 255
216 233 255
216 233 255
216 233 255
216 233 255
216 233 255
216 233 255
216 233 255
216 233 255
216 233 255
216 233 255
216 233 255
216 233 255
216 233 255
216 233 255
216 233 255
216 233 255
216 233 255
216 233 255
216 233 255
216 233 255
216 233 255
216 232 255
216 232 255
216 232 255
216 232 255
216 232 255
216 232 255
216 232 255
216 232 255
216 232 255
216 232 255
216 232 255
216 232 255
216 232 255
215 232 255
215 232 255
215 232 255
215 232 255
215 232 255
215 232 255
215 232 255
215 232 255
215 232 255
215 232 255
215 232 255
215 232 255
215 232 255
215 232 255
215 232 255
215 232 255
215 232 255
215 232 255
215 232 255
215 232 255
215 232 255
215 232 255
215 232 255
215 232 255
215 232 255
215 232 255
215 232 255
215 232 255
215 232 255
215 232 255
215 232 255
215 232 255
215 232 255
215 232 255
215 232 255
215 232 255
215 232 255
215 232 255
214 232 255
214 232 255
214 232 255
214 232 255
214 232 255
214 232 255
214 232 255
214 232 255
214 232 255
214 232 255
214 232 255
214 232 255
214 232 255
214 232 255
214 232 255
214 232 255
214 231 255
214 231 255
214 231 255
214 231 255
214 231 255
214 231 255
214 231 255
214 231 255
214 231 255
214 231 255
214 231 255
214 231 255
214 231 255
214 231 255
214 231 255
214 231 255
214 231 255
213 231 255
213 231 255
213 231 255
213 231 255
213 231 255
213 231 255
213 231 255
213 231 255
213 231 255
213 231 255
213 231 255
213 231 255
213 231 255
177 148 163
139 0 0
146 0 0
145 0 0
142 0 0
133 0 0
137 0 0
130 0 0
141 0 0
140 0 0
150 0 0
130 0 0
133 0 0
141 0 0
135 0 0
152 0 0
142 0 0
139 0 0
141 0 0
143 0 0
147 0 0
137 0 0
148 0 0
143 0 0
133 0 0
140 0 0
140 0 0
142 0 0
145 0 0
140 0 0
133 0 0
155 0 0
135 0 0
148 0 0
145 0 0
142 0 0
148 0 0
141 0 0
142 0 0
136 0 0
137 0 0
142 0 0
143 0 0
142 0 0
142 0 0
138 0 0
134 0 0
140 0 0
143 0 0
137 0 0
138 0 0
130 0 0
135 0 0
134 0 0
147 0 0
139 0 0
143 0 0
134 0 0
145 0 0
136 0 0
146 0 0
141 0 0
143 0 0
146 0 0
143 0 0
146 0 0
149 0 0
134 0 0
138 0 0
147 0 0
142 0 0
142 0 0
149 0 0
133 0 0
145 0 0
145 0 0
134 0 0
142 0 0
142 0 0
134 0 0
144 0 0
148 0 0
143 0 0
144 0 0
136 0 0
147 0 0
135 0 0
137 0 0
148 0 0
145 0 0
143 0 0
147 0 0
144 0 0
148 0 0
144 0 0
131 0 0
134 0 0
149 0 0
142 0 0
141 0 0
146 0 0
145 0 0
142 0 0
135 0 0
151 0 0
143 0 0
146 0 0
149 0 0
139 0 0
151 0 0
148 0 0
139 0 0
146 0 0
141 0 0
141 0 0
142 0 0
149 0 0
175 148 163
213 231 255
213 231 255
213 231 255
213 231 255
213 231 255
213 231 255
213 231 255
213 231 255
213 231 255
213 231 255
213 231 255
213 231 255
213 231 255
213 231 255
214 231 255
214 231 255
214 231 255
214 231 255
214 231 255
214 231 255
214 231 255
214 231 255
214 231 255
214 231 255
214 231 255
214 231 255
214 231 255
214 231 255
214 231 255
214 231 255
214 232 255
214 232 255
214 232 255
214 232 255
214 232 255
214 232 255
214 232 255
214 232 255
214 232 255
214 232 255
214 232 255
214 232 255
214 232 255
214 232 255
214 232 255
214 232 255
215 232 255
215 232 255
215 232 255
215 232 255
215 232 255
215 232 255
215 232 255
215 232 255
215 232 255
215 232 255
215 232 255
215 232 255
215 232 255
215 232 255
215 232 255
215 232 255
215 232 255
215 232 255
215 232 255
215 232 255
215 232 255
215 232 255
215 232 255
215 232 255
215 232 255
215 232 255
215 232 255
215 232 255
215 232 255
215 232 255
215 232 255
215 232 255
215 232 255
215 232 255
215 232 255
215 232 255
215 232 255
215 232 255
216 232 255
216 232 255
216 232 255
216 232 255
216 232 255
216 232 255
216 232 255
216 232 255
216 232 255
216 232 255
216 232 255
216 232 255
216 232 255
216 233 255
216 233 255
216 233 255
216 233 255
216 233 255
216 233 255
216 233 255
216 233 255
216 233 255
216 233 255
216 233 255
216 233 255
216 233 255
216 233 255
216 233 255
216 233 255
216 233 255
216 233 255
216 233 255
216 233 255
216 233 255
216 233 255
216 233 255
216 233 255
216 233 255
216 233 255
216 233 255
216 233 255
216 233 255
216 233 255
216 233 255
216 233 255
216 233 255
216 233 255
217 233 255
217 233 255
217 233 255
217 233 255
217 233 255
217 233 255
217 233 255
217 233 255
217 233 255
217 233 255
217 233 255
217 233 255
217 233 255
217 233 255
217 233 255
217 233 255
217 233 255
217 233 255
217 233 255
217 233 255
217 233 255
217 233 255
217 233 255
217 233 255
217 233 255
217 233 255
217 233 255
217 233 255
217 233 255
216 233 255
216 233 255
216 233 255
216 233 255
216 233 255
216 233 255
216 233 255
216 233 255
216 233 255
216 233 255
216 233 255
216 233 255
216 233 255
216 233 255
216 233 255
216 233 255
216 233 255
216 233 255
216 233 255
216 233 255
216 233 255
216 233 255
216 233 255
216 233 255
216 233 255
216 233 255
216 233 255
216 233 255
216 233 255
216 233 255
216 233 255
216 233 255
216 233 255
216 233 255
216 232 255
216 232 255
216 232 255
216 232 255
216 232 255
216 232 255
216 232 255
216 232 255
216 232 255
216 232 255
216 232 255
216 232 255
215 232 255
215 232 255
215 232 255
215 232 255
215 232 255
215 232 255
215 232 255
215 232 255
215 232 255
215 232 255
215 232 255
215 232 255
215 232 255
215 232 255
215 232 255
215 232 255
215 232 255
215 232 255
215 232 255
215 232 255
215 232 255
215 232 255
215 232 255
215 232 255
215 232 255
215 232 255
215 232 255
215 232 255
215 232 255
215 232 255
215 232 255
215 232 255
215 232 255
215 232 255
215 232 255
215 232 255
215 232 255
215 232 255
214 232 255
214 232 255
214 232 255
214 232 255
214 232 255
214 232 255
214 232 255
214 232 255
214 232 255
214 232 255
214 232 255
214 232 255
214 232 255
214 232 255
214 232 255
214 232 255
214 231 255
214 231 255
214 231 255
214 231 255
214 231 255
214 231 255
214 231 255
214 231 255
214 231 255
214 231 255
214 231 255
214 231 255
214 231 255
214 231 255
214 231 255
214 231 255
214 231 255
214 231 255
213 231 255
213 231 255
213 231 255
208 218 241
146 46 51
152 0 0
138 0 0
143 0 0
147 0 0
147 0 0
143 0 0
147 0 0
146 0 0
141 0 0
135 0 0
141 0 0
141 0 0
138 0 0
138 0 0
144 0 0
150 0 0
145 0 0
135 0 0
141 0 0
136 0 0
148 0 0
142 0 0
140 0 0
139 0 0
147 0 0
142 0 0
138 0 0
142 0 0
151 0 0
137 0 0
141 0 0
135 0 0
136 0 0
134 0 0
145 0 0
139 0 0
143 0 0
135 0 0
144 0 0
133 0 0
145 0 0
142 0 0
142 0 0
133 0 0
140 0 0
144 0 0
141 0 0
136 0 0
137 0 0
133 0 0
134 0 0
137 0 0
142 0 0
137 0 0
139 0 0
154 0 0
142 0 0
145 0 0
145 0 0
147 0 0
139 0 0
146 0 0
140 0 0
137 0 0
139 0 0
136 0 0
141 0 0
141 0 0
141 0 0
139 0 0
138 0 0
140 0 0
141 0 0
145 0 0
131 0 0
138 0 0
148 0 0
136 0 0
139 0 0
144 0 0
147 0 0
144 0 0
141 0 0
134 0 0
139 0 0
143 0 0
144 0 0
138 0 0
144 0 0
144 0 0
145 0 0
135 0 0
143 0 0
145 0 0
140 0 0
143 0 0
142 0 0
143 0 0
143 0 0
140 0 0
146 0 0
132 0 0
148 0 0
141 0 0
134 0 0
136 0 0
140 0 0
139 0 0
141 0 0
140 0 0
151 0 0
139 0 0
147 0 0
141 0 0
138 0 0
135 0 0
150 23 25
210 222 245
213 231 255
213 231 255
213 231 255
214 231 255
214 231 255
214 231 255
214 231 255
214 231 255
214 231 255
214 231 255
214 231 255
214 231 255
214 231 255
214 231 255
214 231 255
214 231 255
214 231 255
214 231 255
214 231 255
214 231 255
214 231 255
214 232 255
214 232 255
214 232 255
214 232 255
214 232 255
214 232 255
214 232 255
214 232 255
214 232 255
214 232 255
214 232 255
214 232 255
214 232 255
214 232 255
214 232 255
214 232 255
214 232 255
215 232 255
215 232 255
215 232 255
215 232 255
215 232 255
215 232 255
215 232 255
215 232 255
215 232 255
215 232 255
215 232 255
215 232 255
215 232 255
215 232 255
215 232 255
215 232 255
215 232 255
215 232 255
215 232 255
215 232 255
215 232 255
215 232 255
215 232 255
215 232 255
215 232 255
215 232 255
215 232 255
215 232 255
215 232 255
215 232 255
215 232 255
215 232 255
215 232 255
215 232 255
215 232 255
215 232 255
215 232 255
216 232 255
216 232 255
216 232 255
216 232 255
216 232 255
216 232 255
216 232 255
216 232 255
216 232 255
216 232 255
216 232 255
216 232 255
216 232 255
216 233 255
216 233 255
216 233 255
216 233 255
216 233 255
216 233 255
216 233 255
216 233 255
216 233 255
216 233 255
216 233 255
216 233 255
216 233 255
216 233 255
216 233 255
216 233 255
216 233 255
216 233 255
216 233 255
216 233 255
216 233 255
216 233 255
216 233 255
216 233 255
216 233 255
216 233 255
216 233 255
216 233 255
216 233 255
216 233 255
216 233 255
216 233 255
216 233 255
217 233 255
217 233 255
217 233 255
217 233 255
217 233 255
217 233 255
217 233 255
217 233 255
217 233 255
217 233 255
217 233 255
217 233 255
217 233 255
217 233 255
217 233 255
217 233 255
217 233 255
217 233 255
217 233 255
217 233 255
217 233 255
217 233 255
217 233 255
217 233 255
217 233 255
217 233 255
217 233 255
217 233 255
217 233 255
217 233 255
217 233 255
217 233 255
217 233 255
217 233 255
217 233 255
217 233 255
217 233 255
217 233 255
217 233 255
217 233 255
217 233 255
217 233 255
217 233 255
217 233 255
217 233 255
217 233 255
217 233 255
217 233 255
216 233 255
216 233 255
216 233 255
216 233 255
216 233 255
216 233 255
216 233 255
216 233 255
216 233 255
216 233 255
216 233 255
216 233 255
216 233 255
216 233 255
216 233 255
216 233 255
216 233 255
216 233 255
216 233 255
216 233 255
216 233 255
216 233 255
216 233 255
216 233 255
216 233 255
216 233 255
216 233 255
216 233 255
216 233 255
216 233 255
216 233 255
216 233 255
216 232 255
216 232 255
216 232 255
216 232 255
216 232 255
216 232 255
216 232 255
216 232 255
216 232 255
216 232 255
216 232 255
216 232 255
216 232 255
216 232 255
215 232 255
215 232 255
215 232 255
215 232 255
215 232 255
215 232 255
215 232 255
215 232 255
215 232 255
215 232 255
215 232 255
215 232 255
215 232 255
215 232 255
215 232 255
215 232 255
215 232 255
215 232 255
215 232 255
215 232 255
215 232 255
215 232 255
215 232 255
215 232 255
215 232 255
215 232 255
215 232 255
215 232 255
215 232 255
215 232 255
215 232 255
215 232 255
215 232 255
215 232 255
215 232 255
215 232 255
214 232 255
214 232 255
214 232 255
214 232 255
214 232 255
214 232 255
214 232 255
214 232 255
214 232 255
214 232 255
214 232 255
214 232 255
214 232 255
214 232 255
214 232 255
214 232 255
214 232 255
214 231 255
214 231 255
214 231 255
214 231 255
214 231 255
214 231 255
214 231 255
214 231 255
214 231 255
214 231 255
214 231 255
214 231 255
177 155 171
142 0 0
149 0 0
151 0 0
134 0 0
139 0 0
145 0 0
141 0 0
141 0 0
139 0 0
149 0 0
140 0 0
142 0 0
144 0 0
144 0 0
135 0 0
142 0 0
122 0 0
138 0 0
145 0 0
140 0 0
134 0 0
139 0 0
140 0 0
143 0 0
139 0 0
146 0 0
144 0 0
142 0 0
133 0 0
136 0 0
143 0 0
144 0 0
134 0 0
149 0 0
138 0 0
136 0 0
139 0 0
136 0 0
150 0 0
136 0 0
134 0 0
140 0 0
138 0 0
141 0 0
133 0 0
145 0 0
145 0 0
137 0 0
136 0 0
145 0 0
147 0 0
132 0 0
140 0 0
132 0 0
147 0 0
137 0 0
141 0 0
137 0 0
139 0 0
138 0 0
139 0 0
144 0 0
135 0 0
136 0 0
138 0 0
143 0 0
144 0 0
142 0 0
132 0 0
143 0 0
140 0 0
141 0 0
148 0 0
133 0 0
131 0 0
137 0 0
151 0 0
135 0 0
136 0 0
144 0 0
147 0 0
141 0 0
149 0 0
132 0 0
133 0 0
146 0 0
140 0 0
137 0 0
138 0 0
136 0 0
145 0 0
139 0 0
142 0 0
153 0 0
141 0 0
149 0 0
147 0 0
136 0 0
148 0 0
145 0 0
135 0 0
139 0 0
144 0 0
142 0 0
150 0 0
146 0 0
134 0 0
128 0 0
144 0 0
142 0 0
144 0 0
141 0 0
147 0 0
148 0 0
148 0 0
147 0 0
139 0 0
145 0 0
177 150 165
214 231 255
214 231 255
214 231 255
214 231 255
214 231 255
214 231 255
214 231 255
214 231 255
214 231 255
214 231 255
214 231 255
214 232 255
214 232 255
214 232 255
214 232 255
214 232 255
214 232 255
214 232 255
214 232 255
214 232 255
214 232 255
214 232 255
214 232 255
214 232 255
214 232 255
214 232 255
214 232 255
214 232 255
214 232 255
215 232 255
215 232 255
215 232 255
215 232 255
215 232 255
215 232 255
215 232 255
215 232 255
215 232 255
215 232 255
215 232 255
215 232 255
215 232 255
215 232 255
215 232 255
215 232 255
215 232 255
215 232 255
215 232 255
215 232 255
215 232 255
215 232 255
215 232 255
215 232 255
215 232 255
215 232 255
215 232 255
215 232 255
215 232 255
215 232 255
215 232 255
215 232 255
215 232 255
215 232 255
215 232 255
215 232 255
215 232 255
216 232 255
216 232 255
216 232 255
216 232 255
216 232 255
216 232 255
216 232 255
216 232 255
216 232 255
216 232 255
216 232 255
216 232 255
216 232 255
216 233 255
216 233 255
216 233 255
216 233 255
216 233 255
216 233 255
216 233 255
216 233 255
216 233 255
216 233 255
216 233 255
216 233 255
216 233 255
216 233 255
216 233 255
216 233 255
216 233 255
216 233 255
216 233 255
216 233 255
216 233 255
216 233 255
216 233 255
216 233 255
216 233 255
216 233 255
216 233 255
216 233 255
216 233 255
216 233 255
216 233 255
216 233 255
217 233 255
217 233 255
217 233 255
217 233 255
217 233 255
217 233 255
217 233 255
217 233 255
217 233 255
217 233 255
217 233 255
217 233 255
217 233 255
217 233 255
217 233 255
217 233 255
217 233 255
217 233 255
217 233 255
217 233 255
217 233 255
217 233 255
217 233 255
217 233 255
217 233 255
217 233 255
217 233 255
217 233 255
217 233 255
217 233 255
217 233 255
217 233 255
217 233 255
217 233 255
217 233 255
217 233 255
217 233 255
217 233 255
217 233 255
217 233 255
217 233 255
217 233 255
217 233 255
217 233 255
217 233 255
217 233 255
217 233 255
217 233 255
217 233 255
217 233 255
217 233 255
217 233 255
217 233 255
217 233 255
217 233 255
217 233 255
217 233 255
217 233 255
217 233 255
217 233 255
217 233 255
217 233 255
217 233 255
217 233 255
217 233 255
217 233 255
217 233 255
216 233 255
216 233 255
216 233 255
216 233 255
216 233 255
216 233 255
216 233 255
216 233 255
216 233 255
216 233 255
216 233 255
216 233 255
216 233 255
216 233 255
216 233 255
216 233 255
216 233 255
216 233 255
216 233 255
216 233 255
216 233 255
216 233 255
216 233 255
216 233 255
216 233 255
216 233 255
216 233 255
216 233 255
216 233 255
216 233 255
216 233 255
216 233 255
216 233 255
216 232 255
216 232 255
216 232 255
216 232 255
216 232 255
216 232 255
216 232 255
216 232 255
216 232 255
216 232 255
216 232 255
216 232 255
215 232 255
215 232 255
215 232 255
215 232 255
215 232 255
215 232 255
215 232 255
215 232 255
215 232 255
215 232 255
215 232 255
215 232 255
215 232 255
215 232 255
215 232 255
215 232 255
215 232 255
215 232 255
215 232 255
215 232 255
215 232 255
215 232 255
215 232 255
215 232 255
215 232 255
215 232 255
215 232 255
215 232 255
215 232 255
215 232 255
215 232 255
215 232 255
215 232 255
215 232 255
215 232 255
215 232 255
215 232 255
215 232 255
214 232 255
214 232 255
214 232 255
214 232 255
214 232 255
214 232 255
214 232 255
214 232 255
214 232 255
214 232 255
214 232 255
214 232 255
214 232 255
214 232 255
214 232 255
214 232 255
214 232 255
214 232 255
211 226 249
144 61 67
147 0 0
136 0 0
144 0 0
147 0 0
140 0 0
136 0 0
137 0 0
140 0 0
136 0 0
139 0 0
133 0 0
131 0 0
134 0 0
143 0 0
144 0 0
134 0 0
136 0 0
140 0 0
137 0 0
138 0 0
141 0 0
148 0 0
136 0 0
138 0 0
129 0 0
137 0 0
137 0 0
146 0 0
131 0 0
145 0 0
141 0 0
143 0 0
142 0 0
143 0 0
133 0 0
136 0 0
135 0 0
143 0 0
144 0 0
145 0 0
138 0 0
141 0 0
145 0 0
148 0 0
136 0 0
135 0 0
143 0 0
141 0 0
135 0 0
129 0 0
139 0 0
149 0 0
145 0 0
143 0 0
139 0 0
139 0 0
147 0 0
143 0 0
137 0 0
134 0 0
133 0 0
147 0 0
132 0 0
134 0 0
129 0 0
139 0 0
145 0 0
136 0 0
142 0 0
134 0 0
145 0 0
138 0 0
139 0 0
139 0 0
139 0 0
140 0 0
137 0 0
135 0 0
133 0 0
135 0 0
134 0 0
146 0 0
131 0 0
138 0 0
138 0 0
144 0 0
139 0 0
146 0 0
136 0 0
136 0 0
132 0 0
138 0 0
143 0 0
135 0 0
144 0 0
148 0 0
130 0 0
138 0 0
137 0 0
129 0 0
144 0 0
128 0 0
145 0 0
141 0 0
137 0 0
147 0 0
129 0 0
144 0 0
139 0 0
143 0 0
147 0 0
152 0 0
143 0 0
139 0 0
139 0 0
133 0 0
140 0 0
145 0 0
160 89 99
214 230 254
214 232 255
214 232 255
214 232 255
214 232 255
214 232 255
214 232 255
214 232 255
214 232 255
214 232 255
214 232 255
214 232 255
214 232 255
214 232 255
214 232 255
214 232 255
214 232 255
214 232 255
214 232 255
215 232 255
215 232 255
215 232 255
215 232 255
215 232 255
215 232 255
215 232 255
215 232 255
215 232 255
215 232 255
215 232 255
215 232 255
215 232 255
215 232 255
215 232 255
215 232 255
215 232 255
215 232 255
215 232 255
215 232 255
215 232 255
215 232 255
215 232 255
215 232 255
215 232 255
215 232 255
215 232 255
215 232 255
215 232 255
215 232 255
215 232 255
215 232 255
215 232 255
215 232 255
215 232 255
215 232 255
215 232 255
215 232 255
216 232 255
216 232 255
216 232 255
216 232 255
216 232 255
216 232 255
216 232 255
216 232 255
216 232 255
216 232 255
216 232 255
216 232 255
216 232 255
216 233 255
216 233 255
216 233 255
216 233 255
216 233 255
216 233 255
216 233 255
216 233 255
216 233 255
216 233 255
216 233 255
216 233 255
216 233 255
216 233 255
216 233 255
216 233 255
216 233 255
216 233 255
216 233 255
216 233 255
216 233 255
216 233 255
216 233 255
216 233 255
216 233 255
216 233 255
216 233 255
216 233 255
216 233 255
216 233 255
216 233 255
216 233 255
217 233 255
217 233 255
217 233 255
217 233 255
217 233 255
217 233 255
217 233 255
217 233 255
217 233 255
217 233 255
217 233 255
217 233 255
217 233 255
217 233 255
217 233 255
217 233 255
217 233 255
217 233 255
217 233 255
217 233 255
217 233 255
217 233 255
217 233 255
217 233 255
217 233 255
217 233 255
217 233 255
217 233 255
217 233 255
217 233 255
217 233 255
217 233 255
217 233 255
217 233 255
217 233 255
217 233 255
217 233 255
217 233 255
217 233 255
217 233 255
217 233 255
217 233 255
217 233 255
217 233 255
217 233 255
217 233 255
217 233 255
217 233 255
217 233 255
217 233 255
217 233 255
217 233 255
217 233 255
217 233 255
217 233 255
217 233 255
217 233 255
217 233 255
217 233 255
217 233 255
217 233 255
217 233 255
217 233 255
217 233 255
217 233 255
217 233 255
217 233 255
217 233 255
217 233 255
217 233 255
217 233 255
217 233 255
217 233 255
217 233 255
217 233 255
217 233 255
217 233 255
217 233 255
217 233 255
217 233 255
217 233 255
217 233 255
217 233 255
217 233 255
217 233 255
217 233 255
216 233 255
216 233 255
216 233 255
216 233 255
216 233 255
216 233 255
216 233 255
216 233 255
216 233 255
216 233 255
216 233 255
216 233 255
216 233 255
216 233 255
216 233 255
216 233 255
216 233 255
216 233 255
216 233 255
216 233 255
216 233 255
216 233 255
216 233 255
216 233 255
216 233 255
216 233 255
216 233 255
216 233 255
216 233 255
216 233 255
216 233 255
216 233 255
216 232 255
216 232 255
216 232 255
216 232 255
216 232 255
216 232 255
216 232 255
216 232 255
216 232 255
216 232 255
216 232 255
216 232 255
216 232 255
215 232 255
215 232 255
215 232 255
215 232 255
215 232 255
215 232 255
215 232 255
215 232 255
215 232 255
215 232 255
215 232 255
215 232 255
215 232 255
215 232 255
215 232 255
215 232 255
215 232 255
215 232 255
215 232 255
215 232 255
215 232 255
215 232 255
215 232 255
215 232 255
215 232 255
215 232 255
215 232 255
215 232 255
215 232 255
215 232 255
215 232 255
215 232 255
215 232 255
215 232 255
215 232 255
215 232 255
215 232 255
214 232 255
214 232 255
214 232 255
214 232 255
214 232 255
214 232 255
214 232 255
214 232 255
214 232 255
193 185 204
141 0 0
148 0 0
142 0 0
141 0 0
139 0 0
145 0 0
143 0 0
142 0 0
143 0 0
140 0 0
132 0 0
140 0 0
138 0 0
138 0 0
149 0 0
138 0 0
136 0 0
138 0 0
137 0 0
143 0 0
141 0 0
136 0 0
139 0 0
131 0 0
139 0 0
132 0 0
140 0 0
138 0 0
143 0 0
147 0 0
147 0 0
137 0 0
136 0 0
136 0 0
137 0 0
135 0 0
137 0 0
132 0 0
140 0 0
136 0 0
142 0 0
133 0 0
141 0 0
136 0 0
141 0 0
146 0 0
138 0 0
134 0 0
135 0 0
141 0 0
145 0 0
140 0 0
144 0 0
139 0 0
146 0 0
139 0 0
134 0 0
135 0 0
137 0 0
142 0 0
146 0 0
139 0 0
138 0 0
138 0 0
138 0 0
137 0 0
139 0 0
140 0 0
137 0 0
129 0 0
129 0 0
144 0 0
142 0 0
135 0 0
131 0 0
137 0 0
139 0 0
141 0 0
136 0 0
141 0 0
136 0 0
136 0 0
144 0 0
141 0 0
144 0 0
134 0 0
133 0 0
138 0 0
138 0 0
138 0 0
136 0 0
137 0 0
138 0 0
142 0 0
138 0 0
133 0 0
137 0 0
138 0 0
140 0 0
145 0 0
143 0 0
133 0 0
140 0 0
140 0 0
131 0 0
144 0 0
134 0 0
137 0 0
143 0 0
140 0 0
143 0 0
140 0 0
140 0 0
140 0 0
136 0 0
141 0 0
149 0 0
139 0 0
137 0 0
146 0 0
190 181 199
214 232 255
214 232 255
214 232 255
214 232 255
214 232 255
214 232 255
214 232 255
214 232 255
215 232 255
215 232 255
215 232 255
215 232 255
215 232 255
215 232 255
215 232 255
215 232 255
215 232 255
215 232 255
215 232 255
215 232 255
215 232 255
215 232 255
215 232 255
215 232 255
215 232 255
215 232 255
215 232 255
215 232 255
215 232 255
215 232 255
215 232 255
215 232 255
215 232 255
215 232 255
215 232 255
215 232 255
215 232 255
215 232 255
215 232 255
215 232 255
215 232 255
215 232 255
215 232 255
215 232 255
215 232 255
215 232 255
215 232 255
216 232 255
216 232 255
216 232 255
216 232 255
216 232 255
216 232 255
216 232 255
216 232 255
216 232 255
216 232 255
216 232 255
216 232 255
216 232 255
216 233 255
216 233 255
216 233 255
216 233 255
216 233 255
216 233 255
216 233 255
216 233 255
216 233 255
216 233 255
216 233 255
216 233 255
216 233 255
216 233 255
216 233 255
216 233 255
216 233 255
216 233 255
216 233 255
216 233 255
216 233 255
216 233 255
216 233 255
216 233 255
216 233 255
216 233 255
216 233 255
216 233 255
216 233 255
216 233 255
217 233 255
217 233 255
217 233 255
217 233 255
217 233 255
217 233 255
217 233 255
217 233 255
217 233 255
217 233 255
217 233 255
217 233 255
217 233 255
217 233 255
217 233 255
217 233 255
217 233 255
217 233 255
217 233 255
217 233 255
217 233 255
217 233 255
217 233 255
217 233 255
217 233 255
217 233 255
217 233 255
217 233 255
217 233 255
217 233 255
217 233 255
217 233 255
217 233 255
217 233 255
217 233 255
217 233 255
217 233 255
217 233 255
217 233 255
217 233 255
217 233 255
217 233 255
217 233 255
217 233 255
217 233 255
217 233 255
217 233 255
217 233 255
217 233 255
217 233 255
217 233 255
217 233 255
217 233 255
217 233 255
217 233 255
217 233 255
217 233 255
217 233 255
217 233 255
217 233 255
217 233 255
217 233 255
217 233 255
217 233 255
217 233 255
217 233 255
217 233 255
217 233 255
217 233 255
217 233 255
217 233 255
217 233 255
217 233 255
217 233 255
217 233 255
217 233 255
217 233 255
217 233 255
217 233 255
217 233 255
217 233 255
217 233 255
217 233 255
217 233 255
217 233 255
217 233 255
217 233 255
217 233 255
217 233 255
217 233 255
217 233 255
217 233 255
217 233 255
217 233 255
217 233 255
217 233 255
217 233 255
217 233 255
217 233 255
217 233 255
217 233 255
217 233 255
217 233 255
217 233 255
217 233 255
217 233 255
217 233 255
216 233 255
216 233 255
216 233 255
216 233 255
216 233 255
216 233 255
216 233 255
216 233 255
216 233 255
216 233 255
216 233 255
216 233 255
216 233 255
216 233 255
216 233 255
216 233 255
216 233 255
216 233 255
216 233 255
216 233 255
216 233 255
216 233 255
216 233 255
216 233 255
216 233 255
216 233 255
216 233 255
216 233 255
216 233 255
216 233 255
216 233 255
216 232 255
216 232 255
216 232 255
216 232 255
216 232 255
216 232 255
216 232 255
216 232 255
216 232 255
216 232 255
216 232 255
216 232 255
216 232 255
215 232 255
215 232 255
215 232 255
215 232 255
215 232 255
215 232 255
215 232 255
215 232 255
215 232 255
215 232 255
215 232 255
215 232 255
215 232 255
215 232 255
215 232 255
215 232 255
215 232 255
215 232 255
215 232 255
215 232 255
215 232 255
215 232 255
215 232 255
215 232 255
215 232 255
215 232 255
215 232 255
215 232 255
215 232 255
215 232 255
215 232 255
215 232 255
215 232 255
215 232 255
215 232 255
215 232 255
215 232 255
166 120 133
140 0 0
150 0 0
128 0 0
135 0 0
145 0 0
141 0 0
130 0 0
135 0 0
138 0 0
145 0 0
144 0 0
143 0 0
137 0 0
144 0 0
140 0 0
144 0 0
146 0 0
130 0 0
140 0 0
150 0 0
141 0 0
140 0 0
136 0 0
136 0 0
138 0 0
133 0 0
144 0 0
150 0 0
135 0 0
141 0 0
141 0 0
132 0 0
130 0 0
141 0 0
141 0 0
137 0 0
138 0 0
139 0 0
138 0 0
133 0 0
143 0 0
140 0 0
134 0 0
139 0 0
143 0 0
135 0 0
137 0 0
131 0 0
141 0 0
138 0 0
138 0 0
137 0 0
142 0 0
140 0 0
138 0 0
129 0 0
140 0 0
138 0 0
135 0 0
132 0 0
139 0 0
140 0 0
136 0 0
140 0 0
142 0 0
148 0 0
140 0 0
138 0 0
145 0 0
126 0 0
131 0 0
138 0 0
131 0 0
138 0 0
137 0 0
132 0 0
114 0 0
136 0 0
148 0 0
138 0 0
136 0 0
136 0 0
136 0 0
132 0 0
138 0 0
137 0 0
138 0 0
143 0 0
139 0 0
132 0 0
139 0 0
138 0 0
139 0 0
144 0 0
126 0 0
139 0 0
146 0 0
129 0 0
139 0 0
145 0 0
135 0 0
133 0 0
148 0 0
137 0 0
141 0 0
139 0 0
147 0 0
139 0 0
143 0 0
142 0 0
149 0 0
141 0 0
133 0 0
142 0 0
134 0 0
148 0 0
136 0 0
131 0 0
144 0 0
143 0 0
173 131 144
215 232 255
215 232 255
215 232 255
215 232 255
215 232 255
215 232 255
215 232 255
215 232 255
215 232 255
215 232 255
215 232 255
215 232 255
215 232 255
215 232 255
215 232 255
215 232 255
215 232 255
215 232 255
215 232 255
215 232 255
215 232 255
215 232 255
215 232 255
215 232 255
215 232 255
215 232 255
215 232 255
215 232 255
215 232 255
215 232 255
215 232 255
215 232 255
215 232 255
215 232 255
215 232 255
215 232 255
215 232 255
216 232 255
216 232 255
216 232 255
216 232 255
216 232 255
216 232 255
216 232 255
216 232 255
216 232 255
216 232 255
216 232 255
216 232 255
216 233 255
216 233 255
216 233 255
216 233 255
216 233 255
216 233 255
216 233 255
216 233 255
216 233 255
216 233 255
216 233 255
216 233 255
216 233 255
216 233 255
216 233 255
216 233 255
216 233 255
216 233 255
216 233 255
216 233 255
216 233 255
216 233 255
216 233 255
216 233 255
216 233 255
216 233 255
216 233 255
216 233 255
216 233 255
216 233 255
216 233 255
216 233 255
217 233 255
217 233 255
217 233 255
217 233 255
217 233 255
217 233 255
217 233 255
217 233 255
217 233 255
217 233 255
217 233 255
217 233 255
217 233 255
217 233 255
217 233 255
217 233 255
217 233 255
217 233 255
217 233 255
217 233 255
217 233 255
217 233 255
217 233 255
217 233 255
217 233 255
217 233 255
217 233 255
217 233 255
217 233 255
217 233 255
217 233 255
217 233 255
217 233 255
217 233 255
217 233 255
217 233 255
217 233 255
217 233 255
217 233 255
217 233 255
217 233 255
217 233 255
217 233 255
217 233 255
217 233 255
217 233 255
217 233 255
217 233 255
217 233 255
217 233 255
217 233 255
217 233 255
217 233 255
217 233 255
217 233 255
217 233 255
217 233 255
217 233 255
218 234 255
218 234 255
218 234 255
218 233 255
218 233 255
218 233 255
218 233 255
218 233 255
218 233 255
218 233 255
218 233 255
217 233 255
217 233 255
217 233 255
217 233 255
217 233 255
217 233 255
217 233 255
217 233 255
217 233 255
217 233 255
217 233 255
217 233 255
217 233 255
217 233 255
217 233 255
217 233 255
217 233 255
217 233 255
217 233 255
217 233 255
217 233 255
217 233 255
217 233 255
217 233 255
217 233 255
217 233 255
217 233 255
217 233 255
217 233 255
217 233 255
217 233 255
217 233 255
217 233 255
217 233 255
217 233 255
217 233 255
217 233 255
217 233 255
217 233 255
217 233 255
217 233 255
217 233 255
217 233 255
217 233 255
217 233 255
217 233 255
217 233 255
217 233 255
217 233 255
217 233 255
217 233 255
217 233 255
217 233 255
217 233 255
217 233 255
217 233 255
217 233 255
216 233 255
216 233 255
216 233 255
216 233 255
216 233 255
216 233 255
216 233 255
216 233 255
216 233 255
216 233 255
216 233 255
216 233 255
216 233 255
216 233 255
216 233 255
216 233 255
216 233 255
216 233 255
216 233 255
216 233 255
216 233 255
216 233 255
216 233 255
216 233 255
216 233 255
216 233 255
216 233 255
216 233 255
216 233 255
216 233 255
216 233 255
216 232 255
216 232 255
216 232 255
216 232 255
216 232 255
216 232 255
216 232 255
216 232 255
216 232 255
216 232 255
216 232 255
216 232 255
216 232 255
216 232 255
215 232 255
215 232 255
215 232 255
215 232 255
215 232 255
215 232 255
215 232 255
215 232 255
215 232 255
215 232 255
215 232 255
215 232 255
215 232 255
215 232 255
215 232 255
215 232 255
215 232 255
215 232 255
215 232 255
215 232 255
215 232 255
215 232 255
215 232 255
215 232 255
215 232 255
209 218 240
142 32 36
141 0 0
139 0 0
140 0 0
145 0 0
140 0 0
139 0 0
139 0 0
140 0 0
145 0 0
145 0 0
146 0 0
144 0 0
145 0 0
142 0 0
133 0 0
138 0 0
135 0 0
146 0 0
142 0 0
140 0 0
139 0 0
133 0 0
142 0 0
135 0 0
142 0 0
137 0 0
138 0 0
135 0 0
139 0 0
134 0 0
138 0 0
141 0 0
148 0 0
142 0 0
136 0 0
145 0 0
135 0 0
146 0 0
130 0 0
131 0 0
139 0 0
141 0 0
138 0 0
125 0 0
137 0 0
142 0 0
145 0 0
135 0 0
131 0 0
135 0 0
131 0 0
137 0 0
130 0 0
130 0 0
138 0 0
140 0 0
143 0 0
135 0 0
134 0 0
134 0 0
137 0 0
131 0 0
147 0 0
128 0 0
140 0 0
140 0 0
132 0 0
128 0 0
139 0 0
138 0 0
145 0 0
126 0 0
135 0 0
132 0 0
138 0 0
135 0 0
136 0 0
136 0 0
137 0 0
140 0 0
141 0 0
143 0 0
145 0 0
138 0 0
133 0 0
135 0 0
144 0 0
140 0 0
128 0 0
137 0 0
139 0 0
140 0 0
139 0 0
136 0 0
133 0 0
139 0 0
139 0 0
138 0 0
143 0 0
141 0 0
133 0 0
136 0 0
142 0 0
147 0 0
134 0 0
138 0 0
140 0 0
144 0 0
146 0 0
146 0 0
137 0 0
135 0 0
136 0 0
138 0 0
133 0 0
143 0 0
141 0 0
143 0 0
142 0 0
142 0 0
147 23 25
206 215 237
215 232 255
215 232 255
215 232 255
215 232 255
215 232 255
215 232 255
215 232 255
215 232 255
215 232 255
215 232 255
215 232 255
215 232 255
215 232 255
215 232 255
215 232 255
215 232 255
215 232 255
215 232 255
215 232 255
215 232 255
215 232 255
215 232 255
215 232 255
215 232 255
215 232 255
215 232 255
216 232 255
216 232 255
216 232 255
216 232 255
216 232 255
216 232 255
216 232 255
216 232 255
216 232 255
216 232 255
216 232 255
216 232 255
216 233 255
216 233 255
216 233 255
216 233 255
216 233 255
216 233 255
216 233 255
216 233 255
216 233 255
216 233 255
216 233 255
216 233 255
216 233 255
216 233 255
216 233 255
216 233 255
216 233 255
216 233 255
216 233 255
216 233 255
216 233 255
216 233 255
216 233 255
216 233 255
216 233 255
216 233 255
216 233 255
216 233 255
216 233 255
216 233 255
216 233 255
216 233 255
217 233 255
217 233 255
217 233 255
217 233 255
217 233 255
217 233 255
217 233 255
217 233 255
217 233 255
217 233 255
217 233 255
217 233 255
217 233 255
217 233 255
217 233 255
217 233 255
217 233 255
217 233 255
217 233 255
217 233 255
217 233 255
217 233 255
217 233 255
217 233 255
217 233 255
217 233 255
217 233 255
217 233 255
217 233 255
217 233 255
217 233 255
217 233 255
217 233 255
217 233 255
217 233 255
217 233 255
217 233 255
217 233 255
217 233 255
217 233 255
217 233 255
217 233 255
217 233 255
217 233 255
217 233 255
217 233 255
217 233 255
217 233 255
217 233 255
217 233 255
217 233 255
217 233 255
217 233 255
217 233 255
217 233 255
217 233 255
217 233 255
218 233 255
218 233 255
218 233 255
218 233 255
218 233 255
218 233 255
218 233 255
218 233 255
218 234 255
218 234 255
218 234 255
218 234 255
218 234 255
218 234 255
218 234 255
218 234 255
218 234 255
218 234 255
218 234 255
218 234 255
218 234 255
218 234 255
218 234 255
218 234 255
218 234 255
218 234 255
218 233 255
218 233 255
218 233 255
218 233 255
218 233 255
218 233 255
218 233 255
218 233 255
217 233 255
217 233 255
217 233 255
217 233 255
217 233 255
217 233 255
217 233 255
217 233 255
217 233 255
217 233 255
217 233 255
217 233 255
217 233 255
217 233 255
217 233 255
217 233 255
217 233 255
217 233 255
217 233 255
217 233 255
217 233 255
217 233 255
217 233 255
217 233 255
217 233 255
217 233 255
217 233 255
217 233 255
217 233 255
217 233 255
217 233 255
217 233 255
217 233 255
217 233 255
217 233 255
217 233 255
217 233 255
217 233 255
217 233 255
217 233 255
217 233 255
217 233 255
217 233 255
217 233 255
217 233 255
217 233 255
217 233 255
217 233 255
217 233 255
217 233 255
217 233 255
217 233 255
217 233 255
217 233 255
217 233 255
217 233 255
216 233 255
216 233 255
216 233 255
216 233 255
216 233 255
216 233 255
216 233 255
216 233 255
216 233 255
216 233 255
216 233 255
216 233 255
216 233 255
216 233 255
216 233 255
216 233 255
216 233 255
216 233 255
216 233 255
216 233 255
216 233 255
216 233 255
216 233 255
216 233 255
216 233 255
216 233 255
216 233 255
216 233 255
216 233 255
216 233 255
216 233 255
216 232 255
216 232 255
216 232 255
216 232 255
216 232 255
216 232 255
216 232 255
216 232 255
216 232 255
216 232 255
216 232 255
216 232 255
216 232 255
215 232 255
215 232 255
215 232 255
215 232 255
215 232 255
215 232 255
215 232 255
215 232 255
215 232 255
215 232 255
215 232 255
215 232 255
215 232 255
215 232 255
215 232 255
190 181 199
134 0 0
138 0 0
136 0 0
134 0 0
137 0 0
143 0 0
147 0 0
140 0 0
145 0 0
137 0 0
134 0 0
139 0 0
143 0 0
146 0 0
138 0 0
140 0 0
143 0 0
139 0 0
142 0 0
139 0 0
134 0 0
135 0 0
139 0 0
139 0 0
131 0 0
139 0 0
138 0 0
138 0 0
143 0 0
134 0 0
137 0 0
139 0 0
136 0 0
142 0 0
136 0 0
141 0 0
131 0 0
138 0 0
135 0 0
148 0 0
130 0 0
141 0 0
136 0 0
142 0 0
139 0 0
138 0 0
132 0 0
141 0 0
138 0 0
138 0 0
132 0 0
125 0 0
143 0 0
139 0 0
129 0 0
144 0 0
138 0 0
139 0 0
138 0 0
143 0 0
132 0 0
146 0 0
145 0 0
136 0 0
138 0 0
144 0 0
130 0 0
136 0 0
123 0 0
142 0 0
138 0 0
138 0 0
134 0 0
141 0 0
132 0 0
138 0 0
136 0 0
131 0 0
133 0 0
138 0 0
129 0 0
142 0 0
134 0 0
132 0 0
137 0 0
141 0 0
132 0 0
132 0 0
141 0 0
132 0 0
139 0 0
139 0 0
137 0 0
135 0 0
133 0 0
138 0 0
135 0 0
136 0 0
140 0 0
137 0 0
143 0 0
136 0 0
129 0 0
149 0 0
140 0 0
137 0 0
128 0 0
141 0 0
143 0 0
136 0 0
142 0 0
144 0 0
139 0 0
134 0 0
147 0 0
139 0 0
141 0 0
148 0 0
132 0 0
136 0 0
139 0 0
144 0 0
190 172 189
215 232 255
215 232 255
215 232 255
215 232 255
215 232 255
215 232 255
215 232 255
215 232 255
215 232 255
215 232 255
215 232 255
215 232 255
215 232 255
215 232 255
215 232 255
216 232 255
216 232 255
216 232 255
216 232 255
216 232 255
216 232 255
216 232 255
216 232 255
216 232 255
216 232 255
216 232 255
216 232 255
216 232 255
216 233 255
216 233 255
216 233 255
216 233 255
216 233 255
216 233 255
216 233 255
216 233 255
216 233 255
216 233 255
216 233 255
216 233 255
216 233 255
216 233 255
216 233 255
216 233 255
216 233 255
216 233 255
216 233 255
216 233 255
216 233 255
216 233 255
216 233 255
216 233 255
216 233 255
216 233 255
216 233 255
216 233 255
216 233 255
216 233 255
216 233 255
216 233 255
217 233 255
217 233 255
217 233 255
217 233 255
217 233 255
217 233 255
217 233 255
217 233 255
217 233 255
217 233 255
217 233 255
217 233 255
217 233 255
217 233 255
217 233 255
217 233 255
217 233 255
217 233 255
217 233 255
217 233 255
217 233 255
217 233 255
217 233 255
217 233 255
217 233 255
217 233 255
217 233 255
217 233 255
217 233 255
217 233 255
217 233 255
217 233 255
217 233 255
217 233 255
217 233 255
217 233 255
217 233 255
217 233 255
217 233 255
217 233 255
217 233 255
217 233 255
217 233 255
217 233 255
217 233 255
217 233 255
217 233 255
217 233 255
217 233 255
217 233 255
217 233 255
217 233 255
217 233 255
217 233 255
217 233 255
217 233 255
218 233 255
218 233 255
218 233 255
218 233 255
218 233 255
218 233 255
218 233 255
218 234 255
218 234 255
218 234 255
218 234 255
218 234 255
218 234 255
218 234 255
218 234 255
218 234 255
218 234 255
218 234 255
218 234 255
218 234 255
218 234 255
218 234 255
218 234 255
218 234 255
218 234 255
218 234 255
218 234 255
218 234 255
218 234 255
218 234 255
218 234 255
218 234 255
218 234 255
218 234 255
218 234 255
218 234 255
218 234 255
218 234 255
218 234 255
218 234 255
218 234 255
218 234 255
218 234 255
218 234 255
218 234 255
218 234 255
218 234 255
218 234 255
218 234 255
218 234 255
218 233 255
218 233 255
218 233 255
218 233 255
218 233 255
218 233 255
217 233 255
217 233 255
217 233 255
217 233 255
217 233 255
217 233 255
217 233 255
217 233 255
217 233 255
217 233 255
217 233 255
217 233 255
217 233 255
217 233 255
217 233 255
217 233 255
217 233 255
217 233 255
217 233 255
217 233 255
217 233 255
217 233 255
217 233 255
217 233 255
217 233 255
217 233 255
217 233 255
217 233 255
217 233 255
217 233 255
217 233 255
217 233 255
217 233 255
217 233 255
217 233 255
217 233 255
217 233 255
217 233 255
217 233 255
217 233 255
217 233 255
217 233 255
217 233 255
217 233 255
217 233 255
217 233 255
217 233 255
217 233 255
217 233 255
217 233 255
217 233 255
217 233 255
217 233 255
217 233 255
217 233 255
216 233 255
216 233 255
216 233 255
216 233 255
216 233 255
216 233 255
216 233 255
216 233 255
216 233 255
216 233 255
216 233 255
216 233 255
216 233 255
216 233 255
216 233 255
216 233 255
216 233 255
216 233 255
216 233 255
216 233 255
216 233 255
216 233 255
216 233 255
216 233 255
216 233 255
216 233 255
216 233 255
216 233 255
216 233 255
216 233 255
216 233 255
216 233 255
216 232 255
216 232 255
216 232 255
216 232 255
216 232 255
216 232 255
216 232 255
216 232 255
216 232 255
216 232 255
216 232 255
216 232 255
216 232 255
216 232 255
216 232 255
215 232 255
215 232 255
155 101 111
148 0 0
145 0 0
147 0 0
136 0 0
140 0 0
142 0 0
144 0 0
148 0 0
143 0 0
141 0 0
139 0 0
142 0 0
139 0 0
134 0 0
144 0 0
130 0 0
130 0 0
139 0 0
137 0 0
127 0 0
143 0 0
144 0 0
129 0 0
134 0 0
138 0 0
131 0 0
135 0 0
136 0 0
137 0 0
134 0 0
139 0 0
140 0 0
139 0 0
143 0 0
135 0 0
132 0 0
139 0 0
136 0 0
138 0 0
144 0 0
144 0 0
143 0 0
138 0 0
145 0 0
140 0 0
133 0 0
130 0 0
141 0 0
132 0 0
140 0 0
142 0 0
138 0 0
138 0 0
134 0 0
146 0 0
134 0 0
137 0 0
136 0 0
137 0 0
136 0 0
142 0 0
131 0 0
137 0 0
142 0 0
137 0 0
139 0 0
131 0 0
137 0 0
142 0 0
135 0 0
142 0 0
137 0 0
132 0 0
142 0 0
140 0 0
139 0 0
130 0 0
128 0 0
134 0 0
144 0 0
133 0 0
130 0 0
140 0 0
136 0 0
137 0 0
132 0 0
138 0 0
127 0 0
143 0 0
146 0 0
136 0 0
134 0 0
140 0 0
139 0 0
133 0 0
138 0 0
137 0 0
137 0 0
136 0 0
139 0 0
130 0 0
142 0 0
142 0 0
136 0 0
135 0 0
142 0 0
134 0 0
139 0 0
134 0 0
147 0 0
139 0 0
139 0 0
136 0 0
132 0 0
143 0 0
138 0 0
143 0 0
138 0 0
141 0 0
139 0 0
137 0 0
135 0 0
156 90 99
215 232 255
215 232 255
215 232 255
215 232 255
216 232 255
216 232 255
216 232 255
216 232 255
216 232 255
216 232 255
216 232 255
216 232 255
216 232 255
216 232 255
216 232 255
216 232 255
216 232 255
216 233 255
216 233 255
216 233 255
216 233 255
216 233 255
216 233 255
216 233 255
216 233 255
216 233 255
216 233 255
216 233 255
216 233 255
216 233 255
216 233 255
216 233 255
216 233 255
216 233 255
216 233 255
216 233 255
216 233 255
216 233 255
216 233 255
216 233 255
216 233 255
216 233 255
216 233 255
216 233 255
216 233 255
216 233 255
216 233 255
216 233 255
216 233 255
217 233 255
217 233 255
217 233 255
217 233 255
217 233 255
217 233 255
217 233 255
217 233 255
217 233 255
217 233 255
217 233 255
217 233 255
217 233 255
217 233 255
217 233 255
217 233 255
217 233 255
217 233 255
217 233 255
217 233 255
217 233 255
217 233 255
217 233 255
217 233 255
217 233 255
217 233 255
217 233 255
217 233 255
217 233 255
217 233 255
217 233 255
217 233 255
217 233 255
217 233 255
217 233 255
217 233 255
217 233 255
217 233 255
217 233 255
217 233 255
217 233 255
217 233 255
217 233 255
217 233 255
217 233 255
217 233 255
217 233 255
217 233 255
217 233 255
217 233 255
217 233 255
217 233 255
217 233 255
217 233 255
218 233 255
218 233 255
218 233 255
218 233 255
218 233 255
218 233 255
218 233 255
218 234 255
218 234 255
218 234 255
218 234 255
218 234 255
218 234 255
218 234 255
218 234 255
218 234 255
218 234 255
218 234 255
218 234 255
218 234 255
218 234 255
218 234 255
218 234 255
218 234 255
218 234 255
218 234 255
218 234 255
218 234 255
218 234 255
218 234 255
218 234 255
218 234 255
218 234 255
218 234 255
218 234 255
218 234 255
218 234 255
218 234 255
218 234 255
218 234 255
218 234 255
218 234 255
218 234 255
218 234 255
218 234 255
218 234 255
218 234 255
218 234 255
218 234 255
218 234 255
218 234 255
218 234 255
218 234 255
218 234 255
218 234 255
218 234 255
218 234 255
218 234 255
218 234 255
218 234 255
218 234 255
218 234 255
218 234 255
218 234 255
218 234 255
218 234 255
218 234 255
218 234 255
218 234 255
218 234 255
218 234 255
218 234 255
218 234 255
218 234 255
218 234 255
218 233 255
218 233 255
218 233 255
218 233 255
218 233 255
218 233 255
218 233 255
217 233 255
217 233 255
217 233 255
217 233 255
217 233 255
217 233 255
217 233 255
217 233 255
217 233 255
217 233 255
217 233 255
217 233 255
217 233 255
217 233 255
217 233 255
217 233 255
217 233 255
217 233 255
217 233 255
217 233 255
217 233 255
217 233 255
217 233 255
217 233 255
217 233 255
217 233 255
217 233 255
217 233 255
217 233 255
217 233 255
217 233 255
217 233 255
217 233 255
217 233 255
217 233 255
217 233 255
217 233 255
217 233 255
217 233 255
217 233 255
217 233 255
217 233 255
217 233 255
217 233 255
217 233 255
217 233 255
217 233 255
217 233 255
217 233 255
217 233 255
217 233 255
217 233 255
217 233 255
217 233 255
216 233 255
216 233 255
216 233 255
216 233 255
216 233 255
216 233 255
216 233 255
216 233 255
216 233 255
216 233 255
216 233 255
216 233 255
216 233 255
216 233 255
216 233 255
216 233 255
216 233 255
216 233 255
216 233 255
216 233 255
216 233 255
216 233 255
216 233 255
216 233 255
216 233 255
216 233 255
216 233 255
216 233 255
216 233 255
216 233 255
216 233 255
216 233 255
216 233 255
216 232 255
216 232 255
216 232 255
206 218 240
140 0 0
136 0 0
145 0 0
145 0 0
139 0 0
148 0 0
145 0 0
141 0 0
132 0 0
144 0 0
138 0 0
144 0 0
148 0 0
132 0 0
133 0 0
134 0 0
133 0 0
144 0 0
142 0 0
138 0 0
140 0 0
129 0 0
138 0 0
138 0 0
135 0 0
147 0 0
132 0 0
132 0 0
131 0 0
135 0 0
131 0 0
134 0 0
130 0 0
145 0 0
148 0 0
139 0 0
131 0 0
133 0 0
136 0 0
136 0 0
143 0 0
135 0 0
138 0 0
138 0 0
131 0 0
144 0 0
133 0 0
137 0 0
137 0 0
131 0 0
124 0 0
140 0 0
124 0 0
136 0 0
144 0 0
128 0 0
135 0 0
134 0 0
140 0 0
133 0 0
141 0 0
126 0 0
144 0 0
134 0 0
132 0 0
141 0 0
135 0 0
138 0 0
134 0 0
132 0 0
130 0 0
141 0 0
137 0 0
142 0 0
135 0 0
134 0 0
143 0 0
132 0 0
139 0 0
131 0 0
130 0 0
138 0 0
137 0 0
137 0 0
138 0 0
136 0 0
133 0 0
135 0 0
133 0 0
133 0 0
138 0 0
142 0 0
151 0 0
129 0 0
133 0 0
135 0 0
135 0 0
139 0 0
140 0 0
139 0 0
141 0 0
130 0 0
133 0 0
135 0 0
134 0 0
139 0 0
144 0 0
138 0 0
144 0 0
136 0 0
141 0 0
143 0 0
143 0 0
144 0 0
138 0 0
142 0 0
145 0 0
129 0 0
143 0 0
136 0 0
133 0 0
145 0 0
136 0 0
134 0 0
210 221 242
216 232 255
216 232 255
216 232 255
216 233 255
216 233 255
216 233 255
216 233 255
216 233 255
216 233 255
216 233 255
216 233 255
216 233 255
216 233 255
216 233 255
216 233 255
216 233 255
216 233 255
216 233 255
216 233 255
216 233 255
216 233 255
216 233 255
216 233 255
216 233 255
216 233 255
216 233 255
216 233 255
216 233 255
216 233 255
216 233 255
216 233 255
216 233 255
216 233 255
216 233 255
216 233 255
216 233 255
217 233 255
217 233 255
217 233 255
217 233 255
217 233 255
217 233 255
217 233 255
217 233 255
217 233 255
217 233 255
217 233 255
217 233 255
217 233 255
217 233 255
217 233 255
217 233 255
217 233 255
217 233 255
217 233 255
217 233 255
217 233 255
217 233 255
217 233 255
217 233 255
217 233 255
217 233 255
217 233 255
217 233 255
217 233 255
217 233 255
217 233 255
217 233 255
217 233 255
217 233 255
217 233 255
217 233 255
217 233 255
217 233 255
217 233 255
217 233 255
217 233 255
217 233 255
217 233 255
217 233 255
217 233 255
217 233 255
217 233 255
217 233 255
217 233 255
217 233 255
217 233 255
217 233 255
217 233 255
217 233 255
217 233 255
218 233 255
218 233 255
218 233 255
218 233 255
218 233 255
218 233 255
218 234 255
218 234 255
218 234 255
218 234 255
218 234 255
218 234 255
218 234 255
218 234 255
218 234 255
218 234 255
218 234 255
218 234 255
218 234 255
218 234 255
218 234 255
218 234 255
218 234 255
218 234 255
218 234 255
218 234 255
218 234 255
218 234 255
218 234 255
218 234 255
218 234 255
218 234 255
218 234 255
218 234 255
218 234 255
218 234 255
218 234 255
218 234 255
218 234 255
218 234 255
218 234 255
218 234 255
218 234 255
218 234 255
218 234 255
218 234 255
218 234 255
218 234 255
218 234 255
218 234 255
218 234 255
218 234 255
218 234 255
218 234 255
218 234 255
218 234 255
218 234 255
218 234 255
218 234 255
218 234 255
218 234 255
218 234 255
218 234 255
218 234 255
218 234 255
218 234 255
218 234 255
218 234 255
218 234 255
218 234 255
218 234 255
218 234 255
218 234 255
218 234 255
218 234 255
218 234 255
218 234 255
218 234 255
218 234 255
218 234 255
218 234 255
218 234 255
218 234 255
218 234 255
218 234 255
218 234 255
218 234 255
218 234 255
218 234 255
218 234 255
218 234 255
218 234 255
218 234 255
218 234 255
218 234 255
218 234 255
218 234 255
218 234 255
218 234 255
218 233 255
218 233 255
218 233 255
218 233 255
218 233 255
218 233 255
217 233 255
217 233 255
217 233 255
217 233 255
217 233 255
217 233 255
217 233 255
217 233 255
217 233 255
217 233 255
217 233 255
217 233 255
217 233 255
217 233 255
217 233 255
217 233 255
217 233 255
217 233 255
217 233 255
217 233 255
217 233 255
217 233 255
217 233 255
217 233 255
217 233 255
217 233 255
217 233 255
217 233 255
217 233 255
217 233 255
217 233 255
217 233 255
217 233 255
217 233 255
217 233 255
217 233 255
217 233 255
217 233 255
217 233 255
217 233 255
217 233 255
217 233 255
217 233 255
217 233 255
217 233 255
217 233 255
217 233 255
217 233 255
217 233 255
217 233 255
217 233 255
217 233 255
217 233 255
217 233 255
217 233 255
216 233 255
216 233 255
216 233 255
216 233 255
216 233 255
216 233 255
216 233 255
216 233 255
216 233 255
216 233 255
216 233 255
216 233 255
216 233 255
216 233 255
216 233 255
216 233 255
216 233 255
216 233 255
216 233 255
216 233 255
216 233 255
216 233 255
216 233 255
184 171 188
146 0 0
143 0 0
127 0 0
138 0 0
130 0 0
129 0 0
134 0 0
143 0 0
136 0 0
123 0 0
149 0 0
142 0 0
135 0 0
140 0 0
141 0 0
123 0 0
142 0 0
140 0 0
138 0 0
136 0 0
139 0 0
139 0 0
137 0 0
137 0 0
141 0 0
132 0 0
135 0 0
139 0 0
137 0 0
139 0 0
133 0 0
143 0 0
122 0 0
131 0 0
132 0 0
128 0 0
132 0 0
135 0 0
142 0 0
131 0 0
132 0 0
135 0 0
134 0 0
134 0 0
129 0 0
129 0 0
136 0 0
136 0 0
139 0 0
142 0 0
140 0 0
137 0 0
145 0 0
140 0 0
137 0 0
136 0 0
147 0 0
132 0 0
145 0 0
139 0 0
140 0 0
129 0 0
129 0 0
134 0 0
138 0 0
135 0 0
130 0 0
141 0 0
151 0 0
137 0 0
140 0 0
136 0 0
130 0 0
141 0 0
136 0 0
136 0 0
133 0 0
142 0 0
136 0 0
138 0 0
140 0 0
118 0 0
134 0 0
129 0 0
139 0 0
128 0 0
132 0 0
137 0 0
140 0 0
127 0 0
134 0 0
138 0 0
122 0 0
139 0 0
138 0 0
136 0 0
132 0 0
142 0 0
150 0 0
139 0 0
136 0 0
147 0 0
141 0 0
144 0 0
139 0 0
131 0 0
137 0 0
127 0 0
133 0 0
130 0 0
129 0 0
125 0 0
136 0 0
142 0 0
149 0 0
142 0 0
143 0 0
140 0 0
140 0 0
133 0 0
139 0 0
135 0 0
135 0 0
139 0 0
182 171 188
216 233 255
216 233 255
216 233 255
216 233 255
216 233 255
216 233 255
216 233 255
216 233 255
216 233 255
216 233 255
216 233 255
216 233 255
216 233 255
216 233 255
216 233 255
216 233 255
216 233 255
216 233 255
216 233 255
216 233 255
216 233 255
216 233 255
216 233 255
217 233 255
217 233 255
217 233 255
217 233 255
217 233 255
217 233 255
217 233 255
217 233 255
217 233 255
217 233 255
217 233 255
217 233 255
217 233 255
217 233 255
217 233 255
217 233 255
217 233 255
217 233 255
217 233 255
217 233 255
217 233 255
217 233 255
217 233 255
217 233 255
217 233 255
217 233 255
217 233 255
217 233 255
217 233 255
217 233 255
217 233 255
217 233 255
217 233 255
217 233 255
217 233 255
217 233 255
217 233 255
217 233 255
217 233 255
217 233 255
217 233 255
217 233 255
217 233 255
217 233 255
217 233 255
217 233 255
217 233 255
217 233 255
217 233 255
217 233 255
217 233 255
217 233 255
217 233 255
217 233 255
217 233 255
218 233 255
218 233 255
218 233 255
218 233 255
218 233 255
218 233 255
218 234 255
218 234 255
218 234 255
218 234 255
218 234 255
218 234 255
218 234 255
218 234 255
218 234 255
218 234 255
218 234 255
218 234 255
218 234 255
218 234 255
218 234 255
218 234 255
218 234 255
218 234 255
218 234 255
218 234 255
218 234 255
218 234 255
218 234 255
218 234 255
218 234 255
218 234 255
218 234 255
218 234 255
218 234 255
218 234 255
218 234 255
218 234 255
218 234 255
218 234 255
218 234 255
218 234 255
218 234 255
218 234 255
218 234 255
218 234 255
218 234 255
218 234 255
218 234 255
218 234 255
218 234 255
218 234 255
218 234 255
218 234 255
218 234 255
218 234 255
218 234 255
218 234 255
218 234 255
218 234 255
218 234 255
218 234 255
218 234 255
218 234 255
218 234 255
218 234 255
218 234 255
218 234 255
218 234 255
218 234 255
218 234 255
218 234 255
218 234 255
218 234 255
218 234 255
218 234 255
218 234 255
218 234 255
218 234 255
218 234 255
218 234 255
218 234 255
218 234 255
218 234 255
218 234 255
218 234 255
218 234 255
218 234 255
218 234 255
218 234 255
218 234 255
218 234 255
218 234 255
218 234 255
218 234 255
218 234 255
218 234 255
218 234 255
218 234 255
218 234 255
218 234 255
218 234 255
218 234 255
218 234 255
218 234 255
218 234 255
218 234 255
218 234 255
218 234 255
218 234 255
218 234 255
218 234 255
218 234 255
218 234 255
218 234 255
218 234 255
218 234 255
218 234 255
218 234 255
218 234 255
218 234 255
218 234 255
218 234 255
218 234 255
218 233 255
218 233 255
218 233 255
218 233 255
218 233 255
218 233 255
218 233 255
217 233 255
217 233 255
217 233 255
217 233 255
217 233 255
217 233 255
217 233 255
217 233 255
217 233 255
217 233 255
217 233 255
217 233 255
217 233 255
217 233 255
217 233 255
217 233 255
217 233 255
217 233 255
217 233 255
217 233 255
217 233 255
217 233 255
217 233 255
217 233 255
217 233 255
217 233 255
217 233 255
217 233 255
217 233 255
217 233 255
217 233 255
217 233 255
217 233 255
217 233 255
217 233 255
217 233 255
217 233 255
217 233 255
217 233 255
217 233 255
217 233 255
217 233 255
217 233 255
217 233 255
217 233 255
217 233 255
217 233 255
217 233 255
217 233 255
217 233 255
217 233 255
217 233 255
217 233 255
217 233 255
217 233 255
216 233 255
216 233 255
216 233 255
216 233 255
216 233 255
216 233 255
216 233 255
216 233 255
216 233 255
216 233 255
169 129 142
139 0 0
135 0 0
145 0 0
140 0 0
142 0 0
145 0 0
135 0 0
137 0 0
128 0 0
141 0 0
138 0 0
131 0 0
133 0 0
136 0 0
140 0 0
140 0 0
136 0 0
133 0 0
138 0 0
135 0 0
135 0 0
138 0 0
139 0 0
130 0 0
133 0 0
141 0 0
142 0 0
144 0 0
140 0 0
132 0 0
135 0 0
129 0 0
145 0 0
144 0 0
137 0 0
146 0 0
134 0 0
137 0 0
143 0 0
143 0 0
135 0 0
134 0 0
137 0 0
135 0 0
122 0 0
143 0 0
136 0 0
135 0 0
140 0 0
132 0 0
141 0 0
132 0 0
139 0 0
135 0 0
132 0 0
132 0 0
129 0 0
128 0 0
135 0 0
138 0 0
130 0 0
135 0 0
133 0 0
135 0 0
134 0 0
126 0 0
133 0 0
126 0 0
144 0 0
139 0 0
132 0 0
136 0 0
136 0 0
141 0 0
140 0 0
139 0 0
142 0 0
136 0 0
125 0 0
133 0 0
136 0 0
126 0 0
134 0 0
139 0 0
136 0 0
137 0 0
142 0 0
144 0 0
134 0 0
138 0 0
132 0 0
146 0 0
125 0 0
133 0 0
138 0 0
133 0 0
137 0 0
140 0 0
136 0 0
138 0 0
141 0 0
139 0 0
142 0 0
136 0 0
134 0 0
137 0 0
131 0 0
132 0 0
140 0 0
129 0 0
132 0 0
143 0 0
133 0 0
135 0 0
142 0 0
133 0 0
125 0 0
136 0 0
137 0 0
139 0 0
132 0 0
137 0 0
136 0 0
135 0 0
165 127 140
216 233 255
216 233 255
216 233 255
216 233 255
216 233 255
216 233 255
216 233 255
216 233 255
216 233 255
217 233 255
217 233 255
217 233 255
217 233 255
217 233 255
217 233 255
217 233 255
217 233 255
217 233 255
217 233 255
217 233 255
217 233 255
217 233 255
217 233 255
217 233 255
217 233 255
217 233 255
217 233 255
217 233 255
217 233 255
217 233 255
217 233 255
217 233 255
217 233 255
217 233 255
217 233 255
217 233 255
217 233 255
217 233 255
217 233 255
217 233 255
217 233 255
217 233 255
217 233 255
217 233 255
217 233 255
217 233 255
217 233 255
217 233 255
217 233 255
217 233 255
217 233 255
217 233 255
217 233 255
217 233 255
217 233 255
217 233 255
217 233 255
217 233 255
217 233 255
217 233 255
217 233 255
217 233 255
217 233 255
217 233 255
217 233 255
218 233 255
218 233 255
218 233 255
218 233 255
218 233 255
218 233 255
218 234 255
218 234 255
218 234 255
218 234 255
218 234 255
218 234 255
218 234 255
218 234 255
218 234 255
218 234 255
218 234 255
218 234 255
218 234 255
218 234 255
218 234 255
218 234 255
218 234 255
218 234 255
218 234 255
218 234 255
218 234 255
218 234 255
218 234 255
218 234 255
218 234 255
218 234 255
218 234 255
218 234 255
218 234 255
218 234 255
218 234 255
218 234 255
218 234 255
218 234 255
218 234 255
218 234 255
218 234 255
218 234 255
218 234 255
218 234 255
218 234 255
218 234 255
218 234 255
218 234 255
218 234 255
218 234 255
218 234 255
218 234 255
218 234 255
218 234 255
218 234 255
218 234 255
218 234 255
218 234 255
218 234 255
218 234 255
218 234 255
218 234 255
218 234 255
218 234 255
218 234 255
218 234 255
218 234 255
218 234 255
218 234 255
218 234 255
219 234 255
219 234 255
219 234 255
219 234 255
219 234 255
219 234 255
219 234 255
219 234 255
219 234 255
219 234 255
219 234 255
218 234 255
218 234 255
218 234 255
218 234 255
218 234 255
218 234 255
218 234 255
218 234 255
218 234 255
218 234 255
218 234 255
218 234 255
218 234 255
218 234 255
218 234 255
218 234 255
218 234 255
218 234 255
218 234 255
218 234 255
218 234 255
218 234 255
218 234 255
218 234 255
218 234 255
218 234 255
218 234 255
218 234 255
218 234 255
218 234 255
218 234 255
218 234 255
218 234 255
218 234 255
218 234 255
218 234 255
218 234 255
218 234 255
218 234 255
218 234 255
218 234 255
218 234 255
218 234 255
218 234 255
218 234 255
218 234 255
218 234 255
218 234 255
218 234 255
218 234 255
218 234 255
218 234 255
218 234 255
218 234 255
218 234 255
218 234 255
218 234 255
218 234 255
218 234 255
218 234 255
218 234 255
218 234 255
218 234 255
218 234 255
218 234 255
218 234 255
218 234 255
218 234 255
218 233 255
218 233 255
218 233 255
218 233 255
218 233 255
218 233 255
218 233 255
217 233 255
217 233 255
217 233 255
217 233 255
217 233 255
217 233 255
217 233 255
217 233 255
217 233 255
217 233 255
217 233 255
217 233 255
217 233 255
217 233 255
217 233 255
217 233 255
217 233 255
217 233 255
217 233 255
217 233 255
217 233 255
217 233 255
217 233 255
217 233 255
217 233 255
217 233 255
217 233 255
217 233 255
217 233 255
217 233 255
217 233 255
217 233 255
217 233 255
217 233 255
217 233 255
217 233 255
217 233 255
217 233 255
217 233 255
217 233 255
217 233 255
217 233 255
217 233 255
217 233 255
217 233 255
217 233 255
217 233 255
217 233 255
217 233 255
217 233 255
217 233 255
147 80 88
142 0 0
141 0 0
143 0 0
139 0 0
133 0 0
143 0 0
143 0 0
143 0 0
129 0 0
134 0 0
133 0 0
140 0 0
138 0 0
144 0 0
139 0 0
130 0 0
130 0 0
147 0 0
134 0 0
130 0 0
131 0 0
146 0 0
131 0 0
129 0 0
135 0 0
135 0 0
133 0 0
139 0 0
130 0 0
133 0 0
137 0 0
133 0 0
134 0 0
138 0 0
136 0 0
141 0 0
143 0 0
132 0 0
131 0 0
138 0 0
137 0 0
134 0 0
124 0 0
135 0 0
135 0 0
133 0 0
143 0 0
139 0 0
139 0 0
148 0 0
138 0 0
131 0 0
133 0 0
138 0 0
124 0 0
132 0 0
134 0 0
135 0 0
127 0 0
130 0 0
135 0 0
129 0 0
133 0 0
128 0 0
142 0 0
140 0 0
138 0 0
132 0 0
138 0 0
120 0 0
142 0 0
132 0 0
135 0 0
140 0 0
129 0 0
138 0 0
135 0 0
139 0 0
135 0 0
138 0 0
128 0 0
127 0 0
141 0 0
137 0 0
138 0 0
130 0 0
137 0 0
142 0 0
137 0 0
131 0 0
126 0 0
143 0 0
136 0 0
145 0 0
130 0 0
123 0 0
137 0 0
148 0 0
127 0 0
133 0 0
141 0 0
125 0 0
127 0 0
137 0 0
127 0 0
135 0 0
137 0 0
128 0 0
141 0 0
134 0 0
132 0 0
142 0 0
134 0 0
138 0 0
137 0 0
140 0 0
133 0 0
138 0 0
146 0 0
138 0 0
134 0 0
141 0 0
131 0 0
140 0 0
146 46 51
216 232 254
217 233 255
217 233 255
217 233 255
217 233 255
217 233 255
217 233 255
217 233 255
217 233 255
217 233 255
217 233 255
217 233 255
217 233 255
217 233 255
217 233 255
217 233 255
217 233 255
217 233 255
217 233 255
217 233 255
217 233 255
217 233 255
217 233 255
217 233 255
217 233 255
217 233 255
217 233 255
217 233 255
217 233 255
217 233 255
217 233 255
217 233 255
217 233 255
217 233 255
217 233 255
217 233 255
217 233 255
217 233 255
217 233 255
217 233 255
217 233 255
217 233 255
217 233 255
217 233 255
217 233 255
217 233 255
217 233 255
217 233 255
217 233 255
217 233 255
217 233 255
218 233 255
218 233 255
218 233 255
218 233 255
218 233 255
218 233 255
218 233 255
218 234 255
218 234 255
218 234 255
218 234 255
218 234 255
218 234 255
218 234 255
218 234 255
218 234 255
218 234 255
218 234 255
218 234 255
218 234 255
218 234 255
218 234 255
218 234 255
218 234 255
218 234 255
218 234 255
218 234 255
218 234 255
218 234 255
218 234 255
218 234 255
218 234 255
218 234 255
218 234 255
218 234 255
218 234 255
218 234 255
218 234 255
218 234 255
218 234 255
218 234 255
218 234 255
218 234 255
218 234 255
218 234 255
218 234 255
218 234 255
218 234 255
218 234 255
218 234 255
218 234 255
218 234 255
218 234 255
218 234 255
218 234 255
218 234 255
218 234 255
218 234 255
218 234 255
218 234 255
218 234 255
218 234 255
218 234 255
218 234 255
218 234 255
218 234 255
218 234 255
218 234 255
218 234 255
218 234 255
218 234 255
218 234 255
218 234 255
218 234 255
219 234 255
219 234 255
219 234 255
219 234 255
219 234 255
219 234 255
219 234 255
219 234 255
219 234 255
219 234 255
219 234 255
219 234 255
219 234 255
219 234 255
219 234 255
219 234 255
219 234 255
219 234 255
219 234 255
219 234 255
219 234 255
219 234 255
219 234 255
219 234 255
219 234 255
219 234 255
219 234 255
219 234 255
219 234 255
219 234 255
219 234 255
219 234 255
219 234 255
219 234 255
219 234 255
219 234 255
219 234 255
219 234 255
219 234 255
219 234 255
218 234 255
218 234 255
218 234 255
218 234 255
218 234 255
218 234 255
218 234 255
218 234 255
218 234 255
218 234 255
218 234 255
218 234 255
218 234 255
218 234 255
218 234 255
218 234 255
218 234 255
218 234 255
218 234 255
218 234 255
218 234 255
218 234 255
218 234 255
218 234 255
218 234 255
218 234 255
218 234 255
218 234 255
218 234 255
218 234 255
218 234 255
218 234 255
218 234 255
218 234 255
218 234 255
218 234 255
218 234 255
218 234 255
218 234 255
218 234 255
218 234 255
218 234 255
218 234 255
218 234 255
218 234 255
218 234 255
218 234 255
218 234 255
218 234 255
218 234 255
218 234 255
218 234 255
218 234 255
218 234 255
218 234 255
218 234 255
218 234 255
218 234 255
218 234 255
218 234 255
218 234 255
218 234 255
218 234 255
218 234 255
218 234 255
218 234 255
218 233 255
218 233 255
218 233 255
218 233 255
218 233 255
218 233 255
217 233 255
217 233 255
217 233 255
217 233 255
217 233 255
217 233 255
217 233 255
217 233 255
217 233 255
217 233 255
217 233 255
217 233 255
217 233 255
217 233 255
217 233 255
217 233 255
217 233 255
217 233 255
217 233 255
217 233 255
217 233 255
217 233 255
217 233 255
217 233 255
217 233 255
217 233 255
217 233 255
217 233 255
217 233 255
217 233 255
217 233 255
217 233 255
217 233 255
217 233 255
217 233 255
217 233 255
203 207 227
134 0 0
140 0 0
139 0 0
138 0 0
139 0 0
131 0 0
139 0 0
126 0 0
129 0 0
133 0 0
131 0 0
135 0 0
129 0 0
145 0 0
135 0 0
136 0 0
134 0 0
130 0 0
140 0 0
138 0 0
136 0 0
125 0 0
134 0 0
129 0 0
122 0 0
138 0 0
130 0 0
141 0 0
134 0 0
128 0 0
143 0 0
138 0 0
136 0 0
137 0 0
131 0 0
126 0 0
122 0 0
140 0 0
138 0 0
132 0 0
136 0 0
136 0 0
136 0 0
135 0 0
129 0 0
136 0 0
138 0 0
131 0 0
129 0 0
128 0 0
136 0 0
132 0 0
125 0 0
137 0 0
123 0 0
137 0 0
135 0 0
134 0 0
126 0 0
136 0 0
137 0 0
138 0 0
141 0 0
133 0 0
134 0 0
140 0 0
135 0 0
129 0 0
134 0 0
135 0 0
134 0 0
131 0 0
139 0 0
132 0 0
134 0 0
138 0 0
151 0 0
139 0 0
127 0 0
142 0 0
137 0 0
134 0 0
132 0 0
138 0 0
134 0 0
137 0 0
133 0 0
140 0 0
131 0 0
133 0 0
135 0 0
138 0 0
134 0 0
129 0 0
131 0 0
137 0 0
138 0 0
130 0 0
134 0 0
135 0 0
133 0 0
133 0 0
131 0 0
132 0 0
128 0 0
136 0 0
136 0 0
135 0 0
125 0 0
132 0 0
141 0 0
137 0 0
130 0 0
135 0 0
138 0 0
139 0 0
138 0 0
135 0 0
138 0 0
139 0 0
144 0 0
143 0 0
132 0 0
136 0 0
135 0 0
141 0 0
206 210 230
217 233 255
217 233 255
217 233 255
217 233 255
217 233 255
217 233 255
217 233 255
217 233 255
217 233 255
217 233 255
217 233 255
217 233 255
217 233 255
217 233 255
217 233 255
217 233 255
217 233 255
217 233 255
217 233 255
217 233 255
217 233 255
217 233 255
217 233 255
217 233 255
217 233 255
217 233 255
217 233 255
217 233 255
217 233 255
217 233 255
217 233 255
217 233 255
217 233 255
217 233 255
217 233 255
217 233 255
218 233 255
218 233 255
218 233 255
218 233 255
218 233 255
218 233 255
218 234 255
218 234 255
218 234 255
218 234 255
218 234 255
218 234 255
218 234 255
218 234 255
218 234 255
218 234 255
218 234 255
218 234 255
218 234 255
218 234 255
218 234 255
218 234 255
218 234 255
218 234 255
218 234 255
218 234 255
218 234 255
218 234 255
218 234 255
218 234 255
218 234 255
218 234 255
218 234 255
218 234 255
218 234 255
218 234 255
218 234 255
218 234 255
218 234 255
218 234 255
218 234 255
218 234 255
218 234 255
218 234 255
218 234 255
218 234 255
218 234 255
218 234 255
218 234 255
218 234 255
218 234 255
218 234 255
218 234 255
218 234 255
218 234 255
218 234 255
218 234 255
218 234 255
218 234 255
218 234 255
218 234 255
218 234 255
218 234 255
218 234 255
218 234 255
218 234 255
218 234 255
218 234 255
218 234 255
218 234 255
218 234 255
218 234 255
219 234 255
219 234 255
219 234 255
219 234 255
219 234 255
219 234 255
219 234 255
219 234 255
219 234 255
219 234 255
219 234 255
219 234 255
219 234 255
219 234 255
219 234 255
219 234 255
219 234 255
219 234 255
219 234 255
219 234 255
219 234 255
219 234 255
219 234 255
219 234 255
219 234 255
219 234 255
219 234 255
219 234 255
219 234 255
219 234 255
219 234 255
219 234 255
219 234 255
219 234 255
219 234 255
219 234 255
219 234 255
219 234 255
219 234 255
219 234 255
219 234 255
219 234 255
219 234 255
219 234 255
219 234 255
219 234 255
219 234 255
219 234 255
219 234 255
219 234 255
219 234 255
219 234 255
219 234 255
219 234 255
219 234 255
219 234 255
219 234 255
219 234 255
219 234 255
219 234 255
219 234 255
219 234 255
219 234 255
219 234 255
219 234 255
219 234 255
219 234 255
219 234 255
219 234 255
219 234 255
219 234 255
219 234 255
218 234 255
218 234 255
218 234 255
218 234 255
218 234 255
218 234 255
218 234 255
218 234 255
218 234 255
218 234 255
218 234 255
218 234 255
218 234 255
218 234 255
218 234 255
218 234 255
218 234 255
218 234 255
218 234 255
218 234 255
218 234 255
218 234 255
218 234 255
218 234 255
218 234 255
218 234 255
218 234 255
218 234 255
218 234 255
218 234 255
218 234 255
218 234 255
218 234 255
218 234 255
218 234 255
218 234 255
218 234 255
218 234 255
218 234 255
218 234 255
218 234 255
218 234 255
218 234 255
218 234 255
218 234 255
218 234 255
218 234 255
218 234 255
218 234 255
218 234 255
218 234 255
218 234 255
218 234 255
218 234 255
218 234 255
218 234 255
218 234 255
218 234 255
218 234 255
218 234 255
218 234 255
218 234 255
218 234 255
218 234 255
218 234 255
218 234 255
218 233 255
218 233 255
218 233 255
218 233 255
218 233 255
218 233 255
218 233 255
217 233 255
217 233 255
217 233 255
217 233 255
217 233 255
217 233 255
217 233 255
217 233 255
217 233 255
217 233 255
217 233 255
217 233 255
217 233 255
217 233 255
217 233 255
217 233 255
217 233 255
217 233 255
217 233 255
194 174 191
126 0 0
138 0 0
136 0 0
144 0 0
133 0 0
129 0 0
135 0 0
140 0 0
153 0 0
132 0 0
133 0 0
142 0 0
136 0 0
141 0 0
115 0 0
146 0 0
140 0 0
129 0 0
141 0 0
132 0 0
134 0 0
132 0 0
126 0 0
138 0 0
139 0 0
136 0 0
132 0 0
132 0 0
130 0 0
140 0 0
130 0 0
132 0 0
142 0 0
139 0 0
129 0 0
138 0 0
143 0 0
135 0 0
132 0 0
131 0 0
128 0 0
122 0 0
142 0 0
141 0 0
130 0 0
127 0 0
137 0 0
130 0 0
140 0 0
129 0 0
130 0 0
134 0 0
133 0 0
138 0 0
136 0 0
135 0 0
135 0 0
128 0 0
128 0 0
132 0 0
135 0 0
128 0 0
145 0 0
130 0 0
132 0 0
137 0 0
121 0 0
147 0 0
129 0 0
132 0 0
128 0 0
135 0 0
131 0 0
139 0 0
125 0 0
128 0 0
133 0 0
133 0 0
133 0 0
128 0 0
126 0 0
134 0 0
132 0 0
127 0 0
146 0 0
142 0 0
133 0 0
143 0 0
132 0 0
143 0 0
135 0 0
144 0 0
135 0 0
137 0 0
126 0 0
140 0 0
131 0 0
135 0 0
130 0 0
132 0 0
124 0 0
129 0 0
135 0 0
138 0 0
143 0 0
133 0 0
136 0 0
130 0 0
141 0 0
134 0 0
134 0 0
138 0 0
139 0 0
141 0 0
139 0 0
137 0 0
119 0 0
136 0 0
137 0 0
135 0 0
135 0 0
136 0 0
139 0 0
136 0 0
138 0 0
141 0 0
187 179 196
217 233 255
217 233 255
217 233 255
217 233 255
217 233 255
217 233 255
217 233 255
217 233 255
217 233 255
217 233 255
217 233 255
217 233 255
217 233 255
217 233 255
217 233 255
217 233 255
217 233 255
217 233 255
217 233 255
218 233 255
218 233 255
218 233 255
218 233 255
218 233 255
218 233 255
218 233 255
218 233 255
218 234 255
218 234 255
218 234 255
218 234 255
218 234 255
218 234 255
218 234 255
218 234 255
218 234 255
218 234 255
218 234 255
218 234 255
218 234 255
218 234 255
218 234 255
218 234 255
218 234 255
218 234 255
218 234 255
218 234 255
218 234 255
218 234 255
218 234 255
218 234 255
218 234 255
218 234 255
218 234 255
218 234 255
218 234 255
218 234 255
218 234 255
218 234 255
218 234 255
218 234 255
218 234 255
218 234 255
218 234 255
218 234 255
218 234 255
218 234 255
218 234 255
218 234 255
218 234 255
218 234 255
218 234 255
218 234 255
218 234 255
218 234 255
218 234 255
218 234 255
218 234 255
218 234 255
218 234 255
218 234 255
218 234 255
218 234 255
218 234 255
218 234 255
218 234 255
218 234 255
218 234 255
218 234 255
218 234 255
218 234 255
219 234 255
219 234 255
219 234 255
219 234 255
219 234 255
219 234 255
219 234 255
219 234 255
219 234 255
219 234 255
219 234 255
219 234 255
219 234 255
219 234 255
219 234 255
219 234 255
219 234 255
219 234 255
219 234 255
219 234 255
219 234 255
219 234 255
219 234 255
219 234 255
219 234 255
219 234 255
219 234 255
219 234 255
219 234 255
219 234 255
219 234 255
219 234 255
219 234 255
219 234 255
219 234 255
219 234 255
219 234 255
219 234 255
219 234 255
219 234 255
219 234 255
219 234 255
219 234 255
219 234 255
219 234 255
219 234 255
219 234 255
219 234 255
219 234 255
219 234 255
219 234 255
219 234 255
219 234 255
219 234 255
219 234 255
219 234 255
219 234 255
219 234 255
219 234 255
219 234 255
219 234 255
219 234 255
219 234 255
219 234 255
219 234 255
219 234 255
219 234 255
219 234 255
219 234 255
219 234 255
219 234 255
219 234 255
219 234 255
219 234 255
219 234 255
219 234 255
219 234 255
219 234 255
219 234 255
219 234 255
219 234 255
219 234 255
219 234 255
219 234 255
219 234 255
219 234 255
219 234 255
219 234 255
219 234 255
219 234 255
219 234 255
219 234 255
219 234 255
219 234 255
219 234 255
219 234 255
219 234 255
219 234 255
219 234 255
219 234 255
219 234 255
219 234 255
219 234 255
219 234 255
219 234 255
219 234 255
218 234 255
218 234 255
218 234 255
218 234 255
218 234 255
218 234 255
218 234 255
218 234 255
218 234 255
218 234 255
218 234 255
218 234 255
218 234 255
218 234 255
218 234 255
218 234 255
218 234 255
218 234 255
218 234 255
218 234 255
218 234 255
218 234 255
218 234 255
218 234 255
218 234 255
218 234 255
218 234 255
218 234 255
218 234 255
218 234 255
218 234 255
218 234 255
218 234 255
218 234 255
218 234 255
218 234 255
218 234 255
218 234 255
218 234 255
218 234 255
218 234 255
218 234 255
218 234 255
218 234 255
218 234 255
218 234 255
218 234 255
218 234 255
218 234 255
218 234 255
218 234 255
218 234 255
218 234 255
218 234 255
218 234 255
218 234 255
218 234 255
218 234 255
218 234 255
218 234 255
218 234 255
218 234 255
218 234 255
218 234 255
218 234 255
218 234 255
218 233 255
218 233 255
218 233 255
218 233 255
218 233 255
218 233 255
218 233 255
217 233 255
217 233 255
168 134 147
133 0 0
140 0 0
147 0 0
134 0 0
142 0 0
147 0 0
141 0 0
134 0 0
136 0 0
135 0 0
127 0 0
134 0 0
139 0 0
134 0 0
140 0 0
134 0 0
145 0 0
137 0 0
143 0 0
135 0 0
127 0 0
126 0 0
137 0 0
132 0 0
133 0 0
134 0 0
137 0 0
141 0 0
129 0 0
127 0 0
145 0 0
133 0 0
142 0 0
132 0 0
131 0 0
133 0 0
136 0 0
130 0 0
132 0 0
137 0 0
138 0 0
140 0 0
140 0 0
129 0 0
127 0 0
134 0 0
131 0 0
141 0 0
127 0 0
133 0 0
122 0 0
129 0 0
135 0 0
131 0 0
137 0 0
132 0 0
145 0 0
137 0 0
143 0 0
136 0 0
128 0 0
134 0 0
132 0 0
129 0 0
131 0 0
133 0 0
134 0 0
124 0 0
140 0 0
135 0 0
134 0 0
139 0 0
123 0 0
131 0 0
132 0 0
132 0 0
134 0 0
141 0 0
137 0 0
134 0 0
132 0 0
136 0 0
133 0 0
129 0 0
132 0 0
136 0 0
127 0 0
130 0 0
131 0 0
134 0 0
120 0 0
130 0 0
134 0 0
135 0 0
127 0 0
143 0 0
131 0 0
133 0 0
134 0 0
136 0 0
122 0 0
138 0 0
135 0 0
133 0 0
137 0 0
130 0 0
132 0 0
125 0 0
134 0 0
137 0 0
140 0 0
136 0 0
135 0 0
137 0 0
130 0 0
136 0 0
140 0 0
138 0 0
124 0 0
128 0 0
140 0 0
137 0 0
133 0 0
142 0 0
136 0 0
141 0 0
165 142 155
217 233 255
218 233 255
218 233 255
218 233 255
218 233 255
218 233 255
218 233 255
218 233 255
218 233 255
218 234 255
218 234 255
218 234 255
218 234 255
218 234 255
218 234 255
218 234 255
218 234 255
218 234 255
218 234 255
218 234 255
218 234 255
218 234 255
218 234 255
218 234 255
218 234 255
218 234 255
218 234 255
218 234 255
218 234 255
218 234 255
218 234 255
218 234 255
218 234 255
218 234 255
218 234 255
218 234 255
218 234 255
218 234 255
218 234 255
218 234 255
218 234 255
218 234 255
218 234 255
218 234 255
218 234 255
218 234 255
218 234 255
218 234 255
218 234 255
218 234 255
218 234 255
218 234 255
218 234 255
218 234 255
218 234 255
218 234 255
218 234 255
218 234 255
218 234 255
218 234 255
218 234 255
218 234 255
218 234 255
218 234 255
218 234 255
218 234 255
218 234 255
218 234 255
218 234 255
218 234 255
218 234 255
218 234 255
218 234 255
218 234 255
218 234 255
219 234 255
219 234 255
219 234 255
219 234 255
219 234 255
219 234 255
219 234 255
219 234 255
219 234 255
219 234 255
219 234 255
219 234 255
219 234 255
219 234 255
219 234 255
219 234 255
219 234 255
219 234 255
219 234 255
219 234 255
219 234 255
219 234 255
219 234 255
219 234 255
219 234 255
219 234 255
219 234 255
219 234 255
219 234 255
219 234 255
219 234 255
219 234 255
219 234 255
219 234 255
219 234 255
219 234 255
219 234 255
219 234 255
219 234 255
219 234 255
219 234 255
219 234 255
219 234 255
219 234 255
219 234 255
219 234 255
219 234 255
219 234 255
219 234 255
219 234 255
219 234 255
219 234 255
219 234 255
219 234 255
219 234 255
219 234 255
219 234 255
219 234 255
219 234 255
219 234 255
219 234 255
219 234 255
219 234 255
219 234 255
219 234 255
219 234 255
219 234 255
219 234 255
219 234 255
219 234 255
219 234 255
219 234 255
219 234 255
219 234 255
219 234 255
219 234 255
219 234 255
219 234 255
219 234 255
219 234 255
219 234 255
219 234 255
219 234 255
219 234 255
219 234 255
219 234 255
219 234 255
219 234 255
219 234 255
219 234 255
219 234 255
219 234 255
219 234 255
219 234 255
219 234 255
219 234 255
219 234 255
219 234 255
219 234 255
219 234 255
219 234 255
219 234 255
219 234 255
219 234 255
219 234 255
219 234 255
219 234 255
219 234 255
219 234 255
219 234 255
219 234 255
219 234 255
219 234 255
219 234 255
219 234 255
219 234 255
219 234 255
219 234 255
219 234 255
219 234 255
219 234 255
219 234 255
219 234 255
219 234 255
219 234 255
219 234 255
219 234 255
219 234 255
219 234 255
219 234 255
219 234 255
219 234 255
219 234 255
219 234 255
219 234 255
219 234 255
219 234 255
219 234 255
219 234 255
219 234 255
219 234 255
218 234 255
218 234 255
218 234 255
218 234 255
218 234 255
218 234 255
218 234 255
218 234 255
218 234 255
218 234 255
218 234 255
218 234 255
218 234 255
218 234 255
218 234 255
218 234 255
218 234 255
218 234 255
218 234 255
218 234 255
218 234 255
218 234 255
218 234 255
218 234 255
218 234 255
218 234 255
218 234 255
218 234 255
218 234 255
218 234 255
218 234 255
218 234 255
218 234 255
218 234 255
218 234 255
218 234 255
218 234 255
218 234 255
218 234 255
218 234 255
218 234 255
218 234 255
218 234 255
218 234 255
218 234 255
218 234 255
218 234 255
218 234 255
218 234 255
218 234 255
218 234 255
218 234 255
218 234 255
218 234 255
218 234 255
218 234 255
146 102 111
145 0 0
149 0 0
136 0 0
136 0 0
143 0 0
143 0 0
133 0 0
122 0 0
134 0 0
141 0 0
135 0 0
128 0 0
131 0 0
137 0 0
133 0 0
141 0 0
132 0 0
125 0 0
128 0 0
125 0 0
127 0 0
133 0 0
129 0 0
133 0 0
128 0 0
141 0 0
117 0 0
130 0 0
132 0 0
128 0 0
135 0 0
120 0 0
129 0 0
142 0 0
141 0 0
129 0 0
143 0 0
127 0 0
129 0 0
129 0 0
137 0 0
132 0 0
125 0 0
134 0 0
131 0 0
137 0 0
135 0 0
136 0 0
139 0 0
138 0 0
138 0 0
129 0 0
130 0 0
129 0 0
135 0 0
128 0 0
144 0 0
134 0 0
143 0 0
128 0 0
131 0 0
120 0 0
139 0 0
125 0 0
130 0 0
141 0 0
134 0 0
136 0 0
137 0 0
135 0 0
135 0 0
134 0 0
141 0 0
137 0 0
129 0 0
127 0 0
133 0 0
123 0 0
138 0 0
128 0 0
143 0 0
144 0 0
130 0 0
122 0 0
130 0 0
139 0 0
137 0 0
140 0 0
128 0 0
140 0 0
132 0 0
126 0 0
138 0 0
131 0 0
136 0 0
132 0 0
130 0 0
135 0 0
125 0 0
137 0 0
136 0 0
134 0 0
135 0 0
144 0 0
135 0 0
139 0 0
130 0 0
140 0 0
132 0 0
141 0 0
122 0 0
132 0 0
137 0 0
135 0 0
138 0 0
143 0 0
133 0 0
133 0 0
138 0 0
139 0 0
141 0 0
133 0 0
133 0 0
136 0 0
132 0 0
134 0 0
151 87 95
218 234 255
218 234 255
218 234 255
218 234 255
218 234 255
218 234 255
218 234 255
218 234 255
218 234 255
218 234 255
218 234 255
218 234 255
218 234 255
218 234 255
218 234 255
218 234 255
218 234 255
218 234 255
218 234 255
218 234 255
218 234 255
218 234 255
218 234 255
218 234 255
218 234 255
218 234 255
218 234 255
218 234 255
218 234 255
218 234 255
218 234 255
218 234 255
218 234 255
218 234 255
218 234 255
218 234 255
218 234 255
218 234 255
218 234 255
218 234 255
218 234 255
218 234 255
218 234 255
218 234 255
218 234 255
218 234 255
218 234 255
218 234 255
218 234 255
218 234 255
218 234 255
218 234 255
218 234 255
218 234 255
218 234 255
218 234 255
218 234 255
219 234 255
219 234 255
219 234 255
219 234 255
219 234 255
219 234 255
219 234 255
219 234 255
219 234 255
219 234 255
219 234 255
219 234 255
219 234 255
219 234 255
219 234 255
219 234 255
219 234 255
219 234 255
219 234 255
219 234 255
219 234 255
219 234 255
219 234 255
219 234 255
219 234 255
219 234 255
219 234 255
219 234 255
219 234 255
219 234 255
219 234 255
219 234 255
219 234 255
219 234 255
219 234 255
219 234 255
219 234 255
219 234 255
219 234 255
219 234 255
219 234 255
219 234 255
219 234 255
219 234 255
219 234 255
219 234 255
219 234 255
219 234 255
219 234 255
219 234 255
219 234 255
219 234 255
219 234 255
219 234 255
219 234 255
219 234 255
219 234 255
219 234 255
219 234 255
219 234 255
219 234 255
219 234 255
219 234 255
219 234 255
219 234 255
219 234 255
219 234 255
219 234 255
219 234 255
219 234 255
219 234 255
219 234 255
219 234 255
219 234 255
219 234 255
219 234 255
219 234 255
219 234 255
219 234 255
219 235 255
219 235 255
219 235 255
219 235 255
219 235 255
219 234 255
219 234 255
219 234 255
219 234 255
219 234 255
219 234 255
219 234 255
219 234 255
219 234 255
219 234 255
219 234 255
219 234 255
219 234 255
219 234 255
219 234 255
219 234 255
219 234 255
219 234 255
219 234 255
219 234 255
219 234 255
219 234 255
219 234 255
219 234 255
219 234 255
219 234 255
219 234 255
219 234 255
219 234 255
219 234 255
219 234 255
219 234 255
219 234 255
219 234 255
219 234 255
219 234 255
219 234 255
219 234 255
219 234 255
219 234 255
219 234 255
219 234 255
219 234 255
219 234 255
219 234 255
219 234 255
219 234 255
219 234 255
219 234 255
219 234 255
219 234 255
219 234 255
219 234 255
219 234 255
219 234 255
219 234 255
219 234 255
219 234 255
219 234 255
219 234 255
219 234 255
219 234 255
219 234 255
219 234 255
219 234 255
219 234 255
219 234 255
219 234 255
219 234 255
219 234 255
219 234 255
219 234 255
219 234 255
219 234 255
219 234 255
219 234 255
219 234 255
219 234 255
219 234 255
219 234 255
219 234 255
219 234 255
219 234 255
219 234 255
219 234 255
219 234 255
219 234 255
219 234 255
219 234 255
219 234 255
219 234 255
219 234 255
219 234 255
219 234 255
218 234 255
218 234 255
218 234 255
218 234 255
218 234 255
218 234 255
218 234 255
218 234 255
218 234 255
218 234 255
218 234 255
218 234 255
218 234 255
218 234 255
218 234 255
218 234 255
218 234 255
218 234 255
218 234 255
218 234 255
218 234 255
218 234 255
218 234 255
218 234 255
218 234 255
218 234 255
218 234 255
218 234 255
218 234 255
218 234 255
218 234 255
218 234 255
218 234 255
218 234 255
218 234 255
218 234 255
217 231 253
132 23 25
133 0 0
138 0 0
137 0 0
135 0 0
133 0 0
132 0 0
141 0 0
134 0 0
126 0 0
134 0 0
136 0 0
129 0 0
140 0 0
134 0 0
129 0 0
130 0 0
132 0 0
141 0 0
132 0 0
128 0 0
128 0 0
123 0 0
129 0 0
136 0 0
123 0 0
145 0 0
130 0 0
136 0 0
136 0 0
132 0 0
137 0 0
139 0 0
139 0 0
134 0 0
133 0 0
137 0 0
128 0 0
125 0 0
123 0 0
137 0 0
139 0 0
127 0 0
122 0 0
132 0 0
136 0 0
138 0 0
131 0 0
137 0 0
135 0 0
134 0 0
132 0 0
138 0 0
134 0 0
134 0 0
137 0 0
123 0 0
129 0 0
137 0 0
120 0 0
127 0 0
132 0 0
132 0 0
132 0 0
134 0 0
129 0 0
137 0 0
139 0 0
138 0 0
129 0 0
130 0 0
132 0 0
142 0 0
126 0 0
140 0 0
133 0 0
128 0 0
132 0 0
134 0 0
136 0 0
132 0 0
128 0 0
124 0 0
131 0 0
135 0 0
130 0 0
134 0 0
134 0 0
136 0 0
139 0 0
132 0 0
135 0 0
136 0 0
136 0 0
128 0 0
130 0 0
130 0 0
140 0 0
129 0 0
125 0 0
137 0 0
132 0 0
133 0 0
124 0 0
130 0 0
127 0 0
133 0 0
124 0 0
136 0 0
131 0 0
135 0 0
128 0 0
134 0 0
138 0 0
130 0 0
132 0 0
136 0 0
125 0 0
129 0 0
141 0 0
134 0 0
135 0 0
137 0 0
135 0 0
131 0 0
133 0 0
137 0 0
126 23 25
215 228 249
218 234 255
218 234 255
218 234 255
218 234 255
218 234 255
218 234 255
218 234 255
218 234 255
218 234 255
218 234 255
218 234 255
218 234 255
218 234 255
218 234 255
218 234 255
218 234 255
218 234 255
218 234 255
218 234 255
218 234 255
218 234 255
218 234 255
218 234 255
218 234 255
218 234 255
218 234 255
218 234 255
218 234 255
218 234 255
218 234 255
218 234 255
218 234 255
218 234 255
218 234 255
218 234 255
219 234 255
219 234 255
219 234 255
219 234 255
219 234 255
219 234 255
219 234 255
219 234 255
219 234 255
219 234 255
219 234 255
219 234 255
219 234 255
219 234 255
219 234 255
219 234 255
219 234 255
219 234 255
219 234 255
219 234 255
219 234 255
219 234 255
219 234 255
219 234 255
219 234 255
219 234 255
219 234 255
219 234 255
219 234 255
219 234 255
219 234 255
219 234 255
219 234 255
219 234 255
219 234 255
219 234 255
219 234 255
219 234 255
219 234 255
219 234 255
219 234 255
219 234 255
219 234 255
219 234 255
219 234 255
219 234 255
219 234 255
219 234 255
219 234 255
219 234 255
219 234 255
219 234 255
219 234 255
219 234 255
219 234 255
219 234 255
219 234 255
219 234 255
219 234 255
219 234 255
219 234 255
219 234 255
219 234 255
219 234 255
219 234 255
219 234 255
219 234 255
219 234 255
219 234 255
219 234 255
219 234 255
219 234 255
219 234 255
219 234 255
219 234 255
219 234 255
219 234 255
219 234 255
219 234 255
219 234 255
219 234 255
219 234 255
219 234 255
219 234 255
219 234 255
219 234 255
219 234 255
219 234 255
219 234 255
219 234 255
219 234 255
219 234 255
219 234 255
219 234 255
219 234 255
219 235 255
219 235 255
219 235 255
219 235 255
219 235 255
220 235 255
220 235 255
220 235 255
220 235 255
220 235 255
220 235 255
220 235 255
220 235 255
220 235 255
220 235 255
220 235 255
220 235 255
220 235 255
220 235 255
219 235 255
219 235 255
219 235 255
219 235 255
219 235 255
219 235 255
219 235 255
219 235 255
219 235 255
219 235 255
219 235 255
219 235 255
219 235 255
219 235 255
219 235 255
219 234 255
219 234 255
219 234 255
219 234 255
219 234 255
219 234 255
219 234 255
219 234 255
219 234 255
219 234 255
219 234 255
219 234 255
219 234 255
219 234 255
219 234 255
219 234 255
219 234 255
219 234 255
219 234 255
219 234 255
219 234 255
219 234 255
219 234 255
219 234 255
219 234 255
219 234 255
219 234 255
219 234 255
219 234 255
219 234 255
219 234 255
219 234 255
219 234 255
219 234 255
219 234 255
219 234 255
219 234 255
219 234 255
219 234 255
219 234 255
219 234 255
219 234 255
219 234 255
219 234 255
219 234 255
219 234 255
219 234 255
219 234 255
219 234 255
219 234 255
219 234 255
219 234 255
219 234 255
219 234 255
219 234 255
219 234 255
219 234 255
219 234 255
219 234 255
219 234 255
219 234 255
219 234 255
219 234 255
219 234 255
219 234 255
219 234 255
219 234 255
219 234 255
219 234 255
219 234 255
219 234 255
219 234 255
219 234 255
219 234 255
219 234 255
219 234 255
219 234 255
219 234 255
219 234 255
219 234 255
219 234 255
219 234 255
219 234 255
219 234 255
219 234 255
219 234 255
219 234 255
219 234 255
219 234 255
219 234 255
219 234 255
219 234 255
219 234 255
218 234 255
218 234 255
218 234 255
218 234 255
218 234 255
218 234 255
218 234 255
218 234 255
218 234 255
218 234 255
218 234 255
218 234 255
218 234 255
206 214 234
136 0 0
139 0 0
142 0 0
127 0 0
134 0 0
132 0 0
129 0 0
134 0 0
127 0 0
137 0 0
134 0 0
139 0 0
134 0 0
132 0 0
135 0 0
131 0 0
130 0 0
139 0 0
133 0 0
134 0 0
131 0 0
143 0 0
133 0 0
142 0 0
129 0 0
131 0 0
132 0 0
134 0 0
133 0 0
138 0 0
134 0 0
126 0 0
134 0 0
130 0 0
142 0 0
131 0 0
131 0 0
131 0 0
134 0 0
130 0 0
138 0 0
126 0 0
126 0 0
122 0 0
141 0 0
140 0 0
131 0 0
127 0 0
134 0 0
136 0 0
132 0 0
127 0 0
131 0 0
138 0 0
143 0 0
134 0 0
136 0 0
119 0 0
135 0 0
140 0 0
121 0 0
136 0 0
130 0 0
136 0 0
128 0 0
126 0 0
127 0 0
132 0 0
140 0 0
137 0 0
125 0 0
137 0 0
145 0 0
143 0 0
133 0 0
142 0 0
139 0 0
132 0 0
137 0 0
129 0 0
138 0 0
133 0 0
126 0 0
123 0 0
123 0 0
132 0 0
123 0 0
135 0 0
130 0 0
132 0 0
130 0 0
131 0 0
123 0 0
130 0 0
133 0 0
124 0 0
133 0 0
137 0 0
138 0 0
117 0 0
129 0 0
125 0 0
138 0 0
133 0 0
135 0 0
117 0 0
140 0 0
137 0 0
143 0 0
129 0 0
129 0 0
132 0 0
131 0 0
133 0 0
132 0 0
135 0 0
121 0 0
138 0 0
128 0 0
133 0 0
138 0 0
139 0 0
133 0 0
135 0 0
131 0 0
135 0 0
129 0 0
135 0 0
209 218 238
218 234 255
218 234 255
218 234 255
218 234 255
218 234 255
218 234 255
218 234 255
218 234 255
218 234 255
218 234 255
218 234 255
218 234 255
218 234 255
219 234 255
219 234 255
219 234 255
219 234 255
219 234 255
219 234 255
219 234 255
219 234 255
219 234 255
219 234 255
219 234 255
219 234 255
219 234 255
219 234 255
219 234 255
219 234 255
219 234 255
219 234 255
219 234 255
219 234 255
219 234 255
219 234 255
219 234 255
219 234 255
219 234 255
219 234 255
219 234 255
219 234 255
219 234 255
219 234 255
219 234 255
219 234 255
219 234 255
219 234 255
219 234 255
219 234 255
219 234 255
219 234 255
219 234 255
219 234 255
219 234 255
219 234 255
219 234 255
219 234 255
219 234 255
219 234 255
219 234 255
219 234 255
219 234 255
219 234 255
219 234 255
219 234 255
219 234 255
219 234 255
219 234 255
219 234 255
219 234 255
219 234 255
219 234 255
219 234 255
219 234 255
219 234 255
219 234 255
219 234 255
219 234 255
219 234 255
219 234 255
219 234 255
219 234 255
219 234 255
219 234 255
219 234 255
219 234 255
219 234 255
219 234 255
219 234 255
219 234 255
219 234 255
219 234 255
219 234 255
219 234 255
219 234 255
219 234 255
219 234 255
219 234 255
219 234 255
219 234 255
219 234 255
219 234 255
219 234 255
219 234 255
219 234 255
219 235 255
219 235 255
219 235 255
219 235 255
219 235 255
219 235 255
219 235 255
219 235 255
219 235 255
219 235 255
219 235 255
219 235 255
219 235 255
219 235 255
219 235 255
219 235 255
220 235 255
220 235 255
220 235 255
220 235 255
220 235 255
220 235 255
220 235 255
220 235 255
220 235 255
220 235 255
220 235 255
220 235 255
220 235 255
220 235 255
220 235 255
220 235 255
220 235 255
220 235 255
220 235 255
220 235 255
220 235 255
220 235 255
220 235 255
220 235 255
220 235 255
220 235 255
220 235 255
220 235 255
220 235 255
220 235 255
220 235 255
220 235 255
220 235 255
220 235 255
220 235 255
220 235 255
220 235 255
220 235 255
220 235 255
220 235 255
220 235 255
220 235 255
220 235 255
220 235 255
220 235 255
220 235 255
220 235 255
220 235 255
220 235 255
220 235 255
220 235 255
220 235 255
220 235 255
219 235 255
220 235 255
219 235 255
219 235 255
219 235 255
219 235 255
219 235 255
219 235 255
219 235 255
219 235 255
219 235 255
219 235 255
219 235 255
219 235 255
219 235 255
219 235 255
219 234 255
219 234 255
219 234 255
219 234 255
219 234 255
219 234 255
219 234 255
219 234 255
219 234 255
219 234 255
219 234 255
219 234 255
219 234 255
219 234 255
219 234 255
219 234 255
219 234 255
219 234 255
219 234 255
219 234 255
219 234 255
219 234 255
219 234 255
219 234 255
219 234 255
219 234 255
219 234 255
219 234 255
219 234 255
219 234 255
219 234 255
219 234 255
219 234 255
219 234 255
219 234 255
219 234 255
219 234 255
219 234 255
219 234 255
219 234 255
219 234 255
219 234 255
219 234 255
219 234 255
219 234 255
219 234 255
219 234 255
219 234 255
219 234 255
219 234 255
219 234 255
219 234 255
219 234 255
219 234 255
219 234 255
219 234 255
219 234 255
219 234 255
219 234 255
219 234 255
219 234 255
219 234 255
219 234 255
219 234 255
219 234 255
219 234 255
219 234 255
219 234 255
219 234 255
219 234 255
219 234 255
219 234 255
219 234 255
219 234 255
219 234 255
219 234 255
219 234 255
219 234 255
219 234 255
219 234 255
190 187 204
129 0 0
135 0 0
136 0 0
138 0 0
143 0 0
140 0 0
143 0 0
134 0 0
139 0 0
133 0 0
133 0 0
132 0 0
133 0 0
134 0 0
130 0 0
124 0 0
125 0 0
141 0 0
128 0 0
128 0 0
141 0 0
133 0 0
130 0 0
138 0 0
136 0 0
132 0 0
135 0 0
128 0 0
127 0 0
130 0 0
127 0 0
131 0 0
135 0 0
134 0 0
136 0 0
132 0 0
131 0 0
128 0 0
119 0 0
125 0 0
134 0 0
141 0 0
135 0 0
127 0 0
127 0 0
130 0 0
137 0 0
128 0 0
131 0 0
139 0 0
127 0 0
133 0 0
129 0 0
132 0 0
130 0 0
115 0 0
127 0 0
136 0 0
137 0 0
130 0 0
132 0 0
141 0 0
140 0 0
138 0 0
130 0 0
134 0 0
129 0 0
131 0 0
138 0 0
129 0 0
132 0 0
133 0 0
125 0 0
119 0 0
128 0 0
130 0 0
135 0 0
135 0 0
132 0 0
128 0 0
125 0 0
146 0 0
139 0 0
134 0 0
117 0 0
132 0 0
130 0 0
135 0 0
128 0 0
136 0 0
119 0 0
137 0 0
128 0 0
128 0 0
134 0 0
131 0 0
143 0 0
119 0 0
143 0 0
125 0 0
118 0 0
132 0 0
123 0 0
135 0 0
134 0 0
127 0 0
118 0 0
136 0 0
129 0 0
126 0 0
128 0 0
135 0 0
133 0 0
119 0 0
130 0 0
130 0 0
130 0 0
127 0 0
125 0 0
126 0 0
139 0 0
141 0 0
131 0 0
135 0 0
135 0 0
135 0 0
141 0 0
138 0 0
204 205 224
219 234 255
219 234 255
219 234 255
219 234 255
219 234 255
219 234 255
219 234 255
219 234 255
219 234 255
219 234 255
219 234 255
219 234 255
219 234 255
219 234 255
219 234 255
219 234 255
219 234 255
219 234 255
219 234 255
219 234 255
219 234 255
219 234 255
219 234 255
219 234 255
219 234 255
219 234 255
219 234 255
219 234 255
219 234 255
219 234 255
219 234 255
219 234 255
219 234 255
219 234 255
219 234 255
219 234 255
219 234 255
219 234 255
219 234 255
219 234 255
219 234 255
219 234 255
219 234 255
219 234 255
219 234 255
219 234 255
219 234 255
219 234 255
219 234 255
219 234 255
219 234 255
219 234 255
219 234 255
219 234 255
219 234 255
219 234 255
219 234 255
219 234 255
219 234 255
219 234 255
219 234 255
219 234 255
219 234 255
219 234 255
219 234 255
219 234 255
219 234 255
219 234 255
219 234 255
219 234 255
219 234 255
219 234 255
219 234 255
219 234 255
219 234 255
219 234 255
219 234 255
219 234 255
219 234 255
219 234 255
219 235 255
219 235 255
219 235 255
219 235 255
219 235 255
219 235 255
219 235 255
219 235 255
219 235 255
219 235 255
219 235 255
219 235 255
219 235 255
219 235 255
219 235 255
220 235 255
220 235 255
220 235 255
220 235 255
220 235 255
220 235 255
220 235 255
220 235 255
220 235 255
220 235 255
220 235 255
220 235 255
220 235 255
220 235 255
220 235 255
220 235 255
220 235 255
220 235 255
220 235 255
220 235 255
220 235 255
220 235 255
220 235 255
220 235 255
220 235 255
220 235 255
220 235 255
220 235 255
220 235 255
220 235 255
220 235 255
220 235 255
220 235 255
220 235 255
220 235 255
220 235 255
220 235 255
220 235 255
220 235 255
220 235 255
220 235 255
220 235 255
220 235 255
220 235 255
220 235 255
220 235 255
220 235 255
220 235 255
220 235 255
220 235 255
220 235 255
220 235 255
220 235 255
220 235 255
220 235 255
220 235 255
220 235 255
220 235 255
220 235 255
220 235 255
220 235 255
220 235 255
220 235 255
220 235 255
220 235 255
220 235 255
220 235 255
220 235 255
220 235 255
220 235 255
220 235 255
220 235 255
220 235 255
220 235 255
220 235 255
220 235 255
220 235 255
220 235 255
220 235 255
220 235 255
220 235 255
220 235 255
220 235 255
220 235 255
220 235 255
220 235 255
220 235 255
220 235 255
220 235 255
220 235 255
220 235 255
220 235 255
220 235 255
220 235 255
220 235 255
220 235 255
220 235 255
220 235 255
220 235 255
220 235 255
220 235 255
220 235 255
220 235 255
220 235 255
220 235 255
220 235 255
220 235 255
219 235 255
219 235 255
219 235 255
219 235 255
219 235 255
219 235 255
219 235 255
219 235 255
219 235 255
219 235 255
219 235 255
219 235 255
219 235 255
219 235 255
219 234 255
219 234 255
219 234 255
219 234 255
219 234 255
219 234 255
219 234 255
219 234 255
219 234 255
219 234 255
219 234 255
219 234 255
219 234 255
219 234 255
219 234 255
219 234 255
219 234 255
219 234 255
219 234 255
219 234 255
219 234 255
219 234 255
219 234 255
219 234 255
219 234 255
219 234 255
219 234 255
219 234 255
219 234 255
219 234 255
219 234 255
219 234 255
219 234 255
219 234 255
219 234 255
219 234 255
219 234 255
219 234 255
219 234 255
219 234 255
219 234 255
219 234 255
219 234 255
219 234 255
219 234 255
219 234 255
219 234 255
219 234 255
219 234 255
219 234 255
219 234 255
219 234 255
219 234 255
219 234 255
178 160 175
139 0 0
142 0 0
128 0 0
128 0 0
130 0 0
131 0 0
133 0 0
133 0 0
137 0 0
130 0 0
131 0 0
130 0 0
131 0 0
132 0 0
144 0 0
133 0 0
131 0 0
131 0 0
145 0 0
128 0 0
137 0 0
127 0 0
134 0 0
121 0 0
139 0 0
129 0 0
133 0 0
121 0 0
132 0 0
137 0 0
129 0 0
132 0 0
125 0 0
127 0 0
136 0 0
135 0 0
128 0 0
129 0 0
131 0 0
137 0 0
123 0 0
131 0 0
123 0 0
126 0 0
142 0 0
137 0 0
130 0 0
141 0 0
134 0 0
128 0 0
147 0 0
137 0 0
135 0 0
136 0 0
118 0 0
125 0 0
131 0 0
135 0 0
135 0 0
130 0 0
133 0 0
139 0 0
131 0 0
128 0 0
140 0 0
129 0 0
132 0 0
133 0 0
129 0 0
133 0 0
134 0 0
131 0 0
128 0 0
131 0 0
123 0 0
129 0 0
129 0 0
129 0 0
128 0 0
125 0 0
130 0 0
138 0 0
127 0 0
130 0 0
130 0 0
137 0 0
133 0 0
124 0 0
121 0 0
130 0 0
141 0 0
133 0 0
141 0 0
142 0 0
126 0 0
127 0 0
132 0 0
133 0 0
135 0 0
130 0 0
142 0 0
132 0 0
140 0 0
123 0 0
139 0 0
138 0 0
132 0 0
130 0 0
120 0 0
133 0 0
132 0 0
137 0 0
139 0 0
127 0 0
139 0 0
132 0 0
139 0 0
141 0 0
136 0 0
128 0 0
137 0 0
139 0 0
138 0 0
145 0 0
136 0 0
135 0 0
141 0 0
128 0 0
177 162 177
219 234 255
219 234 255
219 234 255
219 234 255
219 234 255
219 234 255
219 234 255
219 234 255
219 234 255
219 234 255
219 234 255
219 234 255
219 234 255
219 234 255
219 234 255
219 234 255
219 234 255
219 234 255
219 234 255
219 234 255
219 234 255
219 234 255
219 234 255
219 234 255
219 234 255
219 234 255
219 234 255
219 234 255
219 234 255
219 234 255
219 234 255
219 234 255
219 234 255
219 234 255
219 234 255
219 234 255
219 234 255
219 234 255
219 234 255
219 234 255
219 234 255
219 234 255
219 234 255
219 234 255
219 234 255
219 234 255
219 234 255
219 234 255
219 234 255
219 234 255
219 234 255
219 234 255
219 235 255
219 235 255
219 235 255
219 235 255
219 235 255
219 235 255
219 235 255
219 235 255
219 235 255
219 235 255
219 235 255
219 235 255
219 235 255
219 235 255
219 235 255
220 235 255
220 235 255
219 235 255
220 235 255
220 235 255
220 235 255
220 235 255
220 235 255
220 235 255
220 235 255
220 235 255
220 235 255
220 235 255
220 235 255
220 235 255
220 235 255
220 235 255
220 235 255
220 235 255
220 235 255
220 235 255
220 235 255
220 235 255
220 235 255
220 235 255
220 235 255
220 235 255
220 235 255
220 235 255
220 235 255
220 235 255
220 235 255
220 235 255
220 235 255
220 235 255
220 235 255
220 235 255
220 235 255
220 235 255
220 235 255
220 235 255
220 235 255
220 235 255
220 235 255
220 235 255
220 235 255
220 235 255
220 235 255
220 235 255
220 235 255
220 235 255
220 235 255
220 235 255
220 235 255
220 235 255
220 235 255
220 235 255
220 235 255
220 235 255
220 235 255
220 235 255
220 235 255
220 235 255
220 235 255
220 235 255
220 235 255
220 235 255
220 235 255
220 235 255
220 235 255
220 235 255
220 235 255
220 235 255
220 235 255
220 235 255
220 235 255
220 235 255
220 235 255
220 235 255
220 235 255
220 235 255
220 235 255
220 235 255
220 235 255
220 235 255
220 235 255
220 235 255
220 235 255
220 235 255
220 235 255
220 235 255
220 235 255
220 235 255
220 235 255
220 235 255
220 235 255
220 235 255
220 235 255
220 235 255
220 235 255
220 235 255
220 235 255
220 235 255
220 235 255
220 235 255
220 235 255
220 235 255
220 235 255
220 235 255
220 235 255
220 235 255
220 235 255
220 235 255
220 235 255
220 235 255
220 235 255
220 235 255
220 235 255
220 235 255
220 235 255
220 235 255
220 235 255
220 235 255
220 235 255
220 235 255
220 235 255
220 235 255
220 235 255
220 235 255
220 235 255
220 235 255
220 235 255
220 235 255
220 235 255
220 235 255
220 235 255
220 235 255
220 235 255
220 235 255
220 235 255
220 235 255
220 235 255
220 235 255
220 235 255
220 235 255
220 235 255
220 235 255
220 235 255
220 235 255
220 235 255
220 235 255
220 235 255
220 235 255
220 235 255
220 235 255
220 235 255
220 235 255
220 235 255
220 235 255
220 235 255
220 235 255
220 235 255
220 235 255
220 235 255
219 235 255
219 235 255
220 235 255
219 235 255
219 235 255
219 235 255
219 235 255
219 235 255
219 235 255
219 235 255
219 235 255
219 235 255
219 235 255
219 235 255
219 235 255
219 235 255
219 234 255
219 234 255
219 234 255
219 234 255
219 234 255
219 234 255
219 234 255
219 234 255
219 234 255
219 234 255
219 234 255
219 234 255
219 234 255
219 234 255
219 234 255
219 234 255
219 234 255
219 234 255
219 234 255
219 234 255
219 234 255
219 234 255
219 234 255
175 155 169
130 0 0
124 0 0
127 0 0
130 0 0
133 0 0
133 0 0
119 0 0
127 0 0
135 0 0
124 0 0
135 0 0
130 0 0
136 0 0
136 0 0
134 0 0
126 0 0
131 0 0
129 0 0
141 0 0
125 0 0
131 0 0
136 0 0
137 0 0
127 0 0
130 0 0
129 0 0
126 0 0
129 0 0
131 0 0
132 0 0
127 0 0
137 0 0
133 0 0
135 0 0
128 0 0
130 0 0
130 0 0
129 0 0
138 0 0
138 0 0
127 0 0
129 0 0
137 0 0
136 0 0
133 0 0
125 0 0
141 0 0
138 0 0
132 0 0
135 0 0
133 0 0
129 0 0
144 0 0
121 0 0
127 0 0
125 0 0
136 0 0
129 0 0
126 0 0
136 0 0
119 0 0
129 0 0
122 0 0
121 0 0
126 0 0
139 0 0
130 0 0
139 0 0
129 0 0
134 0 0
130 0 0
130 0 0
134 0 0
133 0 0
127 0 0
126 0 0
130 0 0
139 0 0
118 0 0
127 0 0
130 0 0
115 0 0
128 0 0
133 0 0
139 0 0
130 0 0
127 0 0
139 0 0
131 0 0
131 0 0
129 0 0
139 0 0
135 0 0
130 0 0
132 0 0
132 0 0
131 0 0
135 0 0
126 0 0
135 0 0
123 0 0
126 0 0
140 0 0
129 0 0
135 0 0
127 0 0
145 0 0
131 0 0
139 0 0
139 0 0
141 0 0
130 0 0
129 0 0
126 0 0
138 0 0
134 0 0
145 0 0
130 0 0
131 0 0
121 0 0
128 0 0
133 0 0
132 0 0
133 0 0
119 0 0
140 0 0
133 0 0
124 0 0
173 157 171
219 234 255
219 234 255
219 234 255
219 234 255
219 234 255
219 234 255
219 234 255
219 234 255
219 234 255
219 234 255
219 234 255
219 234 255
219 234 255
219 234 255
219 234 255
219 234 255
219 234 255
219 234 255
219 234 255
219 234 255
219 234 255
219 234 255
219 234 255
219 235 255
219 235 255
219 235 255
219 235 255
219 235 255
219 235 255
219 235 255
219 235 255
219 235 255
219 235 255
219 235 255
219 235 255
219 235 255
219 235 255
219 235 255
220 235 255
220 235 255
220 235 255
220 235 255
220 235 255
220 235 255
220 235 255
220 235 255
220 235 255
220 235 255
220 235 255
220 235 255
220 235 255
220 235 255
220 235 255
220 235 255
220 235 255
220 235 255
220 235 255
220 235 255
220 235 255
220 235 255
220 235 255
220 235 255
220 235 255
220 235 255
220 235 255
220 235 255
220 235 255
220 235 255
220 235 255
220 235 255
220 235 255
220 235 255
220 235 255
220 235 255
220 235 255
220 235 255
220 235 255
220 235 255
220 235 255
220 235 255
220 235 255
220 235 255
220 235 255
220 235 255
220 235 255
220 235 255
220 235 255
220 235 255
220 235 255
220 235 255
220 235 255
220 235 255
220 235 255
220 235 255
220 235 255
220 235 255
220 235 255
220 235 255
220 235 255
220 235 255
220 235 255
220 235 255
220 235 255
220 235 255
220 235 255
220 235 255
220 235 255
220 235 255
220 235 255
220 235 255
220 235 255
220 235 255
220 235 255
220 235 255
220 235 255
220 235 255
220 235 255
220 235 255
220 235 255
220 235 255
220 235 255
220 235 255
220 235 255
220 235 255
220 235 255
220 235 255
220 235 255
220 235 255
220 235 255
220 235 255
220 235 255
220 235 255
220 235 255
220 235 255
220 235 255
220 235 255
220 235 255
220 235 255
220 235 255
220 235 255
220 235 255
220 235 255
220 235 255
220 235 255
220 235 255
220 235 255
220 235 255
220 235 255
220 235 255
220 235 255
220 235 255
220 235 255
220 235 255
220 235 255
220 235 255
220 235 255
220 235 255
220 235 255
220 235 255
220 235 255
220 235 255
220 235 255
220 235 255
220 235 255
220 235 255
220 235 255
220 235 255
220 235 255
220 235 255
220 235 255
220 235 255
220 235 255
220 235 255
220 235 255
220 235 255
220 235 255
220 235 255
220 235 255
220 235 255
220 235 255
220 235 255
220 235 255
220 235 255
220 235 255
220 235 255
220 235 255
220 235 255
220 235 255
220 235 255
220 235 255
220 235 255
220 235 255
220 235 255
220 235 255
220 235 255
220 235 255
220 235 255
220 235 255
220 235 255
220 235 255
220 235 255
220 235 255
220 235 255
220 235 255
220 235 255
220 235 255
220 235 255
220 235 255
220 235 255
220 235 255
220 235 255
220 235 255
220 235 255
220 235 255
220 235 255
220 235 255
220 235 255
220 235 255
220 235 255
220 235 255
220 235 255
220 235 255
220 235 255
220 235 255
220 235 255
220 235 255
220 235 255
220 235 255
220 235 255
220 235 255
220 235 255
220 235 255
220 235 255
220 235 255
220 235 255
220 235 255
220 235 255
220 235 255
220 235 255
220 235 255
220 235 255
220 235 255
220 235 255
220 235 255
220 235 255
220 235 255
220 235 255
220 235 255
220 235 255
220 235 255
220 235 255
220 235 255
220 235 255
220 235 255
220 235 255
220 235 255
220 235 255
220 235 255
220 235 255
220 235 255
220 235 255
220 235 255
220 235 255
220 235 255
220 235 255
220 235 255
220 235 255
220 235 255
219 235 255
220 235 255
165 135 147
133 0 0
130 0 0
134 0 0
128 0 0
129 0 0
125 0 0
138 0 0
138 0 0
134 0 0
123 0 0
130 0 0
141 0 0
141 0 0
130 0 0
132 0 0
128 0 0
128 0 0
135 0 0
129 0 0
135 0 0
137 0 0
131 0 0
125 0 0
140 0 0
135 0 0
127 0 0
136 0 0
139 0 0
128 0 0
127 0 0
128 0 0
124 0 0
129 0 0
127 0 0
118 0 0
130 0 0
129 0 0
121 0 0
124 0 0
129 0 0
130 0 0
135 0 0
127 0 0
137 0 0
130 0 0
129 0 0
129 0 0
120 0 0
132 0 0
137 0 0
130 0 0
133 0 0
137 0 0
127 0 0
128 0 0
128 0 0
129 0 0
129 0 0
129 0 0
130 0 0
137 0 0
134 0 0
126 0 0
133 0 0
123 0 0
126 0 0
140 0 0
123 0 0
126 0 0
132 0 0
131 0 0
128 0 0
132 0 0
123 0 0
126 0 0
134 0 0
132 0 0
138 0 0
125 0 0
123 0 0
126 0 0
125 0 0
126 0 0
129 0 0
130 0 0
127 0 0
130 0 0
118 0 0
123 0 0
138 0 0
118 0 0
128 0 0
129 0 0
122 0 0
131 0 0
129 0 0
135 0 0
134 0 0
137 0 0
133 0 0
134 0 0
120 0 0
133 0 0
124 0 0
125 0 0
135 0 0
136 0 0
130 0 0
135 0 0
134 0 0
133 0 0
134 0 0
124 0 0
132 0 0
125 0 0
133 0 0
135 0 0
123 0 0
129 0 0
132 0 0
136 0 0
126 0 0
139 0 0
134 0 0
141 0 0
129 0 0
130 0 0
131 0 0
177 141 153
219 235 255
220 235 255
220 235 255
220 235 255
220 235 255
220 235 255
220 235 255
220 235 255
220 235 255
220 235 255
220 235 255
220 235 255
220 235 255
220 235 255
220 235 255
220 235 255
220 235 255
220 235 255
220 235 255
220 235 255
220 235 255
220 235 255
220 235 255
220 235 255
220 235 255
220 235 255
220 235 255
220 235 255
220 235 255
220 235 255
220 235 255
220 235 255
220 235 255
220 235 255
220 235 255
220 235 255
220 235 255
220 235 255
220 235 255
220 235 255
220 235 255
220 235 255
220 235 255
220 235 255
220 235 255
220 235 255
220 235 255
220 235 255
220 235 255
220 235 255
220 235 255
220 235 255
220 235 255
220 235 255
220 235 255
220 235 255
220 235 255
220 235 255
220 235 255
220 235 255
220 235 255
220 235 255
220 235 255
220 235 255
220 235 255
220 235 255
220 235 255
220 235 255
220 235 255
220 235 255
220 235 255
220 235 255
220 235 255
220 235 255
220 235 255
220 235 255
220 235 255
220 235 255
220 235 255
220 235 255
220 235 255
220 235 255
220 235 255
220 235 255
220 235 255
220 235 255
220 235 255
220 235 255
220 235 255
220 235 255
220 235 255
220 235 255
220 235 255
220 235 255
220 235 255
220 235 255
220 235 255
220 235 255
220 235 255
220 235 255
220 235 255
220 235 255
220 235 255
220 235 255
220 235 255
220 235 255
220 235 255
220 235 255
220 235 255
220 235 255
220 235 255
220 235 255
220 235 255
220 235 255
220 235 255
220 235 255
220 235 255
220 235 255
220 235 255
220 235 255
220 235 255
220 235 255
220 235 255
220 235 255
220 235 255
220 235 255
220 235 255
220 235 255
220 235 255
220 235 255
220 235 255
220 235 255
220 235 255
220 235 255
220 235 255
220 235 255
220 235 255
220 235 255
220 235 255
220 235 255
220 235 255
220 235 255
220 235 255
220 235 255
220 235 255
220 235 255
220 235 255
220 235 255
220 235 255
220 235 255
220 235 255
220 235 255
220 235 255
220 235 255
220 235 255
220 235 255
220 235 255
220 235 255
220 235 255
220 235 255
220 235 255
220 235 255
220 235 255
220 235 255
220 235 255
220 235 255
220 235 255
220 235 255
220 235 255
220 235 255
220 235 255
220 235 255
220 235 255
220 235 255
220 235 255
220 235 255
220 235 255
220 235 255
220 235 255
220 235 255
220 235 255
220 235 255
220 235 255
220 235 255
220 235 255
220 235 255
220 235 255
220 235 255
220 235 255
220 235 255
220 235 255
220 235 255
220 235 255
220 235 255
220 235 255
220 235 255
220 235 255
220 235 255
220 235 255
220 235 255
220 235 255
220 235 255
220 235 255
220 235 255
220 235 255
220 235 255
220 235 255
220 235 255
220 235 255
220 235 255
220 235 255
220 235 255
220 235 255
220 235 255
220 235 255
220 235 255
220 235 255
220 235 255
220 235 255
220 235 255
220 235 255
220 235 255
220 235 255
220 235 255
220 235 255
220 235 255
220 235 255
220 235 255
220 235 255
220 235 255
220 235 255
220 235 255
220 235 255
220 235 255
220 235 255
220 235 255
220 235 255
220 235 255
220 235 255
220 235 255
220 235 255
220 235 255
220 235 255
220 235 255
220 235 255
220 235 255
220 235 255
220 235 255
220 235 255
220 235 255
220 235 255
220 235 255
220 235 255
220 235 255
220 235 255
220 235 255
220 235 255
220 235 255
220 235 255
220 235 255
220 235 255
220 235 255
220 235 255
220 235 255
220 235 255
220 235 255
220 235 255
220 235 255
220 235 255
220 235 255
156 117 128
127 0 0
127 0 0
139 0 0
134 0 0
127 0 0
141 0 0
128 0 0
130 0 0
125 0 0
131 0 0
133 0 0
131 0 0
123 0 0
128 0 0
137 0 0
118 0 0
138 0 0
138 0 0
125 0 0
139 0 0
132 0 0
125 0 0
129 0 0
129 0 0
136 0 0
133 0 0
140 0 0
128 0 0
136 0 0
131 0 0
135 0 0
124 0 0
122 0 0
133 0 0
122 0 0
131 0 0
145 0 0
126 0 0
128 0 0
141 0 0
126 0 0
126 0 0
132 0 0
127 0 0
132 0 0
128 0 0
132 0 0
138 0 0
129 0 0
127 0 0
127 0 0
131 0 0
132 0 0
132 0 0
123 0 0
121 0 0
135 0 0
130 0 0
139 0 0
125 0 0
129 0 0
118 0 0
119 0 0
136 0 0
132 0 0
136 0 0
134 0 0
131 0 0
131 0 0
129 0 0
134 0 0
138 0 0
130 0 0
132 0 0
126 0 0
126 0 0
122 0 0
139 0 0
136 0 0
110 0 0
124 0 0
136 0 0
139 0 0
124 0 0
130 0 0
132 0 0
124 0 0
125 0 0
127 0 0
128 0 0
124 0 0
132 0 0
125 0 0
136 0 0
133 0 0
139 0 0
138 0 0
129 0 0
126 0 0
134 0 0
132 0 0
129 0 0
126 0 0
125 0 0
127 0 0
134 0 0
119 0 0
129 0 0
131 0 0
126 0 0
130 0 0
126 0 0
133 0 0
124 0 0
130 0 0
133 0 0
129 0 0
131 0 0
128 0 0
134 0 0
140 0 0
134 0 0
132 0 0
125 0 0
133 0 0
133 0 0
135 0 0
136 0 0
155 122 133
220 235 255
220 235 255
220 235 255
220 235 255
220 235 255
220 235 255
220 235 255
220 235 255
220 235 255
220 235 255
220 235 255
220 235 255
220 235 255
220 235 255
220 235 255
220 235 255
220 235 255
220 235 255
220 235 255
220 235 255
220 235 255
220 235 255
220 235 255
220 235 255
220 235 255
220 235 255
220 235 255
220 235 255
220 235 255
220 235 255
220 235 255
220 235 255
220 235 255
220 235 255
220 235 255
220 235 255
220 235 255
220 235 255
220 235 255
220 235 255
220 235 255
220 235 255
220 235 255
220 235 255
220 235 255
220 235 255
220 235 255
220 235 255
220 235 255
220 235 255
220 235 255
220 235 255
220 235 255
220 235 255
220 235 255
220 235 255
220 235 255
220 235 255
220 235 255
220 235 255
220 235 255
220 235 255
220 235 255
220 235 255
220 235 255
220 235 255
220 235 255
220 235 255
220 235 255
220 235 255
220 235 255
220 235 255
220 235 255
220 235 255
220 235 255
220 235 255
220 235 255
220 235 255
220 235 255
220 235 255
220 235 255
220 235 255
220 235 255
220 235 255
220 235 255
220 235 255
220 235 255
220 235 255
220 235 255
220 235 255
220 235 255
220 235 255
220 235 255
220 235 255
220 235 255
220 235 255
220 235 255
220 235 255
220 235 255
220 235 255
220 235 255
220 235 255
220 235 255
220 235 255
220 235 255
220 235 255
220 235 255
220 235 255
220 235 255
220 235 255
220 235 255
220 235 255
220 235 255
220 235 255
220 235 255
220 235 255
220 235 255
220 235 255
220 235 255
220 235 255
220 235 255
220 235 255
220 235 255
220 235 255
220 235 255
220 235 255
220 235 255
220 235 255
220 235 255
220 235 255
220 235 255
220 235 255
220 235 255
220 235 255
220 235 255
221 235 255
221 235 255
221 235 255
221 235 255
221 235 255
221 235 255
221 235 255
221 235 255
221 235 255
221 235 255
221 235 255
221 235 255
221 235 255
221 235 255
221 235 255
221 235 255
221 235 255
221 235 255
221 235 255
221 235 255
221 235 255
221 235 255
220 235 255
220 235 255
221 235 255
220 235 255
220 235 255
220 235 255
220 235 255
220 235 255
220 235 255
220 235 255
220 235 255
220 235 255
220 235 255
220 235 255
220 235 255
220 235 255
220 235 255
220 235 255
220 235 255
220 235 255
220 235 255
220 235 255
220 235 255
220 235 255
220 235 255
220 235 255
220 235 255
220 235 255
220 235 255
220 235 255
220 235 255
220 235 255
220 235 255
220 235 255
220 235 255
220 235 255
220 235 255
220 235 255
220 235 255
220 235 255
220 235 255
220 235 255
220 235 255
220 235 255
220 235 255
220 235 255
220 235 255
220 235 255
220 235 255
220 235 255
220 235 255
220 235 255
220 235 255
220 235 255
220 235 255
220 235 255
220 235 255
220 235 255
220 235 255
220 235 255
220 235 255
220 235 255
220 235 255
220 235 255
220 235 255
220 235 255
220 235 255
220 235 255
220 235 255
220 235 255
220 235 255
220 235 255
220 235 255
220 235 255
220 235 255
220 235 255
220 235 255
220 235 255
220 235 255
220 235 255
220 235 255
220 235 255
220 235 255
220 235 255
220 235 255
220 235 255
220 235 255
220 235 255
220 235 255
220 235 255
220 235 255
220 235 255
220 235 255
220 235 255
220 235 255
220 235 255
220 235 255
220 235 255
220 235 255
220 235 255
220 235 255
220 235 255
220 235 255
220 235 255
220 235 255
220 235 255
220 235 255
220 235 255
220 235 255
220 235 255
220 235 255
220 235 255
220 235 255
145 105 114
133 0 0
131 0 0
129 0 0
121 0 0
137 0 0
141 0 0
117 0 0
133 0 0
143 0 0
133 0 0
133 0 0
131 0 0
129 0 0
127 0 0
126 0 0
129 0 0
133 0 0
136 0 0
141 0 0
135 0 0
133 0 0
134 0 0
135 0 0
127 0 0
129 0 0
126 0 0
131 0 0
132 0 0
119 0 0
123 0 0
140 0 0
123 0 0
128 0 0
134 0 0
133 0 0
132 0 0
138 0 0
130 0 0
132 0 0
133 0 0
126 0 0
128 0 0
131 0 0
122 0 0
128 0 0
127 0 0
135 0 0
127 0 0
123 0 0
120 0 0
132 0 0
129 0 0
130 0 0
129 0 0
132 0 0
130 0 0
121 0 0
130 0 0
127 0 0
130 0 0
128 0 0
120 0 0
133 0 0
134 0 0
139 0 0
128 0 0
130 0 0
129 0 0
132 0 0
124 0 0
128 0 0
123 0 0
128 0 0
129 0 0
131 0 0
127 0 0
123 0 0
129 0 0
133 0 0
127 0 0
119 0 0
122 0 0
125 0 0
130 0 0
130 0 0
125 0 0
142 0 0
123 0 0
123 0 0
136 0 0
139 0 0
131 0 0
127 0 0
116 0 0
119 0 0
139 0 0
130 0 0
122 0 0
135 0 0
127 0 0
132 0 0
132 0 0
132 0 0
119 0 0
124 0 0
129 0 0
134 0 0
130 0 0
130 0 0
135 0 0
119 0 0
135 0 0
127 0 0
139 0 0
127 0 0
129 0 0
119 0 0
137 0 0
130 0 0
123 0 0
127 0 0
122 0 0
126 0 0
127 0 0
125 0 0
128 0 0
128 0 0
124 0 0
150 107 117
220 235 255
220 235 255
220 235 255
220 235 255
220 235 255
220 235 255
220 235 255
220 235 255
220 235 255
220 235 255
220 235 255
220 235 255
220 235 255
220 235 255
220 235 255
220 235 255
220 235 255
220 235 255
220 235 255
220 235 255
220 235 255
220 235 255
220 235 255
220 235 255
220 235 255
220 235 255
220 235 255
220 235 255
220 235 255
220 235 255
220 235 255
220 235 255
220 235 255
220 235 255
220 235 255
220 235 255
220 235 255
220 235 255
220 235 255
220 235 255
220 235 255
220 235 255
220 235 255
220 235 255
220 235 255
220 235 255
220 235 255
220 235 255
220 235 255
220 235 255
220 235 255
220 235 255
220 235 255
220 235 255
220 235 255
220 235 255
220 235 255
220 235 255
220 235 255
220 235 255
220 235 255
220 235 255
220 235 255
220 235 255
220 235 255
220 235 255
220 235 255
220 235 255
220 235 255
220 235 255
220 235 255
220 235 255
220 235 255
220 235 255
220 235 255
220 235 255
220 235 255
220 235 255
220 235 255
220 235 255
220 235 255
220 235 255
220 235 255
220 235 255
220 235 255
220 235 255
220 235 255
220 235 255
220 235 255
220 235 255
220 235 255
220 235 255
220 235 255
220 235 255
220 235 255
220 235 255
220 235 255
220 235 255
220 235 255
220 235 255
220 235 255
220 235 255
220 235 255
220 235 255
220 235 255
220 235 255
220 235 255
220 235 255
220 235 255
220 235 255
220 235 255
220 235 255
220 235 255
220 235 255
220 235 255
221 235 255
221 235 255
221 235 255
221 235 255
221 235 255
221 235 255
221 235 255
221 235 255
221 235 255
221 235 255
221 235 255
221 235 255
221 235 255
221 235 255
221 235 255
221 235 255
221 235 255
221 235 255
221 235 255
221 235 255
221 235 255
221 235 255
221 235 255
221 235 255
221 235 255
221 235 255
221 235 255
221 235 255
221 235 255
221 235 255
221 235 255
221 235 255
221 235 255
221 235 255
221 235 255
221 235 255
221 235 255
221 235 255
221 235 255
221 235 255
221 235 255
221 235 255
221 235 255
221 235 255
221 235 255
221 235 255
221 235 255
221 235 255
221 235 255
221 235 255
221 235 255
221 235 255
221 235 255
221 235 255
221 235 255
221 235 255
221 235 255
221 235 255
221 235 255
221 235 255
221 235 255
221 235 255
221 235 255
221 235 255
221 235 255
221 235 255
221 235 255
221 235 255
221 235 255
221 235 255
221 235 255
221 235 255
221 235 255
221 235 255
221 235 255
221 235 255
221 235 255
221 235 255
221 235 255
221 235 255
221 235 255
221 235 255
221 235 255
221 235 255
221 235 255
221 235 255
221 235 255
221 235 255
221 235 255
221 235 255
221 235 255
221 235 255
221 235 255
221 235 255
221 235 255
221 235 255
221 235 255
221 235 255
221 235 255
221 235 255
221 235 255
221 235 255
221 235 255
221 235 255
221 235 255
221 235 255
221 235 255
221 235 255
220 235 255
220 235 255
221 235 255
220 235 255
220 235 255
220 235 255
220 235 255
220 235 255
220 235 255
220 235 255
220 235 255
220 235 255
220 235 255
220 235 255
220 235 255
220 235 255
220 235 255
220 235 255
220 235 255
220 235 255
220 235 255
220 235 255
220 235 255
220 235 255
220 235 255
220 235 255
220 235 255
220 235 255
220 235 255
220 235 255
220 235 255
220 235 255
220 235 255
220 235 255
220 235 255
220 235 255
220 235 255
220 235 255
220 235 255
220 235 255
220 235 255
220 235 255
220 235 255
220 235 255
220 235 255
220 235 255
220 235 255
148 81 88
123 0 0
136 0 0
134 0 0
128 0 0
124 0 0
131 0 0
123 0 0
123 0 0
122 0 0
132 0 0
124 0 0
132 0 0
136 0 0
129 0 0
119 0 0
128 0 0
120 0 0
110 0 0
123 0 0
134 0 0
136 0 0
126 0 0
136 0 0
131 0 0
130 0 0
122 0 0
123 0 0
137 0 0
137 0 0
137 0 0
126 0 0
130 0 0
129 0 0
127 0 0
132 0 0
128 0 0
133 0 0
134 0 0
118 0 0
129 0 0
123 0 0
118 0 0
131 0 0
140 0 0
132 0 0
123 0 0
130 0 0
129 0 0
122 0 0
132 0 0
129 0 0
130 0 0
131 0 0
128 0 0
124 0 0
120 0 0
129 0 0
129 0 0
134 0 0
123 0 0
125 0 0
127 0 0
137 0 0
127 0 0
124 0 0
124 0 0
113 0 0
129 0 0
136 0 0
134 0 0
127 0 0
126 0 0
127 0 0
124 0 0
131 0 0
124 0 0
130 0 0
115 0 0
115 0 0
130 0 0
132 0 0
126 0 0
135 0 0
133 0 0
128 0 0
121 0 0
127 0 0
139 0 0
128 0 0
133 0 0
125 0 0
130 0 0
137 0 0
135 0 0
121 0 0
135 0 0
125 0 0
127 0 0
121 0 0
128 0 0
118 0 0
130 0 0
125 0 0
136 0 0
126 0 0
134 0 0
128 0 0
132 0 0
117 0 0
136 0 0
136 0 0
129 0 0
121 0 0
133 0 0
131 0 0
138 0 0
126 0 0
134 0 0
126 0 0
122 0 0
131 0 0
130 0 0
122 0 0
126 0 0
126 0 0
138 0 0
126 0 0
135 0 0
138 81 88
220 235 255
220 235 255
220 235 255
220 235 255
220 235 255
220 235 255
220 235 255
220 235 255
220 235 255
220 235 255
220 235 255
220 235 255
220 235 255
220 235 255
220 235 255
220 235 255
220 235 255
220 235 255
220 235 255
220 235 255
220 235 255
220 235 255
220 235 255
220 235 255
220 235 255
220 235 255
220 235 255
220 235 255
220 235 255
220 235 255
220 235 255
220 235 255
220 235 255
220 235 255
220 235 255
220 235 255
220 235 255
220 235 255
220 235 255
220 235 255
220 235 255
220 235 255
220 235 255
220 235 255
220 235 255
220 235 255
221 235 255
221 235 255
220 235 255
221 235 255
221 235 255
221 235 255
221 235 255
221 235 255
221 235 255
221 235 255
221 235 255
221 235 255
221 235 255
221 235 255
221 235 255
221 235 255
221 235 255
221 235 255
221 235 255
221 235 255
221 235 255
221 235 255
221 235 255
221 235 255
221 235 255
221 235 255
221 235 255
221 235 255
221 235 255
221 235 255
221 235 255
221 235 255
221 235 255
221 235 255
221 235 255
221 235 255
221 235 255
221 235 255
221 235 255
221 235 255
221 235 255
221 235 255
221 235 255
221 235 255
221 235 255
221 235 255
221 235 255
221 235 255
221 235 255
221 235 255
221 235 255
221 235 255
221 235 255
221 235 255
221 235 255
221 235 255
221 235 255
221 235 255
221 235 255
221 235 255
221 235 255
221 235 255
221 235 255
221 235 255
221 235 255
221 235 255
221 235 255
221 235 255
221 235 255
221 235 255
221 235 255
221 235 255
221 235 255
221 235 255
221 235 255
221 235 255
221 235 255
221 235 255
221 235 255
221 235 255
221 235 255
221 235 255
221 235 255
221 235 255
221 235 255
221 235 255
221 235 255
221 235 255
221 235 255
221 235 255
221 235 255
221 235 255
221 235 255
221 235 255
221 235 255
221 235 255
221 235 255
221 235 255
221 235 255
221 235 255
221 235 255
221 235 255
221 235 255
221 235 255
221 235 255
221 235 255
221 235 255
221 235 255
221 235 255
221 235 255
221 235 255
221 235 255
221 235 255
221 235 255
221 235 255
221 235 255
221 235 255
221 235 255
221 235 255
221 235 255
221 235 255
221 235 255
221 235 255
221 235 255
221 235 255
221 235 255
221 235 255
221 235 255
221 235 255
221 235 255
221 235 255
221 235 255
221 235 255
221 235 255
221 235 255
221 235 255
221 235 255
221 235 255
221 235 255
221 235 255
221 235 255
221 235 255
221 235 255
221 235 255
221 235 255
221 235 255
221 235 255
221 235 255
221 235 255
221 235 255
221 235 255
221 235 255
221 235 255
221 235 255
221 235 255
221 235 255
221 235 255
221 235 255
221 235 255
221 235 255
221 235 255
221 235 255
221 235 255
221 235 255
221 235 255
221 235 255
221 235 255
221 235 255
221 235 255
221 235 255
221 235 255
221 235 255
221 235 255
221 235 255
221 235 255
221 235 255
221 235 255
221 235 255
221 235 255
221 235 255
221 235 255
221 235 255
221 235 255
221 235 255
221 235 255
221 235 255
221 235 255
221 235 255
221 235 255
221 235 255
221 235 255
221 235 255
221 235 255
221 235 255
221 235 255
221 235 255
221 235 255
221 235 255
221 235 255
221 235 255
221 235 255
221 235 255
221 235 255
221 235 255
221 235 255
221 235 255
221 235 255
221 235 255
221 235 255
221 235 255
221 235 255
221 235 255
221 235 255
221 235 255
221 235 255
221 235 255
221 235 255
221 235 255
221 235 255
221 235 255
221 235 255
221 235 255
221 235 255
221 235 255
135 81 88
126 0 0
134 0 0
128 0 0
120 0 0
127 0 0
113 0 0
129 0 0
121 0 0
130 0 0
138 0 0
132 0 0
121 0 0
135 0 0
127 0 0
128 0 0
126 0 0
129 0 0
133 0 0
135 0 0
133 0 0
132 0 0
126 0 0
132 0 0
124 0 0
132 0 0
125 0 0
128 0 0
136 0 0
121 0 0
140 0 0
129 0 0
138 0 0
122 0 0
130 0 0
116 0 0
133 0 0
141 0 0
132 0 0
122 0 0
133 0 0
121 0 0
130 0 0
125 0 0
133 0 0
123 0 0
137 0 0
139 0 0
127 0 0
129 0 0
121 0 0
126 0 0
121 0 0
139 0 0
124 0 0
131 0 0
125 0 0
127 0 0
137 0 0
126 0 0
129 0 0
120 0 0
136 0 0
120 0 0
125 0 0
131 0 0
127 0 0
125 0 0
117 0 0
135 0 0
132 0 0
128 0 0
123 0 0
125 0 0
129 0 0
135 0 0
134 0 0
130 0 0
130 0 0
129 0 0
122 0 0
134 0 0
135 0 0
114 0 0
131 0 0
124 0 0
112 0 0
133 0 0
122 0 0
110 0 0
135 0 0
130 0 0
124 0 0
128 0 0
131 0 0
127 0 0
122 0 0
131 0 0
123 0 0
131 0 0
130 0 0
125 0 0
132 0 0
125 0 0
125 0 0
133 0 0
126 0 0
129 0 0
126 0 0
134 0 0
124 0 0
125 0 0
133 0 0
130 0 0
128 0 0
128 0 0
124 0 0
128 0 0
125 0 0
125 0 0
136 0 0
127 0 0
138 0 0
120 0 0
124 0 0
129 0 0
128 0 0
139 0 0
140 0 0
147 84 92
221 235 255
221 235 255
221 235 255
221 235 255
221 235 255
221 235 255
221 235 255
221 235 255
221 235 255
221 235 255
221 235 255
221 235 255
221 235 255
221 235 255
221 235 255
221 235 255
221 235 255
221 235 255
221 235 255
221 235 255
221 235 255
221 235 255
221 235 255
221 235 255
221 235 255
221 235 255
221 235 255
221 235 255
221 235 255
221 235 255
221 235 255
221 235 255
221 235 255
221 235 255
221 235 255
221 235 255
221 235 255
221 235 255
221 235 255
221 235 255
221 235 255
221 235 255
221 235 255
221 235 255
221 235 255
221 235 255
221 235 255
221 235 255
221 235 255
221 235 255
221 235 255
221 235 255
221 235 255
221 235 255
221 235 255
221 235 255
221 235 255
221 235 255
221 235 255
221 235 255
221 235 255
221 235 255
221 235 255
221 235 255
221 235 255
221 235 255
221 235 255
221 235 255
221 235 255
221 235 255
221 235 255
221 235 255
221 235 255
221 235 255
221 235 255
221 235 255
221 235 255
221 235 255
221 235 255
221 235 255
221 235 255
221 235 255
221 235 255
221 235 255
221 235 255
221 235 255
221 235 255
221 235 255
221 235 255
221 235 255
221 235 255
221 235 255
221 235 255
221 235 255
221 235 255
221 235 255
221 235 255
221 235 255
221 235 255
221 235 255
221 235 255
221 235 255
221 235 255
221 235 255
221 235 255
221 235 255
221 235 255
221 235 255
221 235 255
221 235 255
221 235 255
221 235 255
221 235 255
221 235 255
221 235 255
221 235 255
221 235 255
221 235 255
221 235 255
221 235 255
221 235 255
221 235 255
221 235 255
221 235 255
221 235 255
221 235 255
221 235 255
221 235 255
221 235 255
221 235 255
221 235 255
221 235 255
221 235 255
221 235 255
221 235 255
221 235 255
221 235 255
221 235 255
221 235 255
221 235 255
221 235 255
221 235 255
221 235 255
221 235 255
221 235 255
221 235 255
221 235 255
221 235 255
221 235 255
221 235 255
221 235 255
221 235 255
221 235 255
221 235 255
221 235 255
221 235 255
221 235 255
221 235 255
221 235 255
221 235 255
221 235 255
221 235 255
221 235 255
221 235 255
221 235 255
221 235 255
221 235 255
221 235 255
221 235 255
221 235 255
221 235 255
221 235 255
221 235 255
221 235 255
221 235 255
221 235 255
221 235 255
221 235 255
221 235 255
221 235 255
221 235 255
221 235 255
221 235 255
221 235 255
221 235 255
221 235 255
221 235 255
221 235 255
221 235 255
221 235 255
221 235 255
221 235 255
221 235 255
221 235 255
221 235 255
221 235 255
221 235 255
221 235 255
221 235 255
221 235 255
221 235 255
221 235 255
221 235 255
221 235 255
221 235 255
221 235 255
221 235 255
221 235 255
221 235 255
221 235 255
221 235 255
221 235 255
221 235 255
221 235 255
221 235 255
221 235 255
221 235 255
221 235 255
221 235 255
221 235 255
221 235 255
221 235 255
221 235 255
221 235 255
221 235 255
221 235 255
221 235 255
221 235 255
221 235 255
221 235 255
221 235 255
221 235 255
221 235 255
221 235 255
221 235 255
221 235 255
221 235 255
221 235 255
221 235 255
221 235 255
221 235 255
221 235 255
221 235 255
221 235 255
221 235 255
221 235 255
221 235 255
221 235 255
221 235 255
221 235 255
221 235 255
221 235 255
221 235 255
221 235 255
221 235 255
221 235 255
221 235 255
221 235 255
221 235 255
221 235 255
221 235 255
221 235 255
221 235 255
221 235 255
221 235 255
221 235 255
221 235 255
221 235 255
221 235 255
221 235 255
126 40 44
136 0 0
131 0 0
127 0 0
123 0 0
124 0 0
122 0 0
122 0 0
131 0 0
126 0 0
116 0 0
123 0 0
135 0 0
126 0 0
131 0 0
128 0 0
127 0 0
128 0 0
119 0 0
127 0 0
129 0 0
127 0 0
130 0 0
116 0 0
125 0 0
128 0 0
127 0 0
119 0 0
130 0 0
130 0 0
135 0 0
121 0 0
119 0 0
124 0 0
122 0 0
135 0 0
114 0 0
126 0 0
130 0 0
117 0 0
126 0 0
121 0 0
119 0 0
127 0 0
121 0 0
126 0 0
132 0 0
124 0 0
129 0 0
138 0 0
125 0 0
124 0 0
129 0 0
122 0 0
136 0 0
125 0 0
142 0 0
128 0 0
131 0 0
131 0 0
134 0 0
136 0 0
136 0 0
124 0 0
124 0 0
130 0 0
126 0 0
137 0 0
124 0 0
134 0 0
120 0 0
116 0 0
128 0 0
138 0 0
121 0 0
134 0 0
125 0 0
127 0 0
123 0 0
127 0 0
130 0 0
128 0 0
118 0 0
121 0 0
141 0 0
134 0 0
126 0 0
126 0 0
137 0 0
131 0 0
126 0 0
137 0 0
126 0 0
135 0 0
136 0 0
136 0 0
126 0 0
123 0 0
133 0 0
126 0 0
131 0 0
130 0 0
123 0 0
136 0 0
124 0 0
134 0 0
120 0 0
129 0 0
141 0 0
128 0 0
130 0 0
126 0 0
117 0 0
133 0 0
125 0 0
133 0 0
121 0 0
120 0 0
127 0 0
141 0 0
114 0 0
139 0 0
123 0 0
131 0 0
117 0 0
125 0 0
129 0 0
122 0 0
127 0 0
128 40 44
221 235 255
221 235 255
221 235 255
221 235 255
221 235 255
221 235 255
221 235 255
221 235 255
221 235 255
221 235 255
221 235 255
221 235 255
221 235 255
221 235 255
221 235 255
221 235 255
221 235 255
221 235 255
221 235 255
221 235 255
221 235 255
221 235 255
221 235 255
221 235 255
221 235 255
221 235 255
221 235 255
221 235 255
221 235 255
221 235 255
221 235 255
221 235 255
221 235 255
221 235 255
221 235 255
221 235 255
221 235 255
221 235 255
221 235 255
221 235 255
221 235 255
221 235 255
221 235 255
221 235 255
221 235 255
221 235 255
221 235 255
221 235 255
221 235 255
221 235 255
221 235 255
221 235 255
221 235 255
221 235 255
221 235 255
221 235 255
221 235 255
221 235 255
221 235 255
221 235 255
221 235 255
221 235 255
221 235 255
221 235 255
221 235 255
221 235 255
221 235 255
221 235 255
221 235 255
221 235 255
221 235 255
221 235 255
221 235 255
221 235 255
221 235 255
221 235 255
221 235 255
221 235 255
221 235 255
221 235 255
221 235 255
221 235 255
221 235 255
221 235 255
221 235 255
221 235 255
221 235 255
221 235 255
221 235 255
221 235 255
221 235 255
221 235 255
221 235 255
221 235 255
221 235 255
221 235 255
221 235 255
221 235 255
221 235 255
221 235 255
221 235 255
221 235 255
221 235 255
221 235 255
221 235 255
221 235 255
221 235 255
221 235 255
221 235 255
221 235 255
221 235 255
221 235 255
221 235 255
221 235 255
221 235 255
221 235 255
221 235 255
221 235 255
221 235 255
221 235 255
221 235 255
221 235 255
221 235 255
221 235 255
221 235 255
221 235 255
221 235 255
221 235 255
221 235 255
221 235 255
221 235 255
221 235 255
221 235 255
221 235 255
221 235 255
221 236 255
221 236 255
221 236 255
221 236 255
221 236 255
221 236 255
221 236 255
221 236 255
221 236 255
221 236 255
221 236 255
221 236 255
221 236 255
221 236 255
221 236 255
221 236 255
221 236 255
221 236 255
221 236 255
221 236 255
221 236 255
221 236 255
221 236 255
221 236 255
221 236 255
221 236 255
221 236 255
221 236 255
221 236 255
221 236 255
221 236 255
221 236 255
221 236 255
221 236 255
221 236 255
221 236 255
221 236 255
221 236 255
221 236 255
221 236 255
221 236 255
221 236 255
221 236 255
221 236 255
221 236 255
221 236 255
221 236 255
221 236 255
221 236 255
221 236 255
221 236 255
221 236 255
221 236 255
221 236 255
221 236 255
221 236 255
221 236 255
221 236 255
221 236 255
221 236 255
221 236 255
221 236 255
221 236 255
221 236 255
221 236 255
221 236 255
221 236 255
221 236 255
221 236 255
221 236 255
221 236 255
221 236 255
221 236 255
221 236 255
221 236 255
221 236 255
221 236 255
221 236 255
221 236 255
221 236 255
221 236 255
221 236 255
221 236 255
221 236 255
221 236 255
221 236 255
221 236 255
221 236 255
221 236 255
221 236 255
221 236 255
221 236 255
221 236 255
221 236 255
221 236 255
221 236 255
221 236 255
221 236 255
221 236 255
221 236 255
221 236 255
221 236 255
221 236 255
221 236 255
221 236 255
221 236 255
221 236 255
221 236 255
221 236 255
221 236 255
221 236 255
221 236 255
221 236 255
221 236 255
221 236 255
221 236 255
221 236 255
221 236 255
221 236 255
221 236 255
221 236 255
221 236 255
221 236 255
221 236 255
221 236 255
221 236 255
221 236 255
221 236 255
221 236 255
221 236 255
221 236 255
221 236 255
221 236 255
221 236 255
221 236 255
132 57 62
122 0 0
141 0 0
138 0 0
126 0 0
137 0 0
125 0 0
127 0 0
127 0 0
122 0 0
136 0 0
122 0 0
129 0 0
119 0 0
119 0 0
125 0 0
139 0 0
129 0 0
134 0 0
129 0 0
117 0 0
122 0 0
118 0 0
122 0 0
119 0 0
122 0 0
125 0 0
129 0 0
137 0 0
133 0 0
133 0 0
133 0 0
123 0 0
125 0 0
123 0 0
127 0 0
131 0 0
117 0 0
130 0 0
135 0 0
124 0 0
126 0 0
133 0 0
129 0 0
126 0 0
128 0 0
129 0 0
130 0 0
128 0 0
129 0 0
128 0 0
133 0 0
134 0 0
131 0 0
129 0 0
125 0 0
125 0 0
128 0 0
120 0 0
125 0 0
135 0 0
136 0 0
119 0 0
130 0 0
128 0 0
126 0 0
135 0 0
122 0 0
125 0 0
133 0 0
125 0 0
124 0 0
133 0 0
120 0 0
134 0 0
132 0 0
130 0 0
122 0 0
125 0 0
122 0 0
120 0 0
133 0 0
125 0 0
130 0 0
130 0 0
135 0 0
124 0 0
125 0 0
125 0 0
134 0 0
131 0 0
123 0 0
134 0 0
123 0 0
130 0 0
138 0 0
125 0 0
129 0 0
137 0 0
131 0 0
127 0 0
128 0 0
130 0 0
129 0 0
125 0 0
123 0 0
122 0 0
124 0 0
134 0 0
138 0 0
120 0 0
127 0 0
119 0 0
133 0 0
133 0 0
129 0 0
137 0 0
118 0 0
123 0 0
126 0 0
123 0 0
137 0 0
131 0 0
117 0 0
128 0 0
120 0 0
117 0 0
127 0 0
123 0 0
128 40 44
221 236 255
221 236 255
221 236 255
221 236 255
221 236 255
221 236 255
221 236 255
221 236 255
221 236 255
221 236 255
221 236 255
221 236 255
221 236 255
221 236 255
221 236 255
221 236 255
221 236 255
221 236 255
221 236 255
221 236 255
221 236 255
221 236 255
221 236 255
221 236 255
221 236 255
221 236 255
221 236 255
221 236 255
221 236 255
221 236 255
221 236 255
221 236 255
221 236 255
221 236 255
221 236 255
221 236 255
221 236 255
221 236 255
221 236 255
221 236 255
221 236 255
221 236 255
221 236 255
221 236 255
221 236 255
221 236 255
221 236 255
221 236 255
221 236 255
221 236 255
221 236 255
221 236 255
221 236 255
221 236 255
221 236 255
221 236 255
221 236 255
221 236 255
221 236 255
221 236 255
221 236 255
221 236 255
221 236 255
221 236 255
221 236 255
221 236 255
221 236 255
221 236 255
221 236 255
221 236 255
221 236 255
221 236 255
221 236 255
221 236 255
221 236 255
221 236 255
221 236 255
221 236 255
221 236 255
221 236 255
221 236 255
221 236 255
221 236 255
221 236 255
221 236 255
221 236 255
221 236 255
221 236 255
221 236 255
221 236 255
221 236 255
221 236 255
221 236 255
221 236 255
221 236 255
221 236 255
221 236 255
221 236 255
221 236 255
221 236 255
221 236 255
221 236 255
221 236 255
221 236 255
221 236 255
221 236 255
221 236 255
221 236 255
221 236 255
221 236 255
221 236 255
221 236 255
221 236 255
221 236 255
221 236 255
221 236 255
221 236 255
221 236 255
221 236 255
221 236 255
221 236 255
221 236 255
221 236 255
221 236 255
221 236 255
221 236 255
221 236 255
221 236 255
221 236 255
221 236 255
221 236 255
221 236 255
221 236 255
221 236 255
221 236 255
221 236 255
221 236 255
221 236 255
221 236 255
221 236 255
221 236 255
221 236 255
221 236 255
221 236 255
221 236 255
221 236 255
221 236 255
221 236 255
221 236 255
221 236 255
221 236 255
221 236 255
221 236 255
221 236 255
221 236 255
221 236 255
221 236 255
221 236 255
221 236 255
221 236 255
221 236 255
221 236 255
221 236 255
221 236 255
221 236 255
221 236 255
221 236 255
221 236 255
221 236 255
221 236 255
221 236 255
221 236 255
221 236 255
221 236 255
221 236 255
221 236 255
221 236 255
221 236 255
221 236 255
221 236 255
221 236 255
221 236 255
221 236 255
221 236 255
221 236 255
221 236 255
221 236 255
221 236 255
221 236 255
221 236 255
221 236 255
221 236 255
221 236 255
221 236 255
221 236 255
221 236 255
221 236 255
221 236 255
221 236 255
221 236 255
221 236 255
221 236 255
221 236 255
221 236 255
221 236 255
221 236 255
221 236 255
221 236 255
221 236 255
221 236 255
221 236 255
221 236 255
221 236 255
221 236 255
221 236 255
221 236 255
221 236 255
221 236 255
221 236 255
221 236 255
221 236 255
221 236 255
221 236 255
221 236 255
221 236 255
221 236 255
221 236 255
221 236 255
221 236 255
221 236 255
221 236 255
221 236 255
221 236 255
221 236 255
221 236 255
221 236 255
221 236 255
221 236 255
221 236 255
221 236 255
221 236 255
221 236 255
221 236 255
221 236 255
221 236 255
221 236 255
221 236 255
221 236 255
221 236 255
221 236 255
221 236 255
221 236 255
221 236 255
221 236 255
221 236 255
221 236 255
221 236 255
221 236 255
221 236 255
221 236 255
221 236 255
221 236 255
221 236 255
221 236 255
221 236 255
221 236 255
221 236 255
221 236 255
221 236 255
221 236 255
133 57 62
116 0 0
129 0 0
123 0 0
120 0 0
123 0 0
128 0 0
130 0 0
130 0 0
120 0 0
132 0 0
121 0 0
111 0 0
133 0 0
131 0 0
134 0 0
133 0 0
128 0 0
136 0 0
125 0 0
131 0 0
130 0 0
116 0 0
132 0 0
128 0 0
130 0 0
120 0 0
139 0 0
130 0 0
125 0 0
139 0 0
127 0 0
139 0 0
129 0 0
130 0 0
128 0 0
129 0 0
135 0 0
130 0 0
132 0 0
123 0 0
130 0 0
123 0 0
128 0 0
131 0 0
138 0 0
119 0 0
135 0 0
118 0 0
133 0 0
127 0 0
134 0 0
126 0 0
128 0 0
131 0 0
133 0 0
138 0 0
139 0 0
131 0 0
124 0 0
126 0 0
126 0 0
132 0 0
127 0 0
125 0 0
126 0 0
127 0 0
122 0 0
115 0 0
136 0 0
112 0 0
133 0 0
124 0 0
140 0 0
129 0 0
125 0 0
121 0 0
139 0 0
116 0 0
126 0 0
124 0 0
130 0 0
122 0 0
138 0 0
129 0 0
124 0 0
131 0 0
132 0 0
120 0 0
131 0 0
133 0 0
123 0 0
127 0 0
121 0 0
123 0 0
127 0 0
132 0 0
122 0 0
130 0 0
125 0 0
124 0 0
129 0 0
117 0 0
126 0 0
136 0 0
131 0 0
120 0 0
129 0 0
127 0 0
133 0 0
128 0 0
121 0 0
124 0 0
129 0 0
129 0 0
125 0 0
131 0 0
133 0 0
140 0 0
119 0 0
133 0 0
134 0 0
126 0 0
119 0 0
121 0 0
123 0 0
135 0 0
134 0 0
130 0 0
131 62 67
221 236 255
221 236 255
221 236 255
221 236 255
221 236 255
221 236 255
221 236 255
221 236 255
221 236 255
221 236 255
221 236 255
221 236 255
221 236 255
221 236 255
221 236 255
221 236 255
221 236 255
221 236 255
221 236 255
221 236 255
221 236 255
221 236 255
221 236 255
221 236 255
221 236 255
221 236 255
221 236 255
221 236 255
221 236 255
221 236 255
221 236 255
221 236 255
221 236 255
221 236 255
221 236 255
221 236 255
221 236 255
221 236 255
221 236 255
221 236 255
221 236 255
221 236 255
221 236 255
221 236 255
221 236 255
221 236 255
221 236 255
221 236 255
221 236 255
221 236 255
221 236 255
221 236 255
221 236 255
221 236 255
221 236 255
221 236 255
221 236 255
221 236 255
221 236 255
221 236 255
221 236 255
221 236 255
221 236 255
221 236 255
221 236 255
221 236 255
221 236 255
221 236 255
221 236 255
221 236 255
221 236 255
221 236 255
221 236 255
221 236 255
221 236 255
221 236 255
221 236 255
221 236 255
221 236 255
221 236 255
221 236 255
221 236 255
221 236 255
221 236 255
221 236 255
221 236 255
221 236 255
221 236 255
221 236 255
221 236 255
221 236 255
221 236 255
221 236 255
221 236 255
221 236 255
221 236 255
221 236 255
221 236 255
221 236 255
221 236 255
221 236 255
221 236 255
221 236 255
221 236 255
221 236 255
221 236 255
221 236 255
221 236 255
221 236 255
221 236 255
221 236 255
221 236 255
221 236 255
221 236 255
221 236 255
221 236 255
221 236 255
221 236 255
221 236 255
221 236 255
221 236 255
221 236 255
221 236 255
221 236 255
221 236 255
221 236 255
221 236 255
221 236 255
221 236 255
221 236 255
221 236 255
221 236 255
221 236 255
221 236 255
221 236 255
222 236 255
222 236 255
222 236 255
222 236 255
222 236 255
222 236 255
222 236 255
222 236 255
222 236 255
222 236 255
222 236 255
222 236 255
222 236 255
222 236 255
222 236 255
222 236 255
222 236 255
222 236 255
222 236 255
222 236 255
222 236 255
222 236 255
222 236 255
222 236 255
222 236 255
222 236 255
222 236 255
222 236 255
222 236 255
222 236 255
222 236 255
222 236 255
222 236 255
222 236 255
222 236 255
222 236 255
222 236 255
222 236 255
222 236 255
222 236 255
222 236 255
222 236 255
222 236 255
222 236 255
222 236 255
222 236 255
222 236 255
222 236 255
222 236 255
222 236 255
222 236 255
222 236 255
222 236 255
222 236 255
222 236 255
222 236 255
222 236 255
222 236 255
222 236 255
222 236 255
222 236 255
222 236 255
222 236 255
222 236 255
222 236 255
222 236 255
222 236 255
222 236 255
222 236 255
222 236 255
222 236 255
222 236 255
222 236 255
222 236 255
222 236 255
222 236 255
222 236 255
222 236 255
222 236 255
222 236 255
222 236 255
222 236 255
222 236 255
222 236 255
222 236 255
222 236 255
222 236 255
222 236 255
222 236 255
222 236 255
222 236 255
222 236 255
222 236 255
222 236 255
222 236 255
222 236 255
222 236 255
222 236 255
222 236 255
222 236 255
222 236 255
222 236 255
222 236 255
222 236 255
222 236 255
222 236 255
222 236 255
222 236 255
222 236 255
222 236 255
222 236 255
222 236 255
222 236 255
222 236 255
222 236 255
222 236 255
222 236 255
222 236 255
222 236 255
222 236 255
222 236 255
222 236 255
222 236 255
222 236 255
222 236 255
222 236 255
222 236 255
222 236 255
222 236 255
222 236 255
222 236 255
222 236 255
222 236 255
222 236 255
222 236 255
133 57 62
121 0 0
124 0 0
122 0 0
131 0 0
116 0 0
127 0 0
132 0 0
127 0 0
135 0 0
117 0 0
125 0 0
122 0 0
129 0 0
133 0 0
124 0 0
119 0 0
133 0 0
132 0 0
120 0 0
129 0 0
121 0 0
124 0 0
134 0 0
127 0 0
127 0 0
130 0 0
123 0 0
124 0 0
125 0 0
126 0 0
129 0 0
129 0 0
114 0 0
124 0 0
128 0 0
125 0 0
127 0 0
125 0 0
113 0 0
119 0 0
130 0 0
118 0 0
119 0 0
126 0 0
133 0 0
121 0 0
120 0 0
126 0 0
126 0 0
124 0 0
121 0 0
122 0 0
134 0 0
134 0 0
128 0 0
130 0 0
123 0 0
133 0 0
120 0 0
123 0 0
127 0 0
124 0 0
126 0 0
130 0 0
128 0 0
125 0 0
133 0 0
116 0 0
119 0 0
126 0 0
130 0 0
136 0 0
124 0 0
106 0 0
126 0 0
136 0 0
130 0 0
136 0 0
118 0 0
129 0 0
123 0 0
119 0 0
123 0 0
125 0 0
130 0 0
122 0 0
130 0 0
126 0 0
125 0 0
129 0 0
126 0 0
128 0 0
127 0 0
112 0 0
130 0 0
127 0 0
127 0 0
123 0 0
127 0 0
135 0 0
130 0 0
114 0 0
126 0 0
129 0 0
129 0 0
122 0 0
127 0 0
122 0 0
127 0 0
128 0 0
135 0 0
134 0 0
126 0 0
129 0 0
130 0 0
126 0 0
133 0 0
129 0 0
131 0 0
122 0 0
127 0 0
123 0 0
124 0 0
128 0 0
128 0 0
129 0 0
124 0 0
130 0 0
147 52 57
222 236 255
222 236 255
222 236 255
222 236 255
222 236 255
222 236 255
222 236 255
222 236 255
222 236 255
222 236 255
222 236 255
222 236 255
222 236 255
222 236 255
222 236 255
222 236 255
222 236 255
222 236 255
222 236 255
222 236 255
222 236 255
222 236 255
222 236 255
222 236 255
222 236 255
222 236 255
222 236 255
222 236 255
222 236 255
222 236 255
222 236 255
222 236 255
222 236 255
222 236 255
222 236 255
222 236 255
222 236 255
222 236 255
222 236 255
222 236 255
222 236 255
222 236 255
222 236 255
222 236 255
222 236 255
222 236 255
222 236 255
222 236 255
222 236 255
222 236 255
222 236 255
222 236 255
222 236 255
222 236 255
222 236 255
222 236 255
222 236 255
222 236 255
222 236 255
222 236 255
222 236 255
222 236 255
222 236 255
222 236 255
222 236 255
222 236 255
222 236 255
222 236 255
222 236 255
222 236 255
222 236 255
222 236 255
222 236 255
222 236 255
222 236 255
222 236 255
222 236 255
222 236 255
222 236 255
222 236 255
222 236 255
222 236 255
222 236 255
222 236 255
222 236 255
222 236 255
222 236 255
222 236 255
222 236 255
222 236 255
222 236 255
222 236 255
222 236 255
222 236 255
222 236 255
222 236 255
222 236 255
222 236 255
222 236 255
222 236 255
222 236 255
222 236 255
222 236 255
222 236 255
222 236 255
222 236 255
222 236 255
222 236 255
222 236 255
222 236 255
222 236 255
222 236 255
222 236 255
222 236 255
222 236 255
222 236 255
222 236 255
222 236 255
222 236 255
222 236 255
222 236 255
222 236 255
222 236 255
222 236 255
222 236 255
222 236 255
222 236 255
222 236 255
222 236 255
222 236 255
222 236 255
222 236 255
222 236 255
222 236 255
222 236 255
222 236 255
222 236 255
222 236 255
222 236 255
222 236 255
222 236 255
222 236 255
222 236 255
222 236 255
222 236 255
222 236 255
222 236 255
222 236 255
222 236 255
222 236 255
222 236 255
222 236 255
222 236 255
222 236 255
222 236 255
222 236 255
222 236 255
222 236 255
222 236 255
222 236 255
222 236 255
222 236 255
222 236 255
222 236 255
222 236 255
222 236 255
222 236 255
222 236 255
222 236 255
222 236 255
222 236 255
222 236 255
222 236 255
222 236 255
222 236 255
222 236 255
222 236 255
222 236 255
222 236 255
222 236 255
222 236 255
222 236 255
222 236 255
222 236 255
222 236 255
222 236 255
222 236 255
222 236 255
222 236 255
222 236 255
222 236 255
222 236 255
222 236 255
222 236 255
222 236 255
222 236 255
222 236 255
222 236 255
222 236 255
222 236 255
222 236 255
222 236 255
222 236 255
222 236 255
222 236 255
222 236 255
222 236 255
222 236 255
222 236 255
222 236 255
222 236 255
222 236 255
222 236 255
222 236 255
222 236 255
222 236 255
222 236 255
222 236 255
222 236 255
222 236 255
222 236 255
222 236 255
222 236 255
222 236 255
222 236 255
222 236 255
222 236 255
222 236 255
222 236 255
222 236 255
222 236 255
222 236 255
222 236 255
222 236 255
222 236 255
222 236 255
222 236 255
222 236 255
222 236 255
222 236 255
222 236 255
222 236 255
222 236 255
222 236 255
222 236 255
222 236 255
222 236 255
222 236 255
222 236 255
222 236 255
222 236 255
222 236 255
222 236 255
222 236 255
222 236 255
222 236 255
222 236 255
222 236 255
222 236 255
222 236 255
222 236 255
222 236 255
222 236 255
222 236 255
222 236 255
222 236 255
222 236 255
222 236 255
222 236 255
222 236 255
148 70 76
139 0 0
127 0 0
129 0 0
119 0 0
129 0 0
129 0 0
129 0 0
120 0 0
130 0 0
129 0 0
129 0 0
125 0 0
123 0 0
110 0 0
129 0 0
118 0 0
125 0 0
118 0 0
135 0 0
111 0 0
123 0 0
116 0 0
134 0 0
121 0 0
114 0 0
128 0 0
130 0 0
131 0 0
133 0 0
130 0 0
130 0 0
130 0 0
135 0 0
124 0 0
123 0 0
139 0 0
123 0 0
125 0 0
125 0 0
129 0 0
138 0 0
123 0 0
115 0 0
121 0 0
134 0 0
128 0 0
130 0 0
118 0 0
135 0 0
113 0 0
116 0 0
128 0 0
127 0 0
126 0 0
113 0 0
128 0 0
123 0 0
121 0 0
130 0 0
127 0 0
113 0 0
131 0 0
119 0 0
133 0 0
120 0 0
111 0 0
132 0 0
130 0 0
122 0 0
128 0 0
128 0 0
121 0 0
131 0 0
126 0 0
126 0 0
129 0 0
121 0 0
120 0 0
120 0 0
130 0 0
128 0 0
121 0 0
137 0 0
129 0 0
130 0 0
129 0 0
112 0 0
127 0 0
127 0 0
131 0 0
133 0 0
117 0 0
129 0 0
133 0 0
119 0 0
137 0 0
122 0 0
116 0 0
118 0 0
117 0 0
131 0 0
130 0 0
124 0 0
126 0 0
109 0 0
135 0 0
127 0 0
129 0 0
136 0 0
118 0 0
125 0 0
124 0 0
132 0 0
136 0 0
128 0 0
129 0 0
118 0 0
124 0 0
121 0 0
130 0 0
124 0 0
123 0 0
114 0 0
118 0 0
123 0 0
131 0 0
128 0 0
129 0 0
135 66 72
222 236 255
222 236 255
222 236 255
222 236 255
222 236 255
222 236 255
222 236 255
222 236 255
222 236 255
222 236 255
222 236 255
222 236 255
222 236 255
222 236 255
222 236 255
222 236 255
222 236 255
222 236 255
222 236 255
222 236 255
222 236 255
222 236 255
222 236 255
222 236 255
222 236 255
222 236 255
222 236 255
222 236 255
222 236 255
222 236 255
222 236 255
222 236 255
222 236 255
222 236 255
222 236 255
222 236 255
222 236 255
222 236 255
222 236 255
222 236 255
222 236 255
222 236 255
222 236 255
222 236 255
222 236 255
222 236 255
222 236 255
222 236 255
222 236 255
222 236 255
222 236 255
222 236 255
222 236 255
222 236 255
222 236 255
222 236 255
222 236 255
222 236 255
222 236 255
222 236 255
222 236 255
222 236 255
222 236 255
222 236 255
222 236 255
222 236 255
222 236 255
222 236 255
222 236 255
222 236 255
222 236 255
222 236 255
222 236 255
222 236 255
222 236 255
222 236 255
222 236 255
222 236 255
222 236 255
222 236 255
222 236 255
222 236 255
222 236 255
222 236 255
222 236 255
222 236 255
222 236 255
222 236 255
222 236 255
222 236 255
222 236 255
222 236 255
222 236 255
222 236 255
222 236 255
222 236 255
222 236 255
222 236 255
222 236 255
222 236 255
222 236 255
222 236 255
222 236 255
222 236 255
222 236 255
222 236 255
222 236 255
222 236 255
222 236 255
222 236 255
222 236 255
222 236 255
222 236 255
222 236 255
222 236 255
222 236 255
222 236 255
222 236 255
222 236 255
222 236 255
222 236 255
222 236 255
222 236 255
222 236 255
222 236 255
222 236 255
222 236 255
222 236 255
222 236 255
222 236 255
222 236 255
222 236 255
222 236 255
222 236 255
222 236 255
222 236 255
222 236 255
222 236 255
222 236 255
222 236 255
222 236 255
222 236 255
222 236 255
222 236 255
222 236 255
222 236 255
222 236 255
222 236 255
222 236 255
222 236 255
222 236 255
222 236 255
222 236 255
222 236 255
222 236 255
222 236 255
222 236 255
222 236 255
222 236 255
222 236 255
222 236 255
222 236 255
222 236 255
222 236 255
222 236 255
222 236 255
222 236 255
222 236 255
222 236 255
222 236 255
222 236 255
222 236 255
222 236 255
222 236 255
222 236 255
222 236 255
222 236 255
222 236 255
222 236 255
222 236 255
222 236 255
222 236 255
222 236 255
222 236 255
222 236 255
222 236 255
222 236 255
222 236 255
222 236 255
222 236 255
222 236 255
222 236 255
222 236 255
222 236 255
222 236 255
222 236 255
222 236 255
222 236 255
222 236 255
222 236 255
222 236 255
222 236 255
222 236 255
222 236 255
222 236 255
222 236 255
222 236 255
222 236 255
222 236 255
222 236 255
222 236 255
222 236 255
222 236 255
222 236 255
222 236 255
222 236 255
222 236 255
222 236 255
222 236 255
222 236 255
222 236 255
222 236 255
222 236 255
222 236 255
222 236 255
222 236 255
222 236 255
222 236 255
222 236 255
222 236 255
222 236 255
222 236 255
222 236 255
222 236 255
222 236 255
222 236 255
222 236 255
222 236 255
222 236 255
222 236 255
222 236 255
222 236 255
222 236 255
222 236 255
222 236 255
222 236 255
222 236 255
222 236 255
222 236 255
222 236 255
222 236 255
222 236 255
222 236 255
222 236 255
222 236 255
222 236 255
222 236 255
222 236 255
222 236 255
222 236 255
222 236 255
222 236 255
222 236 255
222 236 255
222 236 255
222 236 255
222 236 255
222 236 255
222 236 255
222 236 255
150 108 117
129 0 0
121 0 0
113 0 0
119 0 0
132 0 0
116 0 0
135 0 0
120 0 0
127 0 0
116 0 0
131 0 0
127 0 0
120 0 0
138 0 0
131 0 0
125 0 0
127 0 0
123 0 0
127 0 0
131 0 0
119 0 0
126 0 0
126 0 0
113 0 0
115 0 0
121 0 0
126 0 0
128 0 0
132 0 0
128 0 0
130 0 0
128 0 0
120 0 0
126 0 0
124 0 0
122 0 0
122 0 0
129 0 0
134 0 0
129 0 0
119 0 0
124 0 0
133 0 0
127 0 0
129 0 0
127 0 0
131 0 0
136 0 0
125 0 0
138 0 0
130 0 0
126 0 0
131 0 0
130 0 0
113 0 0
124 0 0
125 0 0
129 0 0
131 0 0
117 0 0
129 0 0
125 0 0
129 0 0
122 0 0
125 0 0
119 0 0
115 0 0
125 0 0
134 0 0
120 0 0
120 0 0
132 0 0
120 0 0
129 0 0
125 0 0
123 0 0
126 0 0
129 0 0
127 0 0
125 0 0
123 0 0
131 0 0
121 0 0
128 0 0
125 0 0
130 0 0
126 0 0
115 0 0
125 0 0
134 0 0
127 0 0
122 0 0
128 0 0
136 0 0
120 0 0
118 0 0
132 0 0
126 0 0
116 0 0
126 0 0
121 0 0
126 0 0
119 0 0
129 0 0
121 0 0
113 0 0
131 0 0
123 0 0
130 0 0
120 0 0
129 0 0
126 0 0
129 0 0
129 0 0
132 0 0
124 0 0
125 0 0
126 0 0
109 0 0
129 0 0
127 0 0
134 0 0
120 0 0
125 0 0
125 0 0
133 0 0
117 0 0
129 0 0
139 91 99
222 236 255
222 236 255
222 236 255
222 236 255
222 236 255
222 236 255
222 236 255
222 236 255
222 236 255
222 236 255
222 236 255
222 236 255
222 236 255
222 236 255
222 236 255
222 236 255
222 236 255
222 236 255
222 236 255
222 236 255
222 236 255
222 236 255
222 236 255
222 236 255
222 236 255
222 236 255
222 236 255
222 236 255
222 236 255
222 236 255
222 236 255
222 236 255
222 236 255
222 236 255
222 236 255
222 236 255
222 236 255
222 236 255
222 236 255
222 236 255
222 236 255
222 236 255
222 236 255
222 236 255
222 236 255
222 236 255
222 236 255
222 236 255
222 236 255
222 236 255
222 236 255
222 236 255
222 236 255
222 236 255
222 236 255
222 236 255
222 236 255
222 236 255
222 236 255
222 236 255
222 236 255
222 236 255
222 236 255
222 236 255
222 236 255
222 236 255
222 236 255
222 236 255
222 236 255
222 236 255
222 236 255
222 236 255
222 236 255
222 236 255
222 236 255
222 236 255
222 236 255
222 236 255
222 236 255
222 236 255
222 236 255
222 236 255
222 236 255
222 236 255
222 236 255
222 236 255
222 236 255
222 236 255
222 236 255
222 236 255
222 236 255
222 236 255
222 236 255
222 236 255
222 236 255
222 236 255
222 236 255
222 236 255
222 236 255
222 236 255
222 236 255
222 236 255
222 236 255
222 236 255
222 236 255
222 236 255
222 236 255
222 236 255
222 236 255
222 236 255
222 236 255
222 236 255
222 236 255
222 236 255
222 236 255
222 236 255
222 236 255
222 236 255
222 236 255
222 236 255
222 236 255
222 236 255
222 236 255
222 236 255
222 236 255
222 236 255
222 236 255
222 236 255
222 236 255
222 236 255
222 236 255
222 236 255
222 236 255
222 236 255
222 236 255
222 236 255
222 236 255
222 236 255
222 236 255
222 236 255
222 236 255
222 236 255
222 236 255
222 236 255
222 236 255
222 236 255
222 236 255
222 236 255
222 236 255
222 236 255
222 236 255
222 236 255
222 236 255
222 236 255
222 236 255
222 236 255
222 236 255
222 236 255
222 236 255
222 236 255
222 236 255
222 236 255
222 236 255
222 236 255
222 236 255
222 236 255
222 236 255
222 236 255
222 236 255
222 236 255
222 236 255
222 236 255
222 236 255
222 236 255
222 236 255
222 236 255
222 236 255
222 236 255
222 236 255
222 236 255
222 236 255
222 236 255
222 236 255
222 236 255
222 236 255
222 236 255
222 236 255
222 236 255
222 236 255
222 236 255
222 236 255
222 236 255
222 236 255
222 236 255
222 236 255
222 236 255
222 236 255
222 236 255
222 236 255
222 236 255
222 236 255
222 236 255
222 236 255
222 236 255
222 236 255
222 236 255
222 236 255
222 236 255
222 236 255
222 236 255
222 236 255
222 236 255
222 236 255
222 236 255
222 236 255
222 236 255
222 236 255
222 236 255
222 236 255
222 236 255
222 236 255
222 236 255
222 236 255
222 236 255
222 236 255
222 236 255
222 236 255
222 236 255
222 236 255
222 236 255
222 236 255
222 236 255
222 236 255
222 236 255
222 236 255
222 236 255
222 236 255
222 236 255
222 236 255
222 236 255
222 236 255
222 236 255
222 236 255
222 236 255
222 236 255
222 236 255
222 236 255
222 236 255
222 236 255
223 236 255
222 236 255
223 236 255
223 236 255
223 236 255
223 236 255
223 236 255
223 236 255
223 236 255
223 236 255
223 236 255
223 236 255
223 236 255
223 236 255
223 236 255
223 236 255
223 236 255
223 236 255
223 236 255
223 236 255
223 236 255
142 113 122
121 0 0
125 0 0
130 0 0
124 0 0
128 0 0
121 0 0
134 0 0
124 0 0
114 0 0
127 0 0
121 0 0
120 0 0
115 0 0
132 0 0
123 0 0
117 0 0
118 0 0
125 0 0
125 0 0
126 0 0
121 0 0
134 0 0
129 0 0
121 0 0
124 0 0
121 0 0
123 0 0
122 0 0
123 0 0
123 0 0
127 0 0
116 0 0
128 0 0
134 0 0
126 0 0
132 0 0
114 0 0
126 0 0
135 0 0
131 0 0
127 0 0
125 0 0
124 0 0
119 0 0
109 0 0
129 0 0
125 0 0
122 0 0
115 0 0
117 0 0
123 0 0
121 0 0
130 0 0
126 0 0
116 0 0
111 0 0
124 0 0
129 0 0
126 0 0
128 0 0
116 0 0
127 0 0
130 0 0
129 0 0
127 0 0
127 0 0
118 0 0
116 0 0
129 0 0
120 0 0
132 0 0
125 0 0
131 0 0
127 0 0
131 0 0
118 0 0
136 0 0
121 0 0
131 0 0
118 0 0
134 0 0
128 0 0
129 0 0
119 0 0
113 0 0
131 0 0
119 0 0
124 0 0
136 0 0
124 0 0
123 0 0
129 0 0
127 0 0
118 0 0
126 0 0
126 0 0
114 0 0
116 0 0
125 0 0
127 0 0
119 0 0
130 0 0
120 0 0
120 0 0
123 0 0
113 0 0
124 0 0
123 0 0
122 0 0
126 0 0
127 0 0
139 0 0
122 0 0
122 0 0
130 0 0
124 0 0
132 0 0
131 0 0
124 0 0
124 0 0
128 0 0
121 0 0
130 0 0
124 0 0
124 0 0
120 0 0
125 0 0
118 0 0
149 97 105
223 236 255
223 236 255
223 236 255
223 236 255
223 236 255
223 236 255
223 236 255
223 236 255
223 236 255
223 236 255
223 236 255
223 236 255
223 236 255
223 236 255
223 236 255
223 236 255
223 236 255
223 236 255
223 236 255
222 236 255
223 236 255
222 236 255
222 236 255
222 236 255
222 236 255
222 236 255
222 236 255
222 236 255
222 236 255
222 236 255
222 236 255
222 236 255
222 236 255
222 236 255
222 236 255
222 236 255
222 236 255
222 236 255
222 236 255
222 236 255
222 236 255
222 236 255
222 236 255
222 236 255
222 236 255
222 236 255
222 236 255
222 236 255
222 236 255
222 236 255
222 236 255
222 236 255
222 236 255
222 236 255
222 236 255
222 236 255
222 236 255
222 236 255
222 236 255
222 236 255
222 236 255
222 236 255
222 236 255
222 236 255
222 236 255
222 236 255
222 236 255
222 236 255
222 236 255
222 236 255
222 236 255
222 236 255
222 236 255
222 236 255
222 236 255
222 236 255
222 236 255
222 236 255
222 236 255
222 236 255
222 236 255
222 236 255
222 236 255
222 236 255
222 236 255
222 236 255
222 236 255
222 236 255
222 236 255
222 236 255
222 236 255
222 236 255
222 236 255
222 236 255
222 236 255
222 236 255
222 236 255
222 236 255
222 236 255
222 236 255
222 236 255
222 236 255
222 236 255
222 236 255
222 236 255
222 236 255
222 236 255
222 236 255
222 236 255
222 236 255
222 236 255
222 236 255
222 236 255
222 236 255
222 236 255
222 236 255
222 236 255
222 236 255
222 236 255
222 236 255
222 236 255
222 236 255
222 236 255
222 236 255
222 236 255
222 236 255
222 236 255
222 236 255
222 236 255
222 236 255
222 236 255
222 236 255
222 236 255
222 236 255
222 236 255
222 236 255
222 236 255
222 236 255
222 236 255
222 236 255
222 236 255
222 236 255
222 236 255
222 236 255
222 236 255
222 236 255
222 236 255
222 236 255
222 236 255
222 236 255
222 236 255
222 236 255
222 236 255
222 236 255
222 236 255
222 236 255
222 236 255
222 236 255
222 236 255
222 236 255
222 236 255
222 236 255
222 236 255
222 236 255
222 236 255
222 236 255
222 236 255
222 236 255
222 236 255
222 236 255
222 236 255
222 236 255
222 236 255
222 236 255
222 236 255
222 236 255
222 236 255
222 236 255
222 236 255
222 236 255
222 236 255
222 236 255
222 236 255
222 236 255
222 236 255
222 236 255
222 236 255
222 236 255
222 236 255
222 236 255
222 236 255
222 236 255
222 236 255
222 236 255
222 236 255
222 236 255
222 236 255
222 236 255
222 236 255
222 236 255
222 236 255
222 236 255
222 236 255
222 236 255
222 236 255
222 236 255
223 236 255
223 236 255
223 236 255
223 236 255
223 236 255
223 236 255
223 236 255
223 236 255
223 236 255
223 236 255
223 236 255
223 236 255
223 236 255
223 236 255
223 236 255
223 236 255
223 236 255
223 236 255
223 236 255
223 236 255
223 236 255
223 236 255
223 236 255
223 236 255
223 236 255
223 236 255
223 236 255
223 236 255
223 236 255
223 236 255
223 236 255
223 236 255
223 236 255
223 236 255
223 236 255
223 236 255
223 236 255
223 236 255
223 236 255
223 236 255
223 236 255
223 236 255
223 236 255
223 236 255
223 236 255
223 236 255
223 236 255
223 236 255
223 236 255
223 236 255
223 236 255
223 236 255
223 236 255
223 236 255
223 236 255
223 236 255
223 236 255
223 236 255
223 236 255
223 236 255
223 236 255
223 236 255
223 236 255
223 236 255
170 149 161
121 0 0
130 0 0
127 0 0
128 0 0
130 0 0
125 0 0
122 0 0
133 0 0
120 0 0
126 0 0
128 0 0
120 0 0
118 0 0
117 0 0
125 0 0
123 0 0
128 0 0
111 0 0
130 0 0
127 0 0
115 0 0
130 0 0
129 0 0
128 0 0
127 0 0
127 0 0
125 0 0
131 0 0
125 0 0
124 0 0
119 0 0
122 0 0
119 0 0
123 0 0
116 0 0
129 0 0
120 0 0
113 0 0
122 0 0
125 0 0
122 0 0
130 0 0
129 0 0
124 0 0
114 0 0
129 0 0
128 0 0
125 0 0
130 0 0
119 0 0
130 0 0
125 0 0
132 0 0
130 0 0
111 0 0
120 0 0
118 0 0
118 0 0
125 0 0
126 0 0
126 0 0
132 0 0
121 0 0
130 0 0
114 0 0
122 0 0
122 0 0
124 0 0
132 0 0
126 0 0
130 0 0
119 0 0
133 0 0
127 0 0
126 0 0
133 0 0
128 0 0
129 0 0
125 0 0
138 0 0
126 0 0
131 0 0
123 0 0
134 0 0
118 0 0
124 0 0
135 0 0
121 0 0
134 0 0
131 0 0
115 0 0
116 0 0
130 0 0
130 0 0
131 0 0
123 0 0
116 0 0
124 0 0
128 0 0
111 0 0
129 0 0
118 0 0
123 0 0
127 0 0
128 0 0
117 0 0
129 0 0
115 0 0
120 0 0
132 0 0
128 0 0
117 0 0
124 0 0
124 0 0
126 0 0
127 0 0
120 0 0
123 0 0
127 0 0
117 0 0
124 0 0
127 0 0
122 0 0
124 0 0
130 0 0
131 0 0
125 0 0
129 0 0
159 127 137
223 236 255
223 236 255
223 236 255
223 236 255
223 236 255
223 236 255
223 236 255
223 236 255
223 236 255
223 236 255
223 236 255
223 236 255
223 236 255
223 236 255
223 236 255
223 236 255
223 236 255
223 236 255
223 236 255
223 236 255
223 236 255
223 236 255
223 236 255
223 236 255
223 236 255
223 236 255
223 236 255
223 236 255
223 236 255
223 236 255
223 236 255
223 236 255
223 236 255
223 236 255
223 236 255
223 236 255
223 236 255
223 236 255
223 236 255
223 236 255
223 236 255
223 236 255
223 236 255
223 236 255
223 236 255
223 236 255
223 236 255
223 236 255
223 236 255
223 236 255
223 236 255
223 236 255
223 236 255
223 236 255
223 236 255
223 236 255
223 236 255
223 236 255
223 236 255
223 236 255
223 236 255
222 236 255
222 236 255
222 236 255
222 236 255
222 236 255
222 236 255
222 236 255
222 236 255
222 236 255
222 236 255
222 236 255
222 236 255
222 236 255
222 236 255
222 236 255
222 236 255
222 236 255
222 236 255
222 236 255
222 236 255
222 236 255
222 236 255
222 236 255
222 236 255
222 236 255
222 236 255
222 236 255
222 236 255
222 236 255
222 236 255
222 236 255
222 236 255
222 236 255
222 236 255
222 236 255
222 236 255
222 236 255
222 236 255
222 236 255
222 236 255
222 236 255
222 236 255
222 236 255
222 236 255
222 236 255
222 236 255
222 236 255
222 236 255
222 236 255
222 236 255
222 236 255
222 236 255
222 236 255
222 236 255
222 236 255
222 236 255
222 236 255
222 236 255
222 236 255
222 236 255
222 236 255
222 236 255
222 236 255
222 236 255
222 236 255
222 236 255
222 236 255
222 236 255
222 236 255
222 236 255
222 236 255
222 236 255
222 236 255
222 236 255
222 236 255
222 236 255
222 236 255
222 236 255
222 236 255
222 236 255
222 236 255
222 236 255
222 236 255
222 236 255
222 236 255
222 236 255
222 236 255
222 236 255
222 236 255
222 236 255
222 236 255
222 236 255
222 236 255
222 236 255
222 236 255
222 236 255
222 236 255
222 236 255
222 236 255
222 236 255
222 236 255
222 236 255
222 236 255
222 236 255
222 236 255
222 236 255
222 236 255
222 236 255
222 236 255
222 236 255
223 236 255
222 236 255
223 236 255
223 236 255
223 236 255
223 236 255
223 236 255
223 236 255
223 236 255
223 236 255
223 236 255
223 236 255
223 236 255
223 236 255
223 236 255
223 236 255
223 236 255
223 236 255
223 236 255
223 236 255
223 236 255
223 236 255
223 236 255
223 236 255
223 236 255
223 236 255
223 236 255
223 236 255
223 236 255
223 236 255
223 236 255
223 236 255
223 236 255
223 236 255
223 236 255
223 236 255
223 236 255
223 236 255
223 236 255
223 236 255
223 236 255
223 236 255
223 236 255
223 236 255
223 236 255
223 236 255
223 236 255
223 236 255
223 236 255
223 236 255
223 236 255
223 236 255
223 236 255
223 236 255
223 236 255
223 236 255
223 236 255
223 236 255
223 236 255
223 236 255
223 236 255
223 236 255
223 236 255
223 236 255
223 236 255
223 236 255
223 236 255
223 237 255
223 237 255
223 237 255
223 237 255
223 237 255
223 237 255
223 237 255
223 237 255
223 237 255
223 237 255
223 237 255
223 237 255
223 237 255
223 237 255
223 237 255
223 237 255
223 237 255
223 237 255
223 237 255
223 237 255
223 237 255
223 237 255
223 237 255
223 237 255
223 237 255
223 237 255
223 237 255
223 237 255
223 237 255
223 237 255
223 237 255
223 237 255
170 149 161
126 0 0
131 0 0
126 0 0
119 0 0
130 0 0
119 0 0
121 0 0
121 0 0
116 0 0
112 0 0
122 0 0
139 0 0
124 0 0
116 0 0
124 0 0
115 0 0
118 0 0
110 0 0
131 0 0
124 0 0
117 0 0
127 0 0
124 0 0
128 0 0
125 0 0
135 0 0
115 0 0
120 0 0
106 0 0
121 0 0
128 0 0
124 0 0
131 0 0
121 0 0
121 0 0
121 0 0
112 0 0
126 0 0
133 0 0
126 0 0
124 0 0
119 0 0
126 0 0
110 0 0
119 0 0
128 0 0
133 0 0
132 0 0
131 0 0
121 0 0
126 0 0
129 0 0
120 0 0
119 0 0
118 0 0
129 0 0
119 0 0
109 0 0
125 0 0
124 0 0
133 0 0
121 0 0
120 0 0
122 0 0
142 0 0
129 0 0
130 0 0
114 0 0
136 0 0
124 0 0
118 0 0
125 0 0
123 0 0
135 0 0
123 0 0
119 0 0
131 0 0
118 0 0
117 0 0
119 0 0
126 0 0
120 0 0
117 0 0
121 0 0
126 0 0
129 0 0
127 0 0
128 0 0
118 0 0
112 0 0
129 0 0
122 0 0
122 0 0
122 0 0
127 0 0
123 0 0
124 0 0
124 0 0
122 0 0
130 0 0
119 0 0
121 0 0
122 0 0
121 0 0
119 0 0
121 0 0
122 0 0
116 0 0
130 0 0
116 0 0
122 0 0
123 0 0
127 0 0
127 0 0
127 0 0
120 0 0
125 0 0
132 0 0
126 0 0
123 0 0
134 0 0
122 0 0
127 0 0
129 0 0
123 0 0
117 0 0
127 0 0
131 0 0
169 144 155
223 237 255
223 237 255
223 237 255
223 237 255
223 237 255
223 237 255
223 237 255
223 237 255
223 237 255
223 237 255
223 237 255
223 237 255
223 237 255
223 237 255
223 237 255
223 237 255
223 237 255
223 237 255
223 237 255
223 237 255
223 237 255
223 237 255
223 237 255
223 237 255
223 237 255
223 237 255
223 237 255
223 237 255
223 237 255
223 237 255
223 237 255
223 237 255
223 236 255
223 236 255
223 236 255
223 236 255
223 236 255
223 236 255
223 236 255
223 236 255
223 236 255
223 236 255
223 236 255
223 236 255
223 236 255
223 236 255
223 236 255
223 236 255
223 236 255
223 236 255
223 236 255
223 236 255
223 236 255
223 236 255
223 236 255
223 236 255
223 236 255
223 236 255
223 236 255
223 236 255
223 236 255
223 236 255
223 236 255
223 236 255
223 236 255
223 236 255
223 236 255
223 236 255
223 236 255
223 236 255
223 236 255
223 236 255
223 236 255
223 236 255
223 236 255
223 236 255
223 236 255
223 236 255
223 236 255
223 236 255
223 236 255
223 236 255
223 236 255
223 236 255
223 236 255
223 236 255
223 236 255
223 236 255
223 236 255
223 236 255
223 236 255
223 236 255
223 236 255
223 236 255
223 236 255
223 236 255
223 236 255
223 236 255
222 236 255
223 236 255
222 236 255
222 236 255
222 236 255
222 236 255
222 236 255
222 236 255
222 236 255
222 236 255
222 236 255
222 236 255
222 236 255
222 236 255
222 236 255
222 236 255
222 236 255
222 236 255
222 236 255
222 236 255
222 236 255
222 236 255
222 236 255
222 236 255
222 236 255
222 236 255
222 236 255
222 236 255
222 236 255
222 236 255
222 236 255
222 236 255
222 236 255
222 236 255
222 236 255
222 236 255
222 236 255
222 236 255
222 236 255
223 236 255
223 236 255
223 236 255
223 236 255
223 236 255
223 236 255
223 236 255
223 236 255
223 236 255
223 236 255
223 236 255
223 236 255
223 236 255
223 236 255
223 236 255
223 236 255
223 236 255
223 236 255
223 236 255
223 236 255
223 236 255
223 236 255
223 236 255
223 236 255
223 236 255
223 236 255
223 236 255
223 236 255
223 236 255
223 236 255
223 236 255
223 236 255
223 236 255
223 236 255
223 236 255
223 236 255
223 236 255
223 236 255
223 236 255
223 236 255
223 236 255
223 236 255
223 236 255
223 236 255
223 236 255
223 236 255
223 236 255
223 236 255
223 236 255
223 236 255
223 236 255
223 236 255
223 236 255
223 236 255
223 236 255
223 236 255
223 236 255
223 236 255
223 236 255
223 236 255
223 236 255
223 236 255
223 236 255
223 236 255
223 236 255
223 236 255
223 236 255
223 236 255
223 236 255
223 236 255
223 236 255
223 236 255
223 237 255
223 237 255
223 237 255
223 237 255
223 237 255
223 237 255
223 237 255
223 237 255
223 237 255
223 237 255
223 237 255
223 237 255
223 237 255
223 237 255
223 237 255
223 237 255
223 237 255
223 237 255
223 237 255
223 237 255
223 237 255
223 237 255
223 237 255
223 237 255
223 237 255
223 237 255
223 237 255
223 237 255
223 237 255
223 237 255
223 237 255
223 237 255
223 237 255
223 237 255
223 237 255
223 237 255
223 237 255
223 237 255
223 237 255
223 237 255
223 237 255
223 237 255
223 237 255
223 237 255
223 237 255
223 237 255
223 237 255
223 237 255
223 237 255
223 237 255
223 237 255
223 237 255
223 237 255
223 237 255
223 237 255
223 237 255
223 237 255
223 237 255
223 237 255
223 237 255
223 237 255
185 180 194
118 0 0
118 0 0
127 0 0
123 0 0
118 0 0
121 0 0
120 0 0
124 0 0
113 0 0
123 0 0
128 0 0
112 0 0
121 0 0
122 0 0
124 0 0
126 0 0
114 0 0
133 0 0
128 0 0
121 0 0
117 0 0
130 0 0
125 0 0
133 0 0
120 0 0
126 0 0
134 0 0
113 0 0
127 0 0
112 0 0
106 0 0
128 0 0
120 0 0
114 0 0
129 0 0
126 0 0
118 0 0
115 0 0
122 0 0
126 0 0
124 0 0
119 0 0
121 0 0
129 0 0
125 0 0
131 0 0
128 0 0
121 0 0
127 0 0
122 0 0
133 0 0
127 0 0
114 0 0
116 0 0
122 0 0
117 0 0
121 0 0
132 0 0
122 0 0
131 0 0
130 0 0
114 0 0
128 0 0
137 0 0
130 0 0
116 0 0
134 0 0
126 0 0
117 0 0
133 0 0
117 0 0
129 0 0
118 0 0
125 0 0
113 0 0
128 0 0
116 0 0
130 0 0
119 0 0
132 0 0
132 0 0
124 0 0
121 0 0
121 0 0
121 0 0
121 0 0
116 0 0
120 0 0
120 0 0
130 0 0
118 0 0
120 0 0
124 0 0
119 0 0
121 0 0
119 0 0
116 0 0
123 0 0
117 0 0
125 0 0
121 0 0
128 0 0
116 0 0
123 0 0
135 0 0
113 0 0
129 0 0
125 0 0
127 0 0
128 0 0
111 0 0
119 0 0
121 0 0
117 0 0
114 0 0
119 0 0
135 0 0
129 0 0
121 0 0
127 0 0
128 0 0
127 0 0
124 0 0
128 0 0
135 0 0
126 0 0
118 0 0
112 0 0
178 164 177
223 237 255
223 237 255
223 237 255
223 237 255
223 237 255
223 237 255
223 237 255
223 237 255
223 237 255
223 237 255
223 237 255
223 237 255
223 237 255
223 237 255
223 237 255
223 237 255
223 237 255
223 237 255
223 237 255
223 237 255
223 237 255
223 237 255
223 237 255
223 237 255
223 237 255
223 237 255
223 237 255
223 237 255
223 237 255
223 237 255
223 237 255
223 237 255
223 237 255
223 237 255
223 237 255
223 237 255
223 237 255
223 237 255
223 237 255
223 237 255
223 237 255
223 237 255
223 237 255
223 237 255
223 237 255
223 237 255
223 237 255
223 237 255
223 237 255
223 237 255
223 237 255
223 237 255
223 237 255
223 237 255
223 237 255
223 237 255
223 237 255
223 237 255
223 237 255
223 237 255
223 237 255
223 236 255
223 236 255
223 236 255
223 236 255
223 236 255
223 236 255
223 236 255
223 236 255
223 236 255
223 236 255
223 236 255
223 236 255
223 236 255
223 236 255
223 236 255
223 236 255
223 236 255
223 236 255
223 236 255
223 236 255
223 236 255
223 236 255
223 236 255
223 236 255
223 236 255
223 236 255
223 236 255
223 236 255
223 236 255
223 236 255
223 236 255
223 236 255
223 236 255
223 236 255
223 236 255
223 236 255
223 236 255
223 236 255
223 236 255
223 236 255
223 236 255
223 236 255
223 236 255
223 236 255
223 236 255
223 236 255
223 236 255
223 236 255
223 236 255
223 236 255
223 236 255
223 236 255
223 236 255
223 236 255
223 236 255
223 236 255
223 236 255
223 236 255
223 236 255
223 236 255
223 236 255
223 236 255
223 236 255
223 236 255
223 236 255
223 236 255
223 236 255
223 236 255
223 236 255
223 236 255
223 236 255
223 236 255
222 236 255
222 236 255
223 236 255
223 236 255
223 236 255
223 236 255
223 236 255
223 236 255
223 236 255
223 236 255
223 236 255
223 236 255
223 236 255
223 236 255
223 236 255
223 236 255
223 236 255
223 236 255
223 236 255
223 236 255
223 236 255
223 236 255
223 236 255
223 236 255
223 236 255
223 236 255
223 236 255
223 236 255
223 236 255
223 236 255
223 236 255
223 236 255
223 236 255
223 236 255
223 236 255
223 236 255
223 236 255
223 236 255
223 236 255
223 236 255
223 236 255
223 236 255
223 236 255
223 236 255
223 236 255
223 236 255
223 236 255
223 237 255
223 237 255
223 236 255
223 237 255
223 237 255
223 237 255
223 237 255
223 237 255
223 237 255
223 237 255
223 237 255
223 237 255
223 237 255
223 237 255
223 237 255
223 237 255
223 237 255
223 237 255
223 237 255
223 237 255
223 237 255
223 237 255
223 237 255
223 237 255
223 237 255
223 237 255
223 237 255
223 237 255
223 237 255
223 237 255
223 237 255
223 237 255
223 237 255
223 237 255
223 237 255
223 237 255
223 237 255
223 237 255
223 237 255
223 237 255
223 237 255
223 237 255
223 237 255
223 237 255
223 237 255
223 237 255
223 237 255
223 237 255
223 237 255
223 237 255
223 237 255
223 237 255
223 237 255
223 237 255
223 237 255
223 237 255
223 237 255
223 237 255
223 237 255
223 237 255
223 237 255
223 237 255
223 237 255
223 237 255
223 237 255
223 237 255
224 237 255
223 237 255
224 237 255
218 231 250
214 227 247
211 223 243
207 220 239
197 209 231
184 195 219
195 206 230
188 199 223
179 189 213
173 183 206
167 177 205
179 189 216
148 157 184
143 151 184
146 155 187
136 144 174
112 118 161
112 118 160
114 121 156
92 97 147
112 118 160
93 75 108
127 0 0
121 0 0
109 0 0
116 0 0
126 0 0
126 0 0
126 0 0
114 0 0
125 0 0
109 0 0
119 0 0
110 0 0
110 0 0
127 0 0
114 0 0
121 0 0
112 0 0
136 0 0
128 0 0
124 0 0
117 0 0
118 0 0
124 0 0
122 0 0
111 0 0
123 0 0
125 0 0
119 0 0
120 0 0
122 0 0
118 0 0
130 0 0
101 0 0
123 0 0
120 0 0
118 0 0
112 0 0
123 0 0
123 0 0
118 0 0
132 0 0
128 0 0
130 0 0
131 0 0
133 0 0
119 0 0
126 0 0
126 0 0
122 0 0
114 0 0
124 0 0
115 0 0
110 0 0
115 0 0
127 0 0
124 0 0
117 0 0
121 0 0
131 0 0
111 0 0
127 0 0
118 0 0
116 0 0
120 0 0
110 0 0
130 0 0
117 0 0
133 0 0
124 0 0
128 0 0
112 0 0
116 0 0
128 0 0
107 0 0
126 0 0
117 0 0
112 0 0
129 0 0
128 0 0
126 0 0
123 0 0
117 0 0
113 0 0
124 0 0
115 0 0
127 0 0
107 0 0
118 0 0
129 0 0
124 0 0
130 0 0
125 0 0
125 0 0
117 0 0
119 0 0
124 0 0
123 0 0
118 0 0
115 0 0
124 0 0
124 0 0
117 0 0
125 0 0
105 0 0
119 0 0
122 0 0
113 0 0
118 0 0
131 0 0
125 0 0
124 0 0
121 0 0
129 0 0
121 0 0
126 0 0
116 0 0
124 0 0
124 0 0
127 0 0
128 0 0
122 0 0
126 0 0
118 0 0
119 0 0
119 0 0
118 0 0
129 0 0
116 0 0
98 78 116
97 103 153
107 113 158
102 108 149
114 121 163
116 123 159
120 127 164
143 151 181
145 153 184
163 172 201
166 176 205
169 179 203
160 169 194
170 180 207
175 185 210
186 197 219
202 214 236
200 212 235
213 226 245
216 228 248
217 230 249
221 234 253
224 237 255
224 237 255
223 237 255
224 237 255
224 237 255
223 237 255
223 237 255
223 237 255
223 237 255
223 237 255
223 237 255
223 237 255
223 237 255
223 237 255
223 237 255
223 237 255
223 237 255
223 237 255
223 237 255
223 237 255
223 237 255
223 237 255
223 237 255
223 237 255
223 237 255
223 237 255
223 237 255
223 237 255
223 237 255
223 237 255
223 237 255
223 237 255
223 237 255
223 237 255
223 237 255
223 237 255
223 237 255
223 237 255
223 237 255
223 237 255
223 237 255
223 237 255
223 237 255
223 237 255
223 237 255
223 237 255
223 237 255
223 237 255
223 237 255
223 237 255
223 237 255
223 237 255
223 237 255
223 237 255
223 237 255
223 237 255
223 237 255
223 237 255
223 237 255
223 237 255
223 237 255
223 237 255
223 237 255
223 237 255
223 237 255
223 237 255
223 237 255
223 237 255
223 236 255
223 236 255
223 236 255
223 236 255
223 236 255
223 236 255
223 236 255
223 236 255
223 236 255
223 236 255
223 236 255
223 236 255
223 236 255
223 236 255
223 236 255
223 236 255
223 236 255
223 236 255
223 236 255
223 236 255
223 236 255
223 236 255
223 236 255
223 236 255
223 236 255
223 236 255
223 236 255
223 236 255
223 236 255
223 236 255
223 236 255
223 236 255
223 236 255
223 236 255
223 236 255
223 236 255
223 236 255
223 236 255
223 236 255
223 236 255
223 236 255
223 236 255
223 236 255
223 236 255
223 236 255
223 236 255
223 236 255
223 236 255
223 236 255
223 236 255
223 236 255
223 236 255
223 236 255
223 236 255
223 236 255
223 236 255
223 236 255
223 236 255
223 236 255
223 236 255
223 236 255
223 236 255
223 236 255
223 236 255
223 236 255
223 236 255
223 237 255
223 237 255
223 237 255
223 237 255
223 237 255
223 237 255
223 237 255
223 237 255
223 237 255
223 237 255
223 237 255
223 237 255
223 237 255
223 237 255
223 237 255
223 237 255
223 237 255
223 237 255
223 237 255
223 237 255
223 237 255
223 237 255
223 237 255
223 237 255
223 237 255
223 237 255
223 237 255
223 237 255
223 237 255
223 237 255
223 237 255
223 237 255
223 237 255
223 237 255
223 237 255
223 237 255
223 237 255
223 237 255
223 237 255
223 237 255
223 237 255
223 237 255
223 237 255
223 237 255
223 237 255
223 237 255
223 237 255
223 237 255
223 237 255
223 237 255
223 237 255
223 237 255
223 237 255
223 237 255
223 237 255
223 237 255
223 237 255
223 237 255
223 237 255
223 237 255
223 237 255
223 237 255
223 237 255
223 237 255
223 237 255
223 237 255
223 237 255
224 237 255
224 237 255
224 237 255
224 237 255
224 237 255
219 232 251
211 223 243
207 220 239
199 210 233
188 200 223
194 205 229
186 197 219
179 189 214
169 179 207
169 179 205
170 180 206
150 159 190
145 153 184
134 142 176
132 140 176
114 121 160
102 108 158
95 100 146
74 78 129
63 67 125
50 53 121
22 23 111
0 0 113
0 0 109
0 0 104
0 0 111
0 0 105
0 0 110
0 0 109
0 0 116
0 0 113
0 0 113
0 0 110
0 0 108
0 0 116
0 0 114
0 0 110
0 0 118
0 0 118
0 0 113
0 0 113
0 0 118
0 0 109
57 0 102
129 0 0
125 0 0
121 0 0
125 0 0
114 0 0
123 0 0
114 0 0
119 0 0
127 0 0
114 0 0
111 0 0
120 0 0
115 0 0
133 0 0
121 0 0
116 0 0
111 0 0
129 0 0
134 0 0
123 0 0
126 0 0
113 0 0
127 0 0
130 0 0
126 0 0
117 0 0
115 0 0
115 0 0
118 0 0
127 0 0
116 0 0
119 0 0
121 0 0
119 0 0
125 0 0
117 0 0
124 0 0
133 0 0
120 0 0
128 0 0
120 0 0
125 0 0
120 0 0
120 0 0
126 0 0
121 0 0
119 0 0
125 0 0
134 0 0
112 0 0
125 0 0
119 0 0
134 0 0
132 0 0
115 0 0
126 0 0
127 0 0
119 0 0
121 0 0
131 0 0
119 0 0
119 0 0
112 0 0
125 0 0
118 0 0
131 0 0
124 0 0
122 0 0
121 0 0
120 0 0
112 0 0
130 0 0
113 0 0
122 0 0
126 0 0
113 0 0
115 0 0
123 0 0
123 0 0
115 0 0
130 0 0
110 0 0
110 0 0
126 0 0
134 0 0
116 0 0
120 0 0
123 0 0
123 0 0
123 0 0
124 0 0
122 0 0
122 0 0
131 0 0
114 0 0
120 0 0
121 0 0
119 0 0
120 0 0
129 0 0
129 0 0
124 0 0
109 0 0
132 0 0
113 0 0
114 0 0
117 0 0
125 0 0
125 0 0
115 0 0
114 0 0
127 0 0
124 0 0
127 0 0
120 0 0
119 0 0
127 0 0
115 0 0
120 0 0
107 0 0
116 0 0
124 0 0
118 0 0
127 0 0
132 0 0
130 0 0
125 0 0
120 0 0
38 0 111
0 0 112
0 0 113
0 0 117
0 0 113
0 0 109
0 0 113
0 0 118
0 0 116
0 0 118
0 0 113
0 0 113
0 0 117
0 0 118
0 0 116
0 0 114
0 0 114
0 0 113
0 0 111
0 0 114
0 0 104
0 0 101
22 23 110
63 67 129
74 78 134
86 91 138
67 71 125
114 121 162
118 125 160
130 138 175
141 150 182
155 164 193
143 151 179
146 155 182
155 164 193
170 180 206
177 188 213
190 201 225
187 198 221
194 205 226
213 226 245
211 223 243
213 226 247
224 237 255
224 237 255
224 237 255
224 237 255
224 237 255
224 237 255
223 237 255
223 237 255
223 237 255
223 237 255
223 237 255
223 237 255
223 237 255
223 237 255
223 237 255
223 237 255
223 237 255
223 237 255
223 237 255
223 237 255
223 237 255
223 237 255
223 237 255
223 237 255
223 237 255
223 237 255
223 237 255
223 237 255
223 237 255
223 237 255
223 237 255
223 237 255
223 237 255
223 237 255
223 237 255
223 237 255
223 237 255
223 237 255
223 237 255
223 237 255
223 237 255
223 237 255
223 237 255
223 237 255
223 237 255
223 237 255
223 237 255
223 237 255
223 237 255
223 237 255
223 237 255
223 237 255
223 237 255
223 237 255
223 237 255
223 237 255
223 237 255
223 237 255
223 237 255
223 237 255
223 237 255
223 237 255
223 237 255
223 237 255
223 237 255
223 237 255
223 237 255
223 237 255
223 237 255
223 237 255
223 237 255
223 237 255
223 236 255
223 236 255
223 236 255
223 236 255
223 236 255
223 236 255
223 236 255
223 236 255
223 236 255
223 236 255
223 236 255
223 236 255
223 236 255
223 236 255
223 236 255
223 236 255
223 236 255
223 236 255
223 236 255
223 236 255
223 236 255
223 237 255
223 237 255
223 237 255
223 237 255
223 237 255
223 237 255
223 237 255
223 237 255
223 237 255
223 237 255
223 237 255
223 237 255
223 237 255
223 237 255
223 237 255
223 237 255
223 237 255
223 237 255
223 237 255
223 237 255
223 237 255
223 237 255
223 237 255
223 237 255
223 237 255
223 237 255
223 237 255
223 237 255
223 237 255
223 237 255
223 237 255
223 237 255
223 237 255
223 237 255
223 237 255
223 237 255
223 237 255
223 237 255
223 237 255
223 237 255
223 237 255
223 237 255
223 237 255
223 237 255
223 237 255
223 237 255
223 237 255
223 237 255
223 237 255
223 237 255
223 237 255
223 237 255
223 237 255
223 237 255
223 237 255
223 237 255
223 237 255
223 237 255
223 237 255
223 237 255
223 237 255
223 237 255
223 237 255
223 237 255
223 237 255
224 237 255
224 237 255
224 237 255
224 237 255
224 237 255
224 237 255
224 237 255
224 237 255
219 232 251
207 220 241
206 218 239
202 214 235
191 202 227
184 195 218
177 188 214
172 182 207
172 182 211
156 166 194
143 152 181
146 155 189
136 144 175
130 138 173
102 108 152
86 91 133
95 100 147
63 67 129
22 23 112
0 0 106
0 0 114
0 0 103
0 0 116
0 0 111
0 0 106
0 0 105
0 0 107
0 0 108
0 0 108
0 0 113
0 0 118
0 0 111
0 0 115
0 0 116
0 0 117
0 0 118
0 0 115
0 0 114
0 0 115
0 0 113
0 0 116
0 0 114
0 0 116
0 0 112
0 0 118
0 0 123
0 0 119
0 0 113
0 0 123
0 0 130
0 0 119
0 0 121
0 0 118
0 0 122
0 0 120
0 0 122
0 0 121
0 0 120
0 0 119
0 0 123
0 0 123
0 0 121
25 0 116
110 0 24
121 0 0
121 0 0
130 0 0
119 0 0
120 0 0
113 0 0
115 0 0
124 0 0
114 0 0
127 0 0
125 0 0
116 0 0
118 0 0
117 0 0
114 0 0
118 0 0
116 0 0
126 0 0
129 0 0
116 0 0
117 0 0
112 0 0
121 0 0
121 0 0
121 0 0
130 0 0
123 0 0
116 0 0
122 0 0
127 0 0
123 0 0
117 0 0
132 0 0
121 0 0
125 0 0
121 0 0
116 0 0
122 0 0
118 0 0
125 0 0
122 0 0
127 0 0
122 0 0
115 0 0
119 0 0
122 0 0
116 0 0
121 0 0
127 0 0
110 0 0
117 0 0
116 0 0
126 0 0
109 0 0
117 0 0
118 0 0
128 0 0
115 0 0
118 0 0
122 0 0
127 0 0
127 0 0
131 0 0
125 0 0
111 0 0
118 0 0
117 0 0
115 0 0
112 0 0
121 0 0
135 0 0
111 0 0
129 0 0
124 0 0
122 0 0
115 0 0
126 0 0
105 0 0
114 0 0
114 0 0
125 0 0
115 0 0
119 0 0
128 0 0
115 0 0
116 0 0
117 0 0
116 0 0
129 0 0
116 0 0
126 0 0
120 0 0
119 0 0
120 0 0
123 0 0
126 0 0
118 0 0
110 0 0
117 0 0
133 0 0
117 0 0
128 0 0
121 0 0
130 0 0
124 0 0
132 0 0
121 0 0
121 0 0
127 0 0
123 0 0
126 0 0
125 0 0
120 0 0
125 0 0
123 0 0
126 0 0
125 0 0
117 0 0
125 0 0
126 0 0
122 0 0
121 0 0
120 0 0
114 0 0
111 0 0
118 0 0
123 0 14
0 0 119
0 0 125
0 0 120
0 0 121
0 0 122
0 0 126
0 0 115
0 0 126
0 0 120
0 0 121
0 0 114
0 0 123
0 0 120
0 0 119
0 0 118
0 0 123
0 0 117
0 0 117
0 0 116
0 0 122
0 0 122
0 0 121
0 0 116
0 0 113
0 0 113
0 0 119
0 0 125
0 0 111
0 0 108
0 0 118
0 0 110
0 0 110
0 0 116
0 0 109
0 0 117
0 0 111
0 0 112
0 0 113
0 0 111
0 0 113
0 0 113
0 0 112
0 0 118
0 0 113
63 67 124
54 58 116
67 71 130
97 103 147
86 91 141
118 125 164
122 130 171
126 134 172
145 153 184
161 171 197
166 176 201
182 192 217
187 198 222
184 195 220
199 210 231
206 218 240
210 222 243
219 232 252
221 234 253
224 237 255
224 237 255
224 237 255
224 237 255
224 237 255
224 237 255
224 237 255
224 237 255
223 237 255
223 237 255
223 237 255
223 237 255
223 237 255
223 237 255
223 237 255
223 237 255
223 237 255
223 237 255
223 237 255
223 237 255
223 237 255
223 237 255
223 237 255
223 237 255
223 237 255
223 237 255
223 237 255
223 237 255
223 237 255
223 237 255
223 237 255
223 237 255
223 237 255
223 237 255
223 237 255
223 237 255
223 237 255
223 237 255
223 237 255
223 237 255
223 237 255
223 237 255
223 237 255
223 237 255
223 237 255
223 237 255
223 237 255
223 237 255
223 237 255
223 237 255
223 237 255
223 237 255
223 237 255
223 237 255
223 237 255
223 237 255
223 237 255
223 237 255
223 237 255
223 237 255
223 237 255
223 237 255
223 237 255
223 237 255
223 237 255
223 237 255
223 237 255
223 237 255
223 237 255
223 237 255
223 237 255
223 237 255
223 237 255
223 237 255
223 237 255
223 237 255
223 237 255
223 237 255
223 237 255
223 237 255
223 237 255
223 237 255
223 237 255
223 237 255
223 237 255
223 237 255
223 237 255
223 237 255
223 237 255
223 237 255
223 237 255
223 237 255
223 237 255
223 237 255
223 237 255
223 237 255
223 237 255
223 237 255
223 237 255
223 237 255
223 237 255
223 237 255
223 237 255
223 237 255
223 237 255
223 237 255
223 237 255
223 237 255
223 237 255
223 237 255
223 237 255
223 237 255
223 237 255
223 237 255
223 237 255
223 237 255
223 237 255
223 237 255
224 237 255
224 237 255
224 237 255
224 237 255
224 237 255
224 237 255
224 237 255
224 237 255
224 237 255
221 234 253
219 232 251
211 223 242
206 218 238
194 205 226
195 206 229
170 180 205
170 180 207
175 185 209
158 167 197
145 153 187
130 138 170
132 140 176
130 138 173
114 121 160
89 94 145
89 94 143
59 62 124
22 23 112
0 0 108
0 0 109
0 0 118
0 0 115
0 0 112
0 0 104
0 0 109
0 0 108
0 0 110
0 0 113
0 0 118
0 0 110
0 0 119
0 0 112
0 0 117
0 0 115
0 0 116
0 0 116
0 0 117
0 0 118
0 0 118
0 0 117
0 0 122
0 0 115
0 0 116
0 0 116
0 0 116
0 0 117
0 0 119
0 0 119
0 0 116
0 0 118
0 0 116
0 0 120
0 0 117
0 0 123
0 0 121
0 0 125
0 0 124
0 0 119
0 0 121
0 0 126
0 0 126
0 0 120
0 0 119
0 0 120
0 0 122
0 0 119
0 0 123
0 0 123
0 0 121
0 0 124
0 0 130
0 0 118
0 0 126
0 0 117
0 0 124
0 0 123
0 0 126
0 0 124
0 0 127
0 0 126
0 0 126
103 0 48
120 0 0
108 0 0
125 0 0
117 0 0
115 0 0
122 0 0
127 0 0
124 0 0
131 0 0
118 0 0
115 0 0
113 0 0
118 0 0
117 0 0
123 0 0
125 0 0
125 0 0
123 0 0
112 0 0
116 0 0
118 0 0
109 0 0
119 0 0
122 0 0
124 0 0
116 0 0
115 0 0
120 0 0
114 0 0
118 0 0
122 0 0
124 0 0
131 0 0
112 0 0
120 0 0
131 0 0
115 0 0
122 0 0
126 0 0
122 0 0
118 0 0
122 0 0
122 0 0
132 0 0
125 0 0
109 0 0
132 0 0
125 0 0
124 0 0
121 0 0
113 0 0
126 0 0
116 0 0
120 0 0
127 0 0
127 0 0
126 0 0
120 0 0
125 0 0
114 0 0
117 0 0
126 0 0
115 0 0
119 0 0
119 0 0
124 0 0
119 0 0
120 0 0
121 0 0
123 0 0
116 0 0
123 0 0
123 0 0
128 0 0
116 0 0
116 0 0
129 0 0
123 0 0
120 0 0
117 0 0
120 0 0
128 0 0
127 0 0
115 0 0
123 0 0
106 0 0
124 0 0
113 0 0
127 0 0
129 0 0
119 0 0
125 0 0
125 0 0
118 0 0
130 0 0
120 0 0
116 0 0
117 0 0
124 0 0
108 0 0
127 0 0
128 0 0
118 0 0
106 0 0
109 0 0
121 0 0
122 0 0
119 0 0
112 0 0
112 0 0
122 0 0
113 0 0
135 0 0
115 0 0
114 0 0
120 0 0
129 0 0
128 0 0
124 0 0
122 0 0
108 0 0
130 0 0
110 0 0
126 0 0
121 0 0
114 0 0
109 0 59
0 0 118
0 0 130
0 0 125
0 0 128
0 0 133
0 0 122
0 0 128
0 0 123
0 0 130
0 0 123
0 0 129
0 0 126
0 0 126
0 0 126
0 0 125
0 0 119
0 0 128
0 0 123
0 0 115
0 0 123
0 0 122
0 0 123
0 0 118
0 0 120
0 0 118
0 0 115
0 0 116
0 0 115
0 0 118
0 0 120
0 0 113
0 0 117
0 0 126
0 0 114
0 0 115
0 0 123
0 0 118
0 0 115
0 0 113
0 0 119
0 0 111
0 0 125
0 0 119
0 0 115
0 0 110
0 0 121
0 0 113
0 0 120
0 0 111
0 0 112
0 0 113
0 0 113
0 0 113
0 0 105
0 0 119
0 0 113
0 0 114
0 0 110
0 0 105
0 0 110
0 0 105
0 0 113
0 0 114
31 33 113
70 75 135
80 85 134
92 97 150
114 121 157
112 118 156
128 136 173
148 157 186
143 152 178
160 169 196
167 177 204
173 183 210
182 192 215
196 208 232
180 191 215
201 213 235
213 226 246
219 232 252
222 236 255
224 237 255
224 237 255
224 237 255
224 237 255
224 237 255
224 237 255
224 237 255
224 237 255
224 237 255
223 237 255
223 237 255
223 237 255
223 237 255
223 237 255
223 237 255
223 237 255
223 237 255
223 237 255
223 237 255
223 237 255
223 237 255
223 237 255
223 237 255
223 237 255
223 237 255
223 237 255
223 237 255
223 237 255
223 237 255
223 237 255
223 237 255
223 237 255
223 237 255
223 237 255
223 237 255
223 237 255
223 237 255
223 237 255
223 237 255
223 237 255
223 237 255
223 237 255
223 237 255
223 237 255
223 237 255
223 237 255
223 237 255
223 237 255
223 237 255
223 237 255
223 237 255
223 237 255
223 237 255
223 237 255
223 237 255
223 237 255
223 237 255
223 237 255
223 237 255
223 237 255
223 237 255
223 237 255
223 237 255
223 237 255
223 237 255
223 237 255
223 237 255
223 237 255
223 237 255
223 237 255
223 237 255
223 237 255
223 237 255
223 237 255
223 237 255
223 237 255
223 237 255
223 237 255
223 237 255
223 237 255
224 237 255
224 237 255
224 237 255
224 237 255
224 237 255
224 237 255
224 237 255
224 237 255
224 237 255
224 237 255
224 237 255
219 232 252
211 223 243
202 214 234
195 206 229
186 197 218
183 194 218
177 188 210
173 183 208
163 172 196
141 150 181
141 150 182
128 136 177
118 125 160
118 125 162
70 75 128
63 67 122
44 47 111
0 0 109
0 0 103
0 0 115
0 0 114
0 0 113
0 0 110
0 0 112
0 0 116
0 0 117
0 0 108
0 0 105
0 0 118
0 0 112
0 0 109
0 0 113
0 0 113
0 0 121
0 0 123
0 0 121
0 0 116
0 0 123
0 0 117
0 0 126
0 0 116
0 0 120
0 0 116
0 0 114
0 0 118
0 0 119
0 0 118
0 0 118
0 0 123
0 0 114
0 0 118
0 0 114
0 0 126
0 0 125
0 0 113
0 0 118
0 0 127
0 0 121
0 0 123
0 0 123
0 0 123
0 0 118
0 0 121
0 0 120
0 0 125
0 0 123
0 0 126
0 0 124
0 0 123
0 0 129
0 0 128
0 0 126
0 0 128
0 0 126
0 0 123
0 0 126
0 0 118
0 0 126
0 0 128
0 0 126
0 0 129
0 0 129
0 0 120
0 0 125
0 0 127
0 0 129
0 0 133
0 0 132
0 0 126
0 0 131
0 0 133
0 0 130
0 0 127
0 0 135
0 0 127
0 0 129
0 0 132
0 0 133
0 0 133
76 0 86
122 0 0
111 0 0
124 0 0
132 0 0
122 0 0
125 0 0
118 0 0
114 0 0
112 0 0
116 0 0
121 0 0
119 0 0
127 0 0
121 0 0
114 0 0
113 0 0
113 0 0
116 0 0
121 0 0
118 0 0
120 0 0
120 0 0
114 0 0
119 0 0
130 0 0
118 0 0
118 0 0
122 0 0
129 0 0
127 0 0
120 0 0
106 0 0
119 0 0
131 0 0
121 0 0
123 0 0
126 0 0
120 0 0
123 0 0
116 0 0
115 0 0
117 0 0
123 0 0
123 0 0
117 0 0
131 0 0
129 0 0
117 0 0
123 0 0
131 0 0
126 0 0
111 0 0
120 0 0
125 0 0
114 0 0
135 0 0
133 0 0
133 0 0
112 0 0
108 0 0
126 0 0
119 0 0
125 0 0
130 0 0
120 0 0
122 0 0
125 0 0
116 0 0
122 0 0
121 0 0
113 0 0
121 0 0
121 0 0
118 0 0
114 0 0
120 0 0
127 0 0
123 0 0
115 0 0
125 0 0
120 0 0
124 0 0
120 0 0
113 0 0
130 0 0
118 0 0
115 0 0
127 0 0
117 0 0
124 0 0
119 0 0
122 0 0
118 0 0
123 0 0
124 0 0
126 0 0
115 0 0
122 0 0
116 0 0
116 0 0
121 0 0
114 0 0
121 0 0
130 0 0
127 0 0
120 0 0
125 0 0
112 0 0
121 0 0
128 0 0
115 0 0
125 0 0
107 0 0
126 0 0
110 0 0
113 0 0
112 0 0
126 0 0
113 0 0
124 0 0
124 0 0
105 0 0
114 0 0
124 0 0
122 0 0
115 0 0
93 0 85
0 0 130
0 0 127
0 0 130
0 0 133
0 0 131
0 0 126
0 0 130
0 0 129
0 0 132
0 0 131
0 0 129
0 0 126
0 0 129
0 0 127
0 0 127
0 0 127
0 0 130
0 0 129
0 0 126
0 0 124
0 0 123
0 0 126
0 0 125
0 0 122
0 0 126
0 0 128
0 0 122
0 0 128
0 0 125
0 0 130
0 0 127
0 0 126
0 0 123
0 0 123
0 0 126
0 0 123
0 0 116
0 0 123
0 0 122
0 0 123
0 0 120
0 0 123
0 0 126
0 0 125
0 0 124
0 0 126
0 0 123
0 0 118
0 0 116
0 0 121
0 0 121
0 0 125
0 0 124
0 0 113
0 0 117
0 0 121
0 0 121
0 0 119
0 0 119
0 0 119
0 0 112
0 0 123
0 0 113
0 0 113
0 0 113
0 0 120
0 0 113
0 0 117
0 0 113
0 0 108
0 0 99
0 0 122
0 0 118
0 0 102
0 0 107
0 0 106
0 0 118
0 0 114
0 0 113
0 0 107
0 0 100
0 0 104
50 53 124
59 62 120
92 97 146
112 118 158
112 118 158
143 152 181
145 153 184
156 166 196
158 167 195
172 182 210
183 194 217
187 198 221
184 195 217
202 214 236
209 221 242
212 225 244
219 232 252
224 237 255
224 237 255
224 237 255
224 237 255
224 237 255
224 237 255
224 237 255
224 237 255
224 237 255
224 237 255
224 237 255
223 237 255
223 237 255
223 237 255
223 237 255
223 237 255
223 237 255
223 237 255
223 237 255
223 237 255
223 237 255
223 237 255
223 237 255
223 237 255
223 237 255
223 237 255
223 237 255
223 237 255
223 237 255
223 237 255
223 237 255
223 237 255
223 237 255
223 237 255
223 237 255
223 237 255
223 237 255
223 237 255
223 237 255
223 237 255
223 237 255
223 237 255
223 237 255
224 237 255
224 237 255
224 237 255
224 237 255
224 237 255
224 237 255
224 237 255
224 237 255
224 237 255
224 237 255
224 237 255
224 237 255
224 237 255
224 237 255
217 230 248
214 227 247
206 218 238
195 206 227
192 204 224
187 198 222
170 180 207
170 180 209
169 179 203
145 153 188
143 152 183
134 142 174
136 144 179
89 94 145
86 91 143
70 75 134
38 41 113
0 0 104
0 0 109
0 0 113
0 0 107
0 0 105
0 0 102
0 0 103
0 0 106
0 0 103
0 0 114
0 0 113
0 0 119
0 0 115
0 0 118
0 0 116
0 0 114
0 0 112
0 0 112
0 0 114
0 0 119
0 0 116
0 0 114
0 0 107
0 0 116
0 0 118
0 0 120
0 0 118
0 0 119
0 0 112
0 0 122
0 0 123
0 0 120
0 0 120
0 0 117
0 0 119
0 0 121
0 0 119
0 0 119
0 0 126
0 0 118
0 0 118
0 0 118
0 0 117
0 0 124
0 0 124
0 0 125
0 0 127
0 0 124
0 0 124
0 0 122
0 0 123
0 0 122
0 0 126
0 0 127
0 0 125
0 0 122
0 0 123
0 0 124
0 0 123
0 0 126
0 0 125
0 0 126
0 0 130
0 0 131
0 0 126
0 0 126
0 0 128
0 0 130
0 0 123
0 0 130
0 0 133
0 0 130
0 0 127
0 0 129
0 0 132
0 0 129
0 0 130
0 0 130
0 0 133
0 0 130
0 0 133
0 0 133
0 0 133
0 0 133
0 0 132
0 0 133
0 0 134
0 0 132
0 0 134
0 0 135
0 0 130
0 0 132
0 0 135
0 0 133
0 0 133
0 0 136
0 0 137
0 0 135
0 0 133
62 0 105
116 0 0
115 0 0
120 0 0
110 0 0
114 0 0
109 0 0
122 0 0
127 0 0
121 0 0
120 0 0
115 0 0
108 0 0
126 0 0
123 0 0
121 0 0
122 0 0
127 0 0
132 0 0
107 0 0
121 0 0
120 0 0
133 0 0
123 0 0
110 0 0
131 0 0
114 0 0
122 0 0
120 0 0
117 0 0
120 0 0
125 0 0
122 0 0
114 0 0
127 0 0
119 0 0
122 0 0
116 0 0
122 0 0
112 0 0
114 0 0
122 0 0
124 0 0
122 0 0
125 0 0
116 0 0
111 0 0
111 0 0
128 0 0
133 0 0
125 0 0
123 0 0
121 0 0
128 0 0
122 0 0
114 0 0
121 0 0
117 0 0
110 0 0
126 0 0
117 0 0
121 0 0
123 0 0
118 0 0
109 0 0
126 0 0
119 0 0
121 0 0
128 0 0
122 0 0
116 0 0
115 0 0
121 0 0
121 0 0
109 0 0
118 0 0
133 0 0
131 0 0
124 0 0
118 0 0
116 0 0
126 0 0
118 0 0
112 0 0
126 0 0
131 0 0
114 0 0
123 0 0
116 0 0
119 0 0
115 0 0
122 0 0
118 0 0
115 0 0
111 0 0
116 0 0
121 0 0
108 0 0
118 0 0
128 0 0
127 0 0
126 0 0
122 0 0
114 0 0
102 0 0
119 0 0
118 0 0
122 0 0
124 0 0
119 0 0
110 0 0
127 0 0
129 0 0
115 0 0
121 0 0
109 0 0
124 0 0
106 0 0
119 0 0
112 0 0
123 0 0
122 0 0
125 0 0
105 0 0
114 0 0
123 0 0
126 0 0
80 0 99
0 0 133
0 0 133
0 0 133
0 0 135
0 0 133
0 0 135
0 0 138
0 0 135
0 0 135
0 0 133
0 0 129
0 0 133
0 0 133
0 0 133
0 0 131
0 0 131
0 0 134
0 0 132
0 0 135
0 0 130
0 0 131
0 0 128
0 0 127
0 0 131
0 0 133
0 0 124
0 0 127
0 0 126
0 0 130
0 0 131
0 0 126
0 0 126
0 0 127
0 0 124
0 0 127
0 0 125
0 0 122
0 0 127
0 0 116
0 0 127
0 0 123
0 0 129
0 0 128
0 0 130
0 0 125
0 0 122
0 0 127
0 0 124
0 0 124
0 0 123
0 0 125
0 0 130
0 0 120
0 0 120
0 0 120
0 0 121
0 0 127
0 0 124
0 0 124
0 0 123
0 0 123
0 0 129
0 0 120
0 0 121
0 0 122
0 0 122
0 0 119
0 0 120
0 0 118
0 0 108
0 0 115
0 0 118
0 0 113
0 0 117
0 0 118
0 0 108
0 0 115
0 0 121
0 0 109
0 0 118
0 0 118
0 0 121
0 0 113
0 0 115
0 0 107
0 0 118
0 0 116
0 0 110
0 0 108
0 0 116
0 0 109
0 0 103
0 0 104
0 0 109
0 0 112
0 0 116
0 0 102
0 0 106
0 0 103
38 41 102
44 47 119
105 111 158
100 106 152
118 125 164
112 118 156
143 152 187
143 152 182
155 164 194
163 172 201
179 189 215
190 201 224
183 194 217
204 216 236
207 220 241
214 227 247
221 235 253
224 237 255
224 237 255
224 237 255
224 237 255
224 237 255
224 237 255
224 237 255
224 237 255
224 237 255
224 237 255
224 237 255
224 237 255
224 237 255
223 237 255
223 237 255
223 237 255
223 237 255
223 237 255
223 237 255
223 237 255
224 237 255
224 237 255
224 237 255
224 237 255
220 233 252
214 227 247
204 216 238
199 211 232
187 198 220
182 192 216
184 195 217
160 169 199
148 157 186
143 152 183
132 140 173
120 127 163
100 106 150
95 100 151
44 47 120
54 58 115
0 0 112
0 0 105
0 0 101
0 0 107
0 0 105
0 0 103
0 0 100
0 0 110
0 0 114
0 0 121
0 0 110
0 0 114
0 0 111
0 0 113
0 0 107
0 0 113
0 0 118
0 0 109
0 0 113
0 0 115
0 0 115
0 0 118
0 0 112
0 0 118
0 0 121
0 0 113
0 0 111
0 0 117
0 0 121
0 0 117
0 0 123
0 0 117
0 0 119
0 0 108
0 0 121
0 0 126
0 0 119
0 0 122
0 0 123
0 0 123
0 0 123
0 0 126
0 0 125
0 0 120
0 0 124
0 0 120
0 0 118
0 0 127
0 0 122
0 0 125
0 0 126
0 0 127
0 0 126
0 0 124
0 0 124
0 0 118
0 0 126
0 0 122
0 0 125
0 0 125
0 0 123
0 0 122
0 0 126
0 0 132
0 0 127
0 0 123
0 0 125
0 0 129
0 0 120
0 0 131
0 0 130
0 0 126
0 0 126
0 0 130
0 0 124
0 0 122
0 0 127
0 0 133
0 0 131
0 0 133
0 0 130
0 0 129
0 0 130
0 0 135
0 0 128
0 0 129
0 0 132
0 0 133
0 0 133
0 0 135
0 0 133
0 0 135
0 0 135
0 0 131
0 0 129
0 0 131
0 0 132
0 0 137
0 0 138
0 0 134
0 0 133
0 0 134
0 0 137
0 0 133
0 0 136
0 0 138
0 0 136
0 0 133
0 0 138
0 0 138
0 0 140
0 0 138
0 0 140
0 0 138
0 0 139
0 0 139
58 0 120
107 0 0
123 0 0
117 0 0
116 0 0
105 0 0
129 0 0
120 0 0
117 0 0
117 0 0
126 0 0
119 0 0
122 0 0
131 0 0
123 0 0
109 0 0
103 0 0
120 0 0
115 0 0
109 0 0
126 0 0
116 0 0
114 0 0
133 0 0
111 0 0
118 0 0
122 0 0
120 0 0
122 0 0
126 0 0
117 0 0
122 0 0
113 0 0
123 0 0
118 0 0
129 0 0
120 0 0
118 0 0
119 0 0
128 0 0
130 0 0
121 0 0
122 0 0
129 0 0
126 0 0
128 0 0
115 0 0
109 0 0
119 0 0
119 0 0
134 0 0
111 0 0
115 0 0
128 0 0
127 0 0
132 0 0
120 0 0
117 0 0
121 0 0
117 0 0
119 0 0
120 0 0
121 0 0
121 0 0
126 0 0
110 0 0
130 0 0
116 0 0
121 0 0
118 0 0
122 0 0
125 0 0
126 0 0
124 0 0
126 0 0
113 0 0
119 0 0
117 0 0
124 0 0
118 0 0
127 0 0
120 0 0
112 0 0
126 0 0
124 0 0
112 0 0
126 0 0
123 0 0
117 0 0
126 0 0
121 0 0
116 0 0
118 0 0
118 0 0
108 0 0
114 0 0
127 0 0
109 0 0
108 0 0
134 0 0
125 0 0
136 0 0
111 0 0
133 0 0
122 0 0
117 0 0
126 0 0
111 0 0
134 0 0
127 0 0
114 0 0
118 0 0
112 0 0
126 0 0
110 0 0
111 0 0
118 0 0
111 0 0
116 0 0
116 0 0
106 0 0
112 0 0
118 0 0
126 0 0
119 0 0
127 0 0
121 0 0
50 0 126
0 0 137
0 0 136
0 0 138
0 0 138
0 0 139
0 0 137
0 0 135
0 0 137
0 0 135
0 0 137
0 0 136
0 0 135
0 0 134
0 0 135
0 0 138
0 0 134
0 0 138
0 0 135
0 0 134
0 0 135
0 0 132
0 0 135
0 0 134
0 0 133
0 0 134
0 0 133
0 0 135
0 0 129
0 0 137
0 0 133
0 0 131
0 0 133
0 0 126
0 0 133
0 0 133
0 0 132
0 0 134
0 0 133
0 0 130
0 0 133
0 0 125
0 0 124
0 0 127
0 0 134
0 0 132
0 0 132
0 0 130
0 0 132
0 0 128
0 0 126
0 0 123
0 0 126
0 0 126
0 0 126
0 0 133
0 0 123
0 0 118
0 0 127
0 0 124
0 0 125
0 0 125
0 0 125
0 0 125
0 0 127
0 0 123
0 0 126
0 0 119
0 0 122
0 0 118
0 0 123
0 0 118
0 0 120
0 0 119
0 0 119
0 0 125
0 0 118
0 0 120
0 0 118
0 0 115
0 0 121
0 0 119
0 0 121
0 0 118
0 0 110
0 0 114
0 0 111
0 0 111
0 0 123
0 0 116
0 0 117
0 0 118
0 0 118
0 0 113
0 0 119
0 0 113
0 0 118
0 0 117
0 0 115
0 0 119
0 0 115
0 0 115
0 0 110
0 0 113
0 0 107
0 0 118
0 0 111
0 0 103
0 0 109
0 0 114
0 0 113
0 0 113
0 0 106
0 0 115
0 0 114
0 0 107
0 0 108
50 53 118
67 71 126
83 88 141
83 88 142
126 134 171
116 123 157
141 150 182
152 161 185
156 166 193
167 177 202
194 205 227
201 213 235
194 205 229
211 223 244
214 227 248
218 231 251
224 237 255
224 237 255
224 237 255
224 237 255
116 123 162
80 85 134
59 62 118
31 33 111
0 0 106
0 0 102
0 0 110
0 0 112
0 0 102
0 0 113
0 0 109
0 0 117
0 0 112
0 0 112
0 0 113
0 0 111
0 0 101
0 0 115
0 0 115
0 0 113
0 0 115
0 0 118
0 0 119
0 0 112
0 0 118
0 0 118
0 0 114
0 0 111
0 0 107
0 0 123
0 0 118
0 0 119
0 0 118
0 0 112
0 0 110
0 0 124
0 0 120
0 0 123
0 0 114
0 0 113
0 0 123
0 0 113
0 0 117
0 0 124
0 0 120
0 0 123
0 0 111
0 0 118
0 0 120
0 0 126
0 0 126
0 0 121
0 0 127
0 0 118
0 0 124
0 0 128
0 0 127
0 0 122
0 0 130
0 0 120
0 0 124
0 0 126
0 0 125
0 0 127
0 0 130
0 0 122
0 0 125
0 0 126
0 0 129
0 0 124
0 0 129
0 0 126
0 0 127
0 0 128
0 0 126
0 0 133
0 0 130
0 0 126
0 0 128
0 0 128
0 0 130
0 0 126
0 0 131
0 0 130
0 0 129
0 0 129
0 0 133
0 0 130
0 0 130
0 0 133
0 0 136
0 0 132
0 0 135
0 0 133
0 0 132
0 0 135
0 0 132
0 0 133
0 0 128
0 0 132
0 0 135
0 0 134
0 0 134
0 0 135
0 0 134
0 0 135
0 0 138
0 0 133
0 0 135
0 0 135
0 0 133
0 0 138
0 0 136
0 0 137
0 0 136
0 0 138
0 0 135
0 0 138
0 0 138
0 0 138
0 0 136
0 0 139
0 0 138
0 0 138
0 0 138
0 0 139
0 0 139
0 0 139
0 0 140
0 0 139
0 0 140
0 0 140
0 0 140
0 0 140
0 0 140
0 0 140
25 0 138
104 0 44
124 0 0
117 0 0
117 0 0
112 0 0
125 0 0
116 0 0
123 0 0
130 0 0
121 0 0
115 0 0
120 0 0
125 0 0
108 0 0
114 0 0
135 0 0
103 0 0
113 0 0
119 0 0
120 0 0
118 0 0
117 0 0
120 0 0
116 0 0
120 0 0
117 0 0
123 0 0
123 0 0
117 0 0
119 0 0
113 0 0
114 0 0
137 0 0
115 0 0
118 0 0
117 0 0
115 0 0
124 0 0
113 0 0
124 0 0
121 0 0
130 0 0
121 0 0
122 0 0
132 0 0
110 0 0
100 0 0
124 0 0
118 0 0
128 0 0
110 0 0
126 0 0
130 0 0
121 0 0
116 0 0
116 0 0
112 0 0
120 0 0
106 0 0
125 0 0
121 0 0
116 0 0
119 0 0
120 0 0
115 0 0
126 0 0
117 0 0
117 0 0
115 0 0
107 0 0
121 0 0
128 0 0
112 0 0
114 0 0
107 0 0
105 0 0
128 0 0
113 0 0
122 0 0
121 0 0
111 0 0
118 0 0
116 0 0
102 0 0
127 0 0
119 0 0
114 0 0
118 0 0
124 0 0
114 0 0
117 0 0
115 0 0
103 0 0
115 0 0
117 0 0
102 0 0
117 0 0
120 0 0
119 0 0
127 0 0
120 0 0
121 0 0
121 0 0
108 0 0
110 0 0
124 0 0
126 0 0
124 0 0
126 0 0
121 0 0
114 0 0
127 0 0
132 0 0
117 0 0
127 0 0
125 0 0
112 0 0
117 0 0
113 0 0
113 0 0
116 0 0
106 0 0
116 0 0
112 0 0
117 0 0
101 0 44
17 0 139
0 0 140
0 0 140
0 0 140
0 0 140
0 0 140
0 0 140
0 0 140
0 0 140
0 0 139
0 0 140
0 0 139
0 0 140
0 0 139
0 0 139
0 0 138
0 0 138
0 0 136
0 0 138
0 0 139
0 0 138
0 0 137
0 0 136
0 0 136
0 0 140
0 0 138
0 0 138
0 0 136
0 0 134
0 0 135
0 0 137
0 0 130
0 0 135
0 0 136
0 0 133
0 0 135
0 0 132
0 0 138
0 0 130
0 0 130
0 0 132
0 0 135
0 0 130
0 0 135
0 0 136
0 0 131
0 0 131
0 0 133
0 0 132
0 0 130
0 0 133
0 0 131
0 0 128
0 0 131
0 0 131
0 0 128
0 0 127
0 0 128
0 0 129
0 0 123
0 0 130
0 0 133
0 0 128
0 0 127
0 0 130
0 0 126
0 0 123
0 0 130
0 0 130
0 0 126
0 0 125
0 0 123
0 0 120
0 0 128
0 0 126
0 0 127
0 0 120
0 0 129
0 0 122
0 0 125
0 0 126
0 0 123
0 0 124
0 0 119
0 0 123
0 0 129
0 0 122
0 0 116
0 0 121
0 0 122
0 0 124
0 0 124
0 0 109
0 0 123
0 0 118
0 0 122
0 0 118
0 0 117
0 0 117
0 0 122
0 0 117
0 0 115
0 0 120
0 0 118
0 0 112
0 0 118
0 0 115
0 0 117
0 0 118
0 0 114
0 0 115
0 0 115
0 0 113
0 0 113
0 0 114
0 0 118
0 0 114
0 0 122
0 0 121
0 0 112
0 0 117
0 0 111
0 0 103
0 0 110
0 0 110
0 0 117
0 0 107
0 0 114
0 0 114
0 0 99
0 0 110
0 0 112
0 0 106
31 33 105
50 53 108
86 91 140
105 111 156
0 0 113
0 0 113
0 0 104
0 0 113
0 0 112
0 0 109
0 0 109
0 0 117
0 0 105
0 0 118
0 0 118
0 0 114
0 0 115
0 0 117
0 0 123
0 0 123
0 0 107
0 0 122
0 0 115
0 0 114
0 0 119
0 0 118
0 0 119
0 0 116
0 0 116
0 0 124
0 0 126
0 0 114
0 0 111
0 0 116
0 0 124
0 0 123
0 0 121
0 0 121
0 0 123
0 0 126
0 0 125
0 0 127
0 0 120
0 0 123
0 0 125
0 0 126
0 0 128
0 0 125
0 0 126
0 0 119
0 0 123
0 0 123
0 0 118
0 0 121
0 0 131
0 0 126
0 0 128
0 0 126
0 0 124
0 0 130
0 0 127
0 0 130
0 0 126
0 0 128
0 0 133
0 0 132
0 0 130
0 0 131
0 0 133
0 0 128
0 0 132
0 0 129
0 0 133
0 0 127
0 0 133
0 0 130
0 0 127
0 0 130
0 0 132
0 0 132
0 0 135
0 0 134
0 0 130
0 0 134
0 0 131
0 0 133
0 0 135
0 0 133
0 0 132
0 0 132
0 0 136
0 0 130
0 0 137
0 0 132
0 0 135
0 0 132
0 0 134
0 0 133
0 0 135
0 0 139
0 0 137
0 0 137
0 0 136
0 0 138
0 0 137
0 0 137
0 0 135
0 0 138
0 0 135
0 0 138
0 0 140
0 0 140
0 0 140
0 0 138
0 0 139
0 0 139
0 0 140
0 0 140
0 0 140
0 0 140
0 0 140
0 0 140
0 0 140
0 0 140
0 0 140
0 0 140
0 0 140
0 0 140
0 0 140
0 0 140
0 0 140
0 0 140
0 0 140
0 0 140
0 0 140
0 0 140
0 0 140
0 0 140
0 0 140
0 0 140
0 0 140
83 0 85
92 0 0
107 0 0
114 0 0
112 0 0
109 0 0
120 0 0
106 0 0
121 0 0
113 0 0
124 0 0
120 0 0
121 0 0
113 0 0
116 0 0
115 0 0
122 0 0
122 0 0
121 0 0
122 0 0
118 0 0
116 0 0
116 0 0
122 0 0
122 0 0
127 0 0
119 0 0
121 0 0
120 0 0
100 0 0
117 0 0
113 0 0
121 0 0
108 0 0
114 0 0
98 0 0
123 0 0
123 0 0
114 0 0
126 0 0
126 0 0
121 0 0
129 0 0
122 0 0
115 0 0
114 0 0
124 0 0
137 0 0
126 0 0
123 0 0
122 0 0
109 0 0
126 0 0
113 0 0
127 0 0
127 0 0
115 0 0
113 0 0
114 0 0
117 0 0
107 0 0
123 0 0
122 0 0
132 0 0
126 0 0
120 0 0
116 0 0
107 0 0
108 0 0
114 0 0
121 0 0
124 0 0
119 0 0
111 0 0
114 0 0
112 0 0
123 0 0
119 0 0
120 0 0
128 0 0
136 0 0
114 0 0
122 0 0
106 0 0
122 0 0
124 0 0
116 0 0
112 0 0
123 0 0
124 0 0
110 0 0
113 0 0
113 0 0
109 0 0
118 0 0
114 0 0
124 0 0
124 0 0
121 0 0
120 0 0
119 0 0
118 0 0
120 0 0
102 0 0
107 0 0
118 0 0
114 0 0
113 0 0
116 0 0
113 0 0
109 0 0
127 0 0
119 0 0
113 0 0
109 0 0
119 0 0
119 0 0
120 0 0
119 0 0
105 0 0
130 0 0
116 0 0
113 0 0
128 0 0
117 0 0
101 0 72
0 0 140
0 0 140
0 0 140
0 0 140
0 0 140
0 0 140
0 0 140
0 0 140
0 0 140
0 0 140
0 0 140
0 0 140
0 0 140
0 0 140
0 0 140
0 0 140
0 0 140
0 0 140
0 0 140
0 0 140
0 0 140
0 0 140
0 0 140
0 0 140
0 0 139
0 0 139
0 0 139
0 0 138
0 0 139
0 0 140
0 0 138
0 0 139
0 0 138
0 0 139
0 0 138
0 0 135
0 0 138
0 0 138
0 0 138
0 0 134
0 0 137
0 0 136
0 0 135
0 0 135
0 0 134
0 0 131
0 0 137
0 0 132
0 0 135
0 0 134
0 0 134
0 0 134
0 0 136
0 0 131
0 0 135
0 0 128
0 0 135
0 0 133
0 0 129
0 0 134
0 0 129
0 0 133
0 0 134
0 0 130
0 0 131
0 0 131
0 0 130
0 0 130
0 0 128
0 0 133
0 0 130
0 0 131
0 0 130
0 0 133
0 0 119
0 0 123
0 0 127
0 0 132
0 0 123
0 0 126
0 0 123
0 0 127
0 0 121
0 0 126
0 0 129
0 0 117
0 0 126
0 0 120
0 0 126
0 0 125
0 0 125
0 0 124
0 0 127
0 0 116
0 0 122
0 0 129
0 0 127
0 0 126
0 0 126
0 0 119
0 0 117
0 0 122
0 0 119
0 0 120
0 0 123
0 0 125
0 0 124
0 0 120
0 0 120
0 0 120
0 0 122
0 0 114
0 0 124
0 0 121
0 0 122
0 0 123
0 0 116
0 0 122
0 0 116
0 0 123
0 0 118
0 0 103
0 0 119
0 0 122
0 0 118
0 0 113
0 0 113
0 0 113
0 0 115
0 0 118
0 0 113
0 0 106
0 0 113
0 0 113
0 0 111
0 0 111
0 0 105
0 0 118
0 0 113
0 0 117
0 0 121
0 0 120
0 0 120
0 0 115
0 0 112
0 0 122
0 0 123
0 0 116
0 0 110
0 0 118
0 0 121
0 0 118
0 0 118
0 0 117
0 0 118
0 0 121
0 0 123
0 0 117
0 0 130
0 0 117
0 0 114
0 0 128
0 0 127
0 0 117
0 0 117
0 0 130
0 0 129
0 0 127
0 0 126
0 0 123
0 0 123
0 0 121
0 0 126
0 0 124
0 0 130
0 0 127
0 0 123
0 0 124
0 0 129
0 0 126
0 0 127
0 0 130
0 0 130
0 0 127
0 0 126
0 0 127
0 0 128
0 0 128
0 0 130
0 0 130
0 0 130
0 0 131
0 0 130
0 0 131
0 0 133
0 0 128
0 0 129
0 0 132
0 0 133
0 0 128
0 0 130
0 0 133
0 0 132
0 0 133
0 0 133
0 0 136
0 0 136
0 0 132
0 0 131
0 0 134
0 0 135
0 0 138
0 0 133
0 0 133
0 0 135
0 0 135
0 0 138
0 0 135
0 0 136
0 0 135
0 0 137
0 0 138
0 0 139
0 0 138
0 0 138
0 0 136
0 0 137
0 0 138
0 0 137
0 0 136
0 0 138
0 0 139
0 0 138
0 0 139
0 0 140
0 0 139
0 0 140
0 0 139
0 0 139
0 0 140
0 0 140
0 0 140
0 0 140
0 0 140
0 0 140
0 0 140
0 0 140
0 0 140
0 0 140
0 0 140
0 0 140
0 0 140
0 0 140
0 0 140
0 0 140
0 0 140
0 0 140
0 0 140
0 0 140
0 0 140
0 0 140
0 0 140
0 0 140
0 0 140
0 0 140
0 0 140
0 0 140
0 0 140
0 0 140
0 0 140
0 0 140
0 0 140
0 0 140
0 0 140
68 0 110
115 0 0
119 0 0
119 0 0
123 0 0
123 0 0
111 0 0
120 0 0
114 0 0
123 0 0
117 0 0
123 0 0
107 0 0
121 0 0
114 0 0
107 0 0
119 0 0
125 0 0
109 0 0
124 0 0
117 0 0
118 0 0
117 0 0
113 0 0
125 0 0
112 0 0
120 0 0
126 0 0
121 0 0
121 0 0
104 0 0
127 0 0
120 0 0
122 0 0
125 0 0
108 0 0
118 0 0
109 0 0
126 0 0
109 0 0
116 0 0
123 0 0
116 0 0
120 0 0
112 0 0
114 0 0
122 0 0
114 0 0
114 0 0
122 0 0
114 0 0
119 0 0
117 0 0
113 0 0
112 0 0
122 0 0
118 0 0
112 0 0
114 0 0
119 0 0
106 0 0
112 0 0
114 0 0
125 0 0
122 0 0
113 0 0
115 0 0
112 0 0
112 0 0
115 0 0
105 0 0
130 0 0
112 0 0
115 0 0
111 0 0
111 0 0
114 0 0
112 0 0
113 0 0
118 0 0
115 0 0
124 0 0
111 0 0
109 0 0
117 0 0
127 0 0
132 0 0
115 0 0
108 0 0
117 0 0
110 0 0
119 0 0
120 0 0
114 0 0
117 0 0
117 0 0
113 0 0
115 0 0
129 0 0
106 0 0
126 0 0
110 0 0
117 0 0
114 0 0
114 0 0
108 0 0
119 0 0
111 0 0
119 0 0
116 0 0
119 0 0
114 0 0
128 0 0
109 0 0
122 0 0
111 0 0
116 0 0
114 0 0
109 0 0
119 0 0
108 0 0
114 0 0
103 0 0
118 0 0
118 0 0
82 0 103
0 0 140
0 0 140
0 0 140
0 0 140
0 0 140
0 0 140
0 0 140
0 0 140
0 0 140
0 0 140
0 0 140
0 0 140
0 0 140
0 0 140
0 0 140
0 0 140
0 0 140
0 0 140
0 0 140
0 0 140
0 0 140
0 0 140
0 0 140
0 0 140
0 0 140
0 0 140
0 0 140
0 0 140
0 0 140
0 0 140
0 0 140
0 0 140
0 0 140
0 0 140
0 0 140
0 0 140
0 0 140
0 0 140
0 0 140
0 0 140
0 0 139
0 0 139
0 0 137
0 0 139
0 0 138
0 0 139
0 0 136
0 0 136
0 0 138
0 0 138
0 0 138
0 0 135
0 0 135
0 0 138
0 0 138
0 0 133
0 0 138
0 0 137
0 0 135
0 0 137
0 0 135
0 0 135
0 0 132
0 0 132
0 0 133
0 0 131
0 0 130
0 0 131
0 0 131
0 0 130
0 0 133
0 0 134
0 0 130
0 0 130
0 0 131
0 0 125
0 0 132
0 0 134
0 0 132
0 0 133
0 0 132
0 0 132
0 0 121
0 0 131
0 0 126
0 0 130
0 0 123
0 0 128
0 0 129
0 0 127
0 0 126
0 0 123
0 0 133
0 0 126
0 0 125
0 0 126
0 0 123
0 0 127
0 0 130
0 0 130
0 0 124
0 0 126
0 0 124
0 0 127
0 0 123
0 0 123
0 0 125
0 0 123
0 0 123
0 0 125
0 0 123
0 0 122
0 0 118
0 0 118
0 0 125
0 0 124
0 0 121
0 0 120
0 0 124
0 0 121
0 0 118
0 0 121
0 0 126
0 0 123
0 0 115
0 0 122
0 0 119
0 0 113
0 0 121
0 0 116
0 0 122
0 0 113
0 0 105
0 0 113
0 0 113
0 0 125
0 0 120
0 0 115
0 0 108
0 0 120
0 0 119
0 0 116
0 0 119
0 0 117
0 0 120
0 0 127
0 0 118
0 0 126
0 0 121
0 0 116
0 0 125
0 0 123
0 0 121
0 0 123
0 0 121
0 0 123
0 0 118
0 0 128
0 0 122
0 0 119
0 0 125
0 0 120
0 0 124
0 0 119
0 0 126
0 0 123
0 0 126
0 0 124
0 0 127
0 0 129
0 0 126
0 0 126
0 0 126
0 0 129
0 0 128
0 0 130
0 0 129
0 0 130
0 0 132
0 0 128
0 0 133
0 0 133
0 0 131
0 0 132
0 0 132
0 0 133
0 0 129
0 0 131
0 0 128
0 0 131
0 0 130
0 0 133
0 0 129
0 0 133
0 0 130
0 0 135
0 0 136
0 0 135
0 0 138
0 0 135
0 0 135
0 0 134
0 0 132
0 0 137
0 0 135
0 0 133
0 0 139
0 0 133
0 0 137
0 0 138
0 0 138
0 0 138
0 0 135
0 0 140
0 0 137
0 0 136
0 0 139
0 0 137
0 0 138
0 0 138
0 0 140
0 0 138
0 0 140
0 0 140
0 0 140
0 0 140
0 0 140
0 0 139
0 0 140
0 0 140
0 0 140
0 0 140
0 0 140
0 0 140
0 0 140
0 0 140
0 0 140
0 0 140
0 0 140
0 0 140
0 0 140
0 0 140
0 0 140
0 0 140
0 0 140
0 0 140
0 0 140
0 0 140
0 0 140
0 0 140
0 0 140
0 0 140
0 0 140
0 0 140
0 0 140
0 0 140
0 0 140
0 0 140
0 0 140
0 0 140
0 0 140
0 0 140
0 0 140
0 0 140
0 0 140
0 0 140
0 0 140
0 0 140
0 0 140
0 0 140
0 0 140
0 0 140
0 0 140
0 0 140
42 0 132
103 0 14
103 0 0
108 0 0
120 0 0
105 0 0
108 0 0
108 0 0
108 0 0
105 0 0
119 0 0
117 0 0
130 0 0
129 0 0
115 0 0
124 0 0
115 0 0
122 0 0
116 0 0
127 0 0
125 0 0
117 0 0
125 0 0
110 0 0
124 0 0
117 0 0
116 0 0
122 0 0
126 0 0
116 0 0
126 0 0
116 0 0
117 0 0
107 0 0
116 0 0
122 0 0
114 0 0
108 0 0
116 0 0
120 0 0
113 0 0
105 0 0
118 0 0
120 0 0
124 0 0
111 0 0
116 0 0
121 0 0
127 0 0
120 0 0
113 0 0
125 0 0
112 0 0
117 0 0
123 0 0
103 0 0
113 0 0
117 0 0
114 0 0
119 0 0
116 0 0
117 0 0
109 0 0
113 0 0
116 0 0
116 0 0
131 0 0
110 0 0
128 0 0
122 0 0
117 0 0
117 0 0
113 0 0
113 0 0
111 0 0
101 0 0
126 0 0
118 0 0
122 0 0
119 0 0
120 0 0
107 0 0
115 0 0
118 0 0
111 0 0
116 0 0
114 0 0
121 0 0
125 0 0
116 0 0
110 0 0
116 0 0
107 0 0
110 0 0
115 0 0
111 0 0
110 0 0
124 0 0
117 0 0
121 0 0
112 0 0
116 0 0
102 0 0
119 0 0
127 0 0
122 0 0
125 0 0
122 0 0
114 0 0
117 0 0
102 0 0
118 0 0
111 0 0
115 0 0
116 0 0
114 0 0
123 0 0
124 0 0
117 0 0
116 0 0
112 0 0
126 0 0
123 0 0
116 0 0
106 0 0
34 0 130
0 0 140
0 0 140
0 0 140
0 0 140
0 0 140
0 0 140
0 0 140
0 0 140
0 0 140
0 0 140
0 0 140
0 0 140
0 0 140
0 0 140
0 0 140
0 0 140
0 0 140
0 0 140
0 0 140
0 0 140
0 0 140
0 0 140
0 0 140
0 0 140
0 0 140
0 0 140
0 0 140
0 0 140
0 0 140
0 0 140
0 0 140
0 0 140
0 0 140
0 0 140
0 0 140
0 0 140
0 0 140
0 0 140
0 0 140
0 0 140
0 0 140
0 0 140
0 0 140
0 0 140
0 0 140
0 0 140
0 0 140
0 0 140
0 0 139
0 0 140
0 0 139
0 0 137
0 0 138
0 0 136
0 0 140
0 0 138
0 0 138
0 0 136
0 0 138
0 0 138
0 0 136
0 0 137
0 0 138
0 0 135
0 0 135
0 0 136
0 0 135
0 0 136
0 0 135
0 0 137
0 0 136
0 0 130
0 0 138
0 0 135
0 0 137
0 0 134
0 0 133
0 0 135
0 0 136
0 0 133
0 0 127
0 0 135
0 0 129
0 0 133
0 0 132
0 0 133
0 0 133
0 0 132
0 0 130
0 0 129
0 0 130
0 0 128
0 0 131
0 0 134
0 0 131
0 0 129
0 0 133
0 0 123
0 0 130
0 0 128
0 0 126
0 0 124
0 0 131
0 0 132
0 0 127
0 0 123
0 0 126
0 0 128
0 0 130
0 0 123
0 0 127
0 0 126
0 0 123
0 0 126
0 0 127
0 0 124
0 0 122
0 0 123
0 0 123
0 0 128
0 0 119
0 0 130
0 0 120
0 0 123
0 0 126
0 0 122
0 0 122
0 0 123
0 0 119
0 0 126
0 0 118
0 0 117
0 0 118
0 0 121
0 0 122
0 0 120
0 0 114
0 0 118
0 0 125
0 0 124
0 0 130
0 0 121
0 0 119
0 0 125
0 0 130
0 0 127
0 0 124
0 0 120
0 0 123
0 0 120
0 0 126
0 0 128
0 0 127
0 0 133
0 0 128
0 0 128
0 0 125
0 0 126
0 0 130
0 0 129
0 0 130
0 0 126
0 0 129
0 0 130
0 0 130
0 0 123
0 0 129
0 0 132
0 0 130
0 0 129
0 0 124
0 0 130
0 0 126
0 0 131
0 0 130
0 0 130
0 0 130
0 0 134
0 0 135
0 0 135
0 0 134
0 0 130
0 0 133
0 0 137
0 0 133
0 0 135
0 0 133
0 0 133
0 0 135
0 0 131
0 0 135
0 0 133
0 0 135
0 0 135
0 0 139
0 0 138
0 0 135
0 0 138
0 0 135
0 0 134
0 0 135
0 0 138
0 0 135
0 0 137
0 0 138
0 0 138
0 0 140
0 0 138
0 0 140
0 0 140
0 0 138
0 0 140
0 0 140
0 0 140
0 0 140
0 0 140
0 0 140
0 0 140
0 0 140
0 0 140
0 0 140
0 0 140
0 0 140
0 0 140
0 0 140
0 0 140
0 0 140
0 0 140
0 0 140
0 0 140
0 0 140
0 0 140
0 0 140
0 0 140
0 0 140
0 0 140
0 0 140
0 0 140
0 0 140
0 0 140
0 0 140
0 0 140
0 0 140
0 0 140
0 0 140
0 0 140
0 0 140
0 0 140
0 0 140
0 0 140
0 0 140
0 0 140
0 0 140
0 0 140
0 0 140
0 0 140
0 0 140
0 0 140
0 0 140
0 0 140
0 0 140
0 0 140
0 0 140
0 0 140
0 0 140
0 0 140
0 0 140
0 0 140
0 0 140
0 0 140
0 0 140
0 0 140
0 0 140
0 0 140
0 0 140
101 0 67
123 0 0
116 0 0
104 0 0
117 0 0
99 0 0
118 0 0
111 0 0
115 0 0
118 0 0
104 0 0
124 0 0
113 0 0
126 0 0
111 0 0
125 0 0
128 0 0
120 0 0
100 0 0
115 0 0
114 0 0
126 0 0
110 0 0
103 0 0
120 0 0
115 0 0
114 0 0
105 0 0
123 0 0
120 0 0
112 0 0
108 0 0
129 0 0
121 0 0
116 0 0
123 0 0
117 0 0
120 0 0
108 0 0
119 0 0
126 0 0
116 0 0
113 0 0
121 0 0
123 0 0
116 0 0
121 0 0
125 0 0
102 0 0
116 0 0
122 0 0
118 0 0
117 0 0
113 0 0
109 0 0
125 0 0
115 0 0
125 0 0
119 0 0
117 0 0
128 0 0
130 0 0
112 0 0
120 0 0
116 0 0
121 0 0
118 0 0
108 0 0
121 0 0
112 0 0
112 0 0
116 0 0
121 0 0
119 0 0
119 0 0
117 0 0
121 0 0
122 0 0
114 0 0
114 0 0
128 0 0
118 0 0
126 0 0
121 0 0
120 0 0
107 0 0
117 0 0
116 0 0
107 0 0
124 0 0
120 0 0
115 0 0
117 0 0
123 0 0
112 0 0
116 0 0
119 0 0
117 0 0
115 0 0
112 0 0
118 0 0
113 0 0
111 0 0
122 0 0
110 0 0
115 0 0
118 0 0
119 0 0
99 0 0
119 0 0
117 0 0
116 0 0
114 0 0
118 0 0
109 0 0
123 0 0
116 0 0
129 0 0
109 0 0
107 0 0
113 0 0
114 0 0
112 0 0
103 0 64
0 0 140
0 0 140
0 0 140
0 0 140
0 0 140
0 0 140
0 0 140
0 0 140
0 0 140
0 0 140
0 0 140
0 0 140
0 0 140
0 0 140
0 0 140
0 0 140
0 0 140
0 0 140
0 0 140
0 0 140
0 0 140
0 0 140
0 0 140
0 0 140
0 0 140
0 0 140
0 0 140
0 0 140
0 0 140
0 0 140
0 0 140
0 0 140
0 0 140
0 0 140
0 0 140
0 0 140
0 0 140
0 0 140
0 0 140
0 0 140
0 0 140
0 0 140
0 0 140
0 0 140
0 0 140
0 0 140
0 0 140
0 0 140
0 0 140
0 0 140
0 0 140
0 0 140
0 0 140
0 0 140
0 0 140
0 0 140
0 0 140
0 0 139
0 0 140
0 0 140
0 0 139
0 0 140
0 0 139
0 0 138
0 0 138
0 0 140
0 0 140
0 0 138
0 0 139
0 0 138
0 0 136
0 0 136
0 0 137
0 0 137
0 0 138
0 0 140
0 0 137
0 0 133
0 0 137
0 0 137
0 0 137
0 0 135
0 0 135
0 0 135
0 0 138
0 0 136
0 0 137
0 0 129
0 0 136
0 0 134
0 0 135
0 0 132
0 0 133
0 0 133
0 0 131
0 0 130
0 0 134
0 0 133
0 0 130
0 0 135
0 0 126
0 0 133
0 0 134
0 0 130
0 0 135
0 0 125
0 0 130
0 0 134
0 0 130
0 0 130
0 0 131
0 0 130
0 0 123
0 0 121
0 0 124
0 0 129
0 0 128
0 0 124
0 0 128
0 0 126
0 0 120
0 0 128
0 0 126
0 0 125
0 0 119
0 0 126
0 0 123
0 0 122
0 0 122
0 0 123
0 0 125
0 0 123
0 0 123
0 0 127
0 0 129
0 0 123
0 0 124
0 0 123
0 0 121
0 0 129
0 0 123
0 0 127
0 0 128
0 0 128
0 0 125
0 0 130
0 0 122
0 0 123
0 0 127
0 0 128
0 0 128
0 0 124
0 0 128
0 0 130
0 0 130
0 0 132
0 0 130
0 0 129
0 0 132
0 0 132
0 0 130
0 0 130
0 0 129
0 0 133
0 0 133
0 0 130
0 0 134
0 0 135
0 0 131
0 0 129
0 0 130
0 0 131
0 0 130
0 0 132
0 0 133
0 0 134
0 0 133
0 0 134
0 0 132
0 0 134
0 0 138
0 0 134
0 0 133
0 0 136
0 0 135
0 0 136
0 0 137
0 0 138
0 0 137
0 0 138
0 0 135
0 0 138
0 0 138
0 0 138
0 0 137
0 0 136
0 0 138
0 0 138
0 0 135
0 0 139
0 0 139
0 0 136
0 0 139
0 0 139
0 0 140
0 0 140
0 0 139
0 0 139
0 0 140
0 0 140
0 0 140
0 0 140
0 0 140
0 0 140
0 0 140
0 0 140
0 0 140
0 0 140
0 0 140
0 0 140
0 0 140
0 0 140
0 0 140
0 0 140
0 0 140
0 0 140
0 0 140
0 0 140
0 0 140
0 0 140
0 0 140
0 0 140
0 0 140
0 0 140
0 0 140
0 0 140
0 0 140
0 0 140
0 0 140
0 0 140
0 0 140
0 0 140
0 0 140
0 0 140
0 0 140
0 0 140
0 0 140
0 0 140
0 0 140
0 0 140
0 0 140
0 0 140
0 0 140
0 0 140
0 0 140
0 0 140
0 0 140
0 0 140
0 0 140
0 0 140
0 0 140
0 0 140
0 0 140
0 0 140
0 0 140
0 0 140
0 0 140
0 0 140
0 0 140
0 0 140
0 0 140
0 0 140
0 0 140
0 0 140
0 0 140
0 0 140
77 0 101
104 0 0
108 0 0
121 0 0
116 0 0
116 0 0
116 0 0
100 0 0
123 0 0
117 0 0
116 0 0
108 0 0
121 0 0
101 0 0
114 0 0
116 0 0
106 0 0
113 0 0
98 0 0
112 0 0
108 0 0
113 0 0
102 0 0
122 0 0
110 0 0
118 0 0
112 0 0
126 0 0
117 0 0
120 0 0
118 0 0
118 0 0
120 0 0
120 0 0
101 0 0
124 0 0
108 0 0
120 0 0
117 0 0
112 0 0
124 0 0
123 0 0
109 0 0
128 0 0
122 0 0
125 0 0
125 0 0
119 0 0
118 0 0
113 0 0
116 0 0
118 0 0
111 0 0
117 0 0
124 0 0
113 0 0
111 0 0
124 0 0
120 0 0
128 0 0
121 0 0
114 0 0
119 0 0
120 0 0
124 0 0
124 0 0
121 0 0
112 0 0
115 0 0
103 0 0
120 0 0
114 0 0
112 0 0
123 0 0
113 0 0
108 0 0
117 0 0
125 0 0
108 0 0
104 0 0
108 0 0
116 0 0
115 0 0
112 0 0
108 0 0
122 0 0
117 0 0
114 0 0
122 0 0
107 0 0
119 0 0
129 0 0
123 0 0
106 0 0
103 0 0
125 0 0
118 0 0
116 0 0
127 0 0
120 0 0
113 0 0
117 0 0
120 0 0
111 0 0
113 0 0
124 0 0
121 0 0
108 0 0
121 0 0
101 0 0
126 0 0
103 0 0
119 0 0
116 0 0
114 0 0
103 0 0
117 0 0
119 0 0
116 0 0
127 0 0
106 0 0
106 0 0
116 0 0
66 0 113
0 0 140
0 0 140
0 0 140
0 0 140
0 0 140
0 0 140
0 0 140
0 0 140
0 0 140
0 0 140
0 0 140
0 0 140
0 0 140
0 0 140
0 0 140
0 0 140
0 0 140
0 0 140
0 0 140
0 0 140
0 0 140
0 0 140
0 0 140
0 0 140
0 0 140
0 0 140
0 0 140
0 0 140
0 0 140
0 0 140
0 0 140
0 0 140
0 0 140
0 0 140
0 0 140
0 0 140
0 0 140
0 0 140
0 0 140
0 0 140
0 0 140
0 0 140
0 0 140
0 0 140
0 0 140
0 0 140
0 0 140
0 0 140
0 0 140
0 0 140
0 0 140
0 0 140
0 0 140
0 0 140
0 0 140
0 0 140
0 0 140
0 0 140
0 0 140
0 0 140
0 0 140
0 0 140
0 0 140
0 0 140
0 0 140
0 0 140
0 0 140
0 0 140
0 0 140
0 0 140
0 0 140
0 0 139
0 0 139
0 0 138
0 0 139
0 0 140
0 0 137
0 0 138
0 0 138
0 0 137
0 0 138
0 0 136
0 0 136
0 0 136
0 0 138
0 0 138
0 0 135
0 0 136
0 0 135
0 0 136
0 0 130
0 0 136
0 0 133
0 0 136
0 0 134
0 0 135
0 0 134
0 0 131
0 0 135
0 0 134
0 0 131
0 0 135
0 0 135
0 0 135
0 0 133
0 0 131
0 0 131
0 0 130
0 0 130
0 0 133
0 0 130
0 0 129
0 0 131
0 0 137
0 0 133
0 0 123
0 0 135
0 0 127
0 0 130
0 0 124
0 0 126
0 0 128
0 0 128
0 0 125
0 0 124
0 0 130
0 0 128
0 0 126
0 0 126
0 0 130
0 0 129
0 0 129
0 0 126
0 0 124
0 0 126
0 0 128
0 0 125
0 0 123
0 0 133
0 0 128
0 0 131
0 0 129
0 0 129
0 0 133
0 0 129
0 0 130
0 0 133
0 0 130
0 0 134
0 0 132
0 0 130
0 0 134
0 0 128
0 0 130
0 0 129
0 0 136
0 0 130
0 0 130
0 0 133
0 0 130
0 0 137
0 0 131
0 0 135
0 0 130
0 0 134
0 0 130
0 0 130
0 0 134
0 0 136
0 0 133
0 0 135
0 0 133
0 0 136
0 0 136
0 0 133
0 0 138
0 0 136
0 0 136
0 0 135
0 0 137
0 0 137
0 0 136
0 0 138
0 0 137
0 0 138
0 0 138
0 0 138
0 0 139
0 0 138
0 0 140
0 0 139
0 0 140
0 0 139
0 0 138
0 0 140
0 0 140
0 0 140
0 0 140
0 0 140
0 0 140
0 0 140
0 0 140
0 0 140
0 0 140
0 0 140
0 0 140
0 0 140
0 0 140
0 0 140
0 0 140
0 0 140
0 0 140
0 0 140
0 0 140
0 0 140
0 0 140
0 0 140
0 0 140
0 0 140
0 0 140
0 0 140
0 0 140
0 0 140
0 0 140
0 0 140
0 0 140
0 0 140
0 0 140
0 0 140
0 0 140
0 0 140
0 0 140
0 0 140
0 0 140
0 0 140
0 0 140
0 0 140
0 0 140
0 0 140
0 0 140
0 0 140
0 0 140
0 0 140
0 0 140
0 0 140
0 0 140
0 0 140
0 0 140
0 0 140
0 0 140
0 0 140
0 0 140
0 0 140
0 0 140
0 0 140
0 0 140
0 0 140
0 0 140
0 0 140
0 0 140
0 0 140
0 0 140
0 0 140
0 0 140
0 0 140
0 0 140
0 0 140
0 0 140
0 0 140
0 0 140
0 0 140
0 0 140
0 0 140
0 0 140
0 0 140
0 0 140
35 0 135
115 0 14
108 0 0
102 0 0
116 0 0
100 0 0
113 0 0
119 0 0
111 0 0
111 0 0
114 0 0
105 0 0
96 0 0
107 0 0
122 0 0
107 0 0
110 0 0
98 0 0
107 0 0
104 0 0
111 0 0
116 0 0
116 0 0
110 0 0
106 0 0
122 0 0
113 0 0
128 0 0
116 0 0
121 0 0
129 0 0
114 0 0
121 0 0
120 0 0
118 0 0
112 0 0
111 0 0
116 0 0
123 0 0
122 0 0
106 0 0
127 0 0
120 0 0
110 0 0
118 0 0
123 0 0
115 0 0
116 0 0
105 0 0
119 0 0
105 0 0
115 0 0
102 0 0
108 0 0
127 0 0
114 0 0
103 0 0
115 0 0
105 0 0
116 0 0
118 0 0
114 0 0
119 0 0
122 0 0
120 0 0
126 0 0
111 0 0
110 0 0
114 0 0
118 0 0
114 0 0
115 0 0
109 0 0
114 0 0
107 0 0
108 0 0
111 0 0
106 0 0
105 0 0
120 0 0
122 0 0
96 0 0
111 0 0
123 0 0
107 0 0
116 0 0
111 0 0
112 0 0
119 0 0
121 0 0
112 0 0
111 0 0
121 0 0
116 0 0
121 0 0
117 0 0
122 0 0
113 0 0
110 0 0
114 0 0
119 0 0
117 0 0
118 0 0
115 0 0
124 0 0
111 0 0
99 0 0
107 0 0
113 0 0
122 0 0
122 0 0
112 0 0
112 0 0
105 0 0
108 0 0
118 0 0
119 0 0
114 0 0
112 0 0
101 0 0
105 0 0
106 0 0
110 0 0
38 0 130
0 0 140
0 0 140
0 0 140
0 0 140
0 0 140
0 0 140
0 0 140
0 0 140
0 0 140
0 0 140
0 0 140
0 0 140
0 0 140
0 0 140
0 0 140
0 0 140
0 0 140
0 0 140
0 0 140
0 0 140
0 0 140
0 0 140
0 0 140
0 0 140
0 0 140
0 0 140
0 0 140
0 0 140
0 0 140
0 0 140
0 0 140
0 0 140
0 0 140
0 0 140
0 0 140
0 0 140
0 0 140
0 0 140
0 0 140
0 0 140
0 0 140
0 0 140
0 0 140
0 0 140
0 0 140
0 0 140
0 0 140
0 0 140
0 0 140
0 0 140
0 0 140
0 0 140
0 0 140
0 0 140
0 0 140
0 0 140
0 0 140
0 0 140
0 0 140
0 0 140
0 0 140
0 0 140
0 0 140
0 0 140
0 0 140
0 0 140
0 0 140
0 0 140
0 0 140
0 0 140
0 0 140
0 0 140
0 0 140
0 0 140
0 0 140
0 0 140
0 0 140
0 0 140
0 0 140
0 0 140
0 0 139
0 0 139
0 0 140
0 0 138
0 0 140
0 0 138
0 0 138
0 0 138
0 0 139
0 0 136
0 0 140
0 0 138
0 0 138
0 0 138
0 0 135
0 0 137
0 0 138
0 0 135
0 0 132
0 0 137
0 0 136
0 0 135
0 0 135
0 0 136
0 0 134
0 0 132
0 0 135
0 0 134
0 0 135
0 0 133
0 0 135
0 0 133
0 0 135
0 0 133
0 0 127
0 0 132
0 0 133
0 0 133
0 0 135
0 0 130
0 0 133
0 0 130
0 0 130
0 0 130
0 0 126
0 0 130
0 0 136
0 0 131
0 0 133
0 0 128
0 0 133
0 0 128
0 0 128
0 0 127
0 0 129
0 0 130
0 0 129
0 0 129
0 0 134
0 0 133
0 0 123
0 0 133
0 0 129
0 0 130
0 0 130
0 0 132
0 0 133
0 0 135
0 0 133
0 0 130
0 0 135
0 0 134
0 0 132
0 0 129
0 0 135
0 0 132
0 0 138
0 0 133
0 0 134
0 0 132
0 0 135
0 0 134
0 0 137
0 0 138
0 0 134
0 0 135
0 0 138
0 0 138
0 0 139
0 0 138
0 0 137
0 0 135
0 0 139
0 0 138
0 0 138
0 0 135
0 0 138
0 0 139
0 0 140
0 0 137
0 0 138
0 0 140
0 0 138
0 0 139
0 0 140
0 0 140
0 0 140
0 0 140
0 0 140
0 0 140
0 0 140
0 0 140
0 0 140
0 0 140
0 0 140
0 0 140
0 0 140
0 0 140
0 0 140
0 0 140
0 0 140
0 0 140
0 0 140
0 0 140
0 0 140
0 0 140
0 0 140
0 0 140
0 0 140
0 0 140
0 0 140
0 0 140
0 0 140
0 0 140
0 0 140
0 0 140
0 0 140
0 0 140
0 0 140
0 0 140
0 0 140
0 0 140
0 0 140
0 0 140
0 0 140
0 0 140
0 0 140
0 0 140
0 0 140
0 0 140
0 0 140
0 0 140
0 0 140
0 0 140
0 0 140
0 0 140
0 0 140
0 0 140
0 0 140
0 0 140
0 0 140
0 0 140
0 0 140
0 0 140
0 0 140
0 0 140
0 0 140
0 0 140
0 0 140
0 0 140
0 0 140
0 0 140
0 0 140
0 0 140
0 0 140
0 0 140
0 0 140
0 0 140
0 0 140
0 0 140
0 0 140
0 0 140
0 0 140
0 0 140
0 0 140
0 0 140
0 0 140
0 0 140
0 0 140
0 0 140
0 0 140
0 0 140
0 0 140
0 0 140
0 0 140
0 0 140
0 0 140
90 0 71
109 0 0
96 0 0
97 0 0
120 0 0
103 0 0
113 0 0
119 0 0
105 0 0
113 0 0
109 0 0
109 0 0
125 0 0
118 0 0
122 0 0
118 0 0
120 0 0
118 0 0
103 0 0
110 0 0
117 0 0
112 0 0
121 0 0
114 0 0
106 0 0
118 0 0
111 0 0
121 0 0
112 0 0
118 0 0
132 0 0
116 0 0
102 0 0
118 0 0
112 0 0
112 0 0
113 0 0
117 0 0
117 0 0
127 0 0
104 0 0
108 0 0
106 0 0
119 0 0
116 0 0
114 0 0
104 0 0
106 0 0
108 0 0
119 0 0
104 0 0
118 0 0
112 0 0
112 0 0
103 0 0
113 0 0
116 0 0
122 0 0
102 0 0
108 0 0
121 0 0
104 0 0
115 0 0
112 0 0
110 0 0
127 0 0
111 0 0
128 0 0
122 0 0
121 0 0
112 0 0
107 0 0
110 0 0
114 0 0
113 0 0
112 0 0
109 0 0
111 0 0
126 0 0
125 0 0
115 0 0
126 0 0
118 0 0
114 0 0
111 0 0
119 0 0
116 0 0
123 0 0
120 0 0
115 0 0
113 0 0
110 0 0
115 0 0
108 0 0
109 0 0
114 0 0
109 0 0
109 0 0
117 0 0
117 0 0
110 0 0
110 0 0
107 0 0
117 0 0
101 0 0
99 0 0
107 0 0
120 0 0
116 0 0
109 0 0
106 0 0
111 0 0
116 0 0
113 0 0
109 0 0
123 0 0
112 0 0
120 0 0
117 0 0
112 0 0
92 0 0
104 0 67
0 0 140
0 0 140
0 0 140
0 0 140
0 0 140
0 0 140
0 0 140
0 0 140
0 0 140
0 0 140
0 0 140
0 0 140
0 0 140
0 0 140
0 0 140
0 0 140
0 0 140
0 0 140
0 0 140
0 0 140
0 0 140
0 0 140
0 0 140
0 0 140
0 0 140
0 0 140
0 0 140
0 0 140
0 0 140
0 0 140
0 0 140
0 0 140
0 0 140
0 0 140
0 0 140
0 0 140
0 0 140
0 0 140
0 0 140
0 0 140
0 0 140
0 0 140
0 0 140
0 0 140
0 0 140
0 0 140
0 0 140
0 0 140
0 0 140
0 0 140
0 0 140
0 0 140
0 0 140
0 0 140
0 0 140
0 0 140
0 0 140
0 0 140
0 0 140
0 0 140
0 0 140
0 0 140
0 0 140
0 0 140
0 0 140
0 0 140
0 0 140
0 0 140
0 0 140
0 0 140
0 0 140
0 0 140
0 0 140
0 0 140
0 0 140
0 0 140
0 0 140
0 0 140
0 0 140
0 0 140
0 0 140
0 0 140
0 0 140
0 0 140
0 0 140
0 0 140
0 0 140
0 0 140
0 0 140
0 0 140
0 0 140
0 0 140
0 0 139
0 0 140
0 0 140
0 0 140
0 0 140
0 0 139
0 0 138
0 0 140
0 0 139
0 0 134
0 0 137
0 0 138
0 0 137
0 0 137
0 0 135
0 0 139
0 0 137
0 0 136
0 0 135
0 0 130
0 0 135
0 0 136
0 0 135
0 0 133
0 0 133
0 0 134
0 0 135
0 0 133
0 0 128
0 0 132
0 0 134
0 0 136
0 0 134
0 0 134
0 0 132
0 0 133
0 0 135
0 0 130
0 0 134
0 0 130
0 0 129
0 0 135
0 0 133
0 0 130
0 0 131
0 0 133
0 0 126
0 0 133
0 0 133
0 0 130
0 0 130
0 0 134
0 0 136
0 0 132
0 0 132
0 0 133
0 0 136
0 0 134
0 0 137
0 0 135
0 0 138
0 0 138
0 0 138
0 0 134
0 0 135
0 0 138
0 0 137
0 0 137
0 0 138
0 0 138
0 0 136
0 0 138
0 0 138
0 0 137
0 0 137
0 0 138
0 0 138
0 0 140
0 0 138
0 0 139
0 0 139
0 0 140
0 0 139
0 0 140
0 0 140
0 0 139
0 0 140
0 0 140
0 0 140
0 0 140
0 0 140
0 0 140
0 0 140
0 0 140
0 0 140
0 0 140
0 0 140
0 0 140
0 0 140
0 0 140
0 0 140
0 0 140
0 0 140
0 0 140
0 0 140
0 0 140
0 0 140
0 0 140
0 0 140
0 0 140
0 0 140
0 0 140
0 0 140
0 0 140
0 0 140
0 0 140
0 0 140
0 0 140
0 0 140
0 0 140
0 0 140
0 0 140
0 0 140
0 0 140
0 0 140
0 0 140
0 0 140
0 0 140
0 0 140
0 0 140
0 0 140
0 0 140
0 0 140
0 0 140
0 0 140
0 0 140
0 0 140
0 0 140
0 0 140
0 0 140
0 0 140
0 0 140
0 0 140
0 0 140
0 0 140
0 0 140
0 0 140
0 0 140
0 0 140
0 0 140
0 0 140
0 0 140
0 0 140
0 0 140
0 0 140
0 0 140
0 0 140
0 0 140
0 0 140
0 0 140
0 0 140
0 0 140
0 0 140
0 0 140
0 0 140
0 0 140
0 0 140
0 0 140
0 0 140
0 0 140
0 0 140
0 0 140
0 0 140
0 0 140
0 0 140
0 0 140
0 0 140
0 0 140
0 0 140
0 0 140
0 0 140
0 0 140
0 0 140
0 0 140
0 0 140
0 0 140
66 0 116
109 0 0
103 0 0
108 0 0
113 0 0
110 0 0
111 0 0
108 0 0
113 0 0
98 0 0
112 0 0
101 0 0
114 0 0
101 0 0
109 0 0
112 0 0
113 0 0
110 0 0
121 0 0
120 0 0
111 0 0
118 0 0
126 0 0
115 0 0
118 0 0
116 0 0
109 0 0
116 0 0
109 0 0
115 0 0
102 0 0
106 0 0
125 0 0
103 0 0
107 0 0
113 0 0
119 0 0
106 0 0
112 0 0
120 0 0
113 0 0
115 0 0
112 0 0
115 0 0
123 0 0
124 0 0
127 0 0
126 0 0
107 0 0
113 0 0
109 0 0
117 0 0
108 0 0
119 0 0
122 0 0
116 0 0
102 0 0
119 0 0
111 0 0
114 0 0
111 0 0
114 0 0
122 0 0
115 0 0
125 0 0
112 0 0
117 0 0
113 0 0
116 0 0
121 0 0
107 0 0
108 0 0
110 0 0
120 0 0
115 0 0
109 0 0
118 0 0
111 0 0
113 0 0
123 0 0
117 0 0
117 0 0
113 0 0
111 0 0
98 0 0
112 0 0
116 0 0
112 0 0
104 0 0
124 0 0
115 0 0
118 0 0
105 0 0
114 0 0
115 0 0
110 0 0
104 0 0
111 0 0
116 0 0
119 0 0
106 0 0
113 0 0
116 0 0
118 0 0
106 0 0
114 0 0
117 0 0
127 0 0
120 0 0
108 0 0
113 0 0
114 0 0
112 0 0
120 0 0
117 0 0
117 0 0
125 0 0
111 0 0
118 0 0
123 0 0
117 0 0
60 0 118
0 0 140
0 0 140
0 0 140
0 0 140
0 0 140
0 0 140
0 0 140
0 0 140
0 0 140
0 0 140
0 0 140
0 0 140
0 0 140
0 0 140
0 0 140
0 0 140
0 0 140
0 0 140
0 0 140
0 0 140
0 0 140
0 0 140
0 0 140
0 0 140
0 0 140
0 0 140
0 0 140
0 0 140
0 0 140
0 0 140
0 0 140
0 0 140
0 0 140
0 0 140
0 0 140
0 0 140
0 0 140
0 0 140
0 0 140
0 0 140
0 0 140
0 0 140
0 0 140
0 0 140
0 0 140
0 0 140
0 0 140
0 0 140
0 0 140
0 0 140
0 0 140
0 0 140
0 0 140
0 0 140
0 0 140
0 0 140
0 0 140
0 0 140
0 0 140
0 0 140
0 0 140
0 0 140
0 0 140
0 0 140
0 0 140
0 0 140
0 0 140
0 0 140
0 0 140
0 0 140
0 0 140
0 0 140
0 0 140
0 0 140
0 0 140
0 0 140
0 0 140
0 0 140
0 0 140
0 0 140
0 0 140
0 0 140
0 0 140
0 0 140
0 0 140
0 0 140
0 0 140
0 0 140
0 0 140
0 0 140
0 0 140
0 0 140
0 0 140
0 0 140
0 0 140
0 0 140
0 0 140
0 0 140
0 0 140
0 0 140
0 0 140
0 0 140
0 0 140
0 0 140
0 0 140
0 0 138
0 0 138
0 0 138
0 0 138
0 0 140
0 0 140
0 0 138
0 0 137
0 0 138
0 0 138
0 0 137
0 0 138
0 0 137
0 0 136
0 0 138
0 0 137
0 0 137
0 0 138
0 0 136
0 0 138
0 0 136
0 0 133
0 0 135
0 0 137
0 0 134
0 0 134
0 0 134
0 0 133
0 0 133
0 0 135
0 0 132
0 0 132
0 0 134
0 0 133
0 0 135
0 0 135
0 0 135
0 0 135
0 0 134
0 0 135
0 0 135
0 0 137
0 0 139
0 0 135
0 0 137
0 0 136
0 0 136
0 0 138
0 0 139
0 0 140
0 0 138
0 0 140
0 0 138
0 0 139
0 0 140
0 0 138
0 0 139
0 0 140
0 0 139
0 0 138
0 0 140
0 0 140
0 0 140
0 0 140
0 0 140
0 0 140
0 0 140
0 0 140
0 0 140
0 0 140
0 0 140
0 0 140
0 0 140
0 0 140
0 0 140
0 0 140
0 0 140
0 0 140
0 0 140
0 0 140
0 0 140
0 0 140
0 0 140
0 0 140
0 0 140
0 0 140
0 0 140
0 0 140
0 0 140
0 0 140
0 0 140
0 0 140
0 0 140
0 0 140
0 0 140
0 0 140
0 0 140
0 0 140
0 0 140
0 0 140
0 0 140
0 0 140
0 0 140
0 0 140
0 0 140
0 0 140
0 0 140
0 0 140
0 0 140
0 0 140
0 0 140
0 0 140
0 0 140
0 0 140
0 0 140
0 0 140
0 0 140
0 0 140
0 0 140
0 0 140
0 0 140
0 0 140
0 0 140
0 0 140
0 0 140
0 0 140
0 0 140
0 0 140
0 0 140
0 0 140
0 0 140
0 0 140
0 0 140
0 0 140
0 0 140
0 0 140
0 0 140
0 0 140
0 0 140
0 0 140
0 0 140
0 0 140
0 0 140
0 0 140
0 0 140
0 0 140
0 0 140
0 0 140
0 0 140
0 0 140
0 0 140
0 0 140
0 0 140
0 0 140
0 0 140
0 0 140
0 0 140
0 0 140
0 0 140
0 0 140
0 0 140
0 0 140
0 0 140
0 0 140
0 0 140
0 0 140
0 0 140
0 0 140
0 0 140
0 0 140
0 0 140
0 0 140
0 0 140
18 0 137
108 0 34
105 0 0
102 0 0
116 0 0
105 0 0
104 0 0
103 0 0
111 0 0
106 0 0
104 0 0
105 0 0
97 0 0
112 0 0
112 0 0
112 0 0
113 0 0
109 0 0
122 0 0
107 0 0
101 0 0
109 0 0
126 0 0
111 0 0
116 0 0
108 0 0
110 0 0
120 0 0
113 0 0
119 0 0
121 0 0
114 0 0
107 0 0
117 0 0
108 0 0
128 0 0
117 0 0
123 0 0
94 0 0
122 0 0
119 0 0
98 0 0
117 0 0
113 0 0
124 0 0
115 0 0
125 0 0
121 0 0
121 0 0
121 0 0
117 0 0
118 0 0
123 0 0
120 0 0
117 0 0
116 0 0
119 0 0
105 0 0
121 0 0
117 0 0
107 0 0
115 0 0
113 0 0
118 0 0
112 0 0
105 0 0
115 0 0
115 0 0
108 0 0
114 0 0
101 0 0
108 0 0
111 0 0
112 0 0
115 0 0
117 0 0
111 0 0
120 0 0
113 0 0
107 0 0
106 0 0
102 0 0
100 0 0
110 0 0
128 0 0
97 0 0
112 0 0
119 0 0
118 0 0
124 0 0
111 0 0
121 0 0
116 0 0
107 0 0
116 0 0
106 0 0
107 0 0
114 0 0
104 0 0
110 0 0
111 0 0
115 0 0
104 0 0
106 0 0
101 0 0
115 0 0
120 0 0
108 0 0
108 0 0
117 0 0
108 0 0
104 0 0
112 0 0
107 0 0
111 0 0
113 0 0
115 0 0
98 0 0
111 0 0
108 0 0
109 0 34
0 0 138
0 0 140
0 0 140
0 0 140
0 0 140
0 0 140
0 0 140
0 0 140
0 0 140
0 0 140
0 0 140
0 0 140
0 0 140
0 0 140
0 0 140
0 0 140
0 0 140
0 0 140
0 0 140
0 0 140
0 0 140
0 0 140
0 0 140
0 0 140
0 0 140
0 0 140
0 0 140
0 0 140
0 0 140
0 0 140
0 0 140
0 0 140
0 0 140
0 0 140
0 0 140
0 0 140
0 0 140
0 0 140
0 0 140
0 0 140
0 0 140
0 0 140
0 0 140
0 0 140
0 0 140
0 0 140
0 0 140
0 0 140
0 0 140
0 0 140
0 0 140
0 0 140
0 0 140
0 0 140
0 0 140
0 0 140
0 0 140
0 0 140
0 0 140
0 0 140
0 0 140
0 0 140
0 0 140
0 0 140
0 0 140
0 0 140
0 0 140
0 0 140
0 0 140
0 0 140
0 0 140
0 0 140
0 0 140
0 0 140
0 0 140
0 0 140
0 0 140
0 0 140
0 0 140
0 0 140
0 0 140
0 0 140
0 0 140
0 0 140
0 0 140
0 0 140
0 0 140
0 0 140
0 0 140
0 0 140
0 0 140
0 0 140
0 0 140
0 0 140
0 0 140
0 0 140
0 0 140
0 0 140
0 0 140
0 0 140
0 0 140
0 0 140
0 0 140
0 0 140
0 0 140
0 0 140
0 0 140
0 0 140
0 0 140
0 0 140
0 0 140
0 0 140
0 0 140
0 0 140
0 0 140
0 0 140
0 0 139
0 0 138
0 0 140
0 0 140
0 0 139
0 0 138
0 0 138
0 0 140
0 0 135
0 0 138
0 0 138
0 0 137
0 0 138
0 0 135
0 0 137
0 0 135
0 0 135
0 0 136
0 0 138
0 0 136
0 0 137
0 0 135
0 0 138
0 0 135
0 0 138
0 0 137
0 0 138
0 0 134
0 0 133
0 0 138
0 0 139
0 0 138
0 0 136
0 0 138
0 0 140
0 0 138
0 0 140
0 0 137
0 0 140
0 0 140
0 0 140
0 0 140
0 0 140
0 0 139
0 0 140
0 0 140
0 0 140
0 0 140
0 0 140
0 0 140
0 0 140
0 0 140
0 0 140
0 0 140
0 0 140
0 0 140
0 0 140
0 0 140
0 0 140
0 0 140
0 0 140
0 0 140
0 0 140
0 0 140
0 0 140
0 0 140
0 0 140
0 0 140
0 0 140
0 0 140
0 0 140
0 0 140
0 0 140
0 0 140
0 0 140
0 0 140
0 0 140
0 0 140
0 0 140
0 0 140
0 0 140
0 0 140
0 0 140
0 0 140
0 0 140
0 0 140
0 0 140
0 0 140
0 0 140
0 0 140
0 0 140
0 0 140
0 0 140
0 0 140
0 0 140
0 0 140
0 0 140
0 0 140
0 0 140
0 0 140
0 0 140
0 0 140
0 0 140
0 0 140
0 0 140
0 0 140
0 0 140
0 0 140
0 0 140
0 0 140
0 0 140
0 0 140
0 0 140
0 0 140
0 0 140
0 0 140
0 0 140
0 0 140
0 0 140
0 0 140
0 0 140
0 0 140
0 0 140
0 0 140
0 0 140
0 0 140
0 0 140
0 0 140
0 0 140
0 0 140
0 0 140
0 0 140
0 0 140
0 0 140
0 0 140
0 0 140
0 0 140
0 0 140
0 0 140
0 0 140
0 0 140
0 0 140
0 0 140
0 0 140
0 0 140
0 0 140
0 0 140
0 0 140
0 0 140
0 0 140
0 0 140
0 0 140
0 0 140
0 0 140
0 0 140
0 0 140
0 0 140
0 0 140
0 0 140
0 0 140
0 0 140
0 0 140
0 0 140
0 0 140
77 0 96
106 0 0
112 0 0
120 0 0
100 0 0
122 0 0
115 0 0
105 0 0
108 0 0
122 0 0
112 0 0
112 0 0
122 0 0
89 0 0
104 0 0
111 0 0
115 0 0
107 0 0
108 0 0
117 0 0
116 0 0
116 0 0
109 0 0
126 0 0
108 0 0
117 0 0
105 0 0
122 0 0
117 0 0
105 0 0
107 0 0
104 0 0
99 0 0
114 0 0
110 0 0
106 0 0
106 0 0
110 0 0
110 0 0
106 0 0
116 0 0
115 0 0
105 0 0
115 0 0
121 0 0
122 0 0
105 0 0
97 0 0
113 0 0
112 0 0
108 0 0
124 0 0
118 0 0
125 0 0
116 0 0
108 0 0
128 0 0
108 0 0
109 0 0
110 0 0
111 0 0
119 0 0
112 0 0
107 0 0
108 0 0
126 0 0
116 0 0
125 0 0
116 0 0
116 0 0
114 0 0
115 0 0
111 0 0
103 0 0
128 0 0
114 0 0
119 0 0
119 0 0
110 0 0
99 0 0
111 0 0
109 0 0
105 0 0
114 0 0
116 0 0
110 0 0
107 0 0
104 0 0
125 0 0
107 0 0
114 0 0
113 0 0
109 0 0
95 0 0
105 0 0
118 0 0
114 0 0
109 0 0
113 0 0
112 0 0
106 0 0
97 0 0
122 0 0
113 0 0
118 0 0
103 0 0
127 0 0
119 0 0
114 0 0
105 0 0
106 0 0
115 0 0
115 0 0
112 0 0
104 0 0
120 0 0
101 0 0
116 0 0
108 0 0
82 0 89
0 0 140
0 0 140
0 0 140
0 0 140
0 0 140
0 0 140
0 0 140
0 0 140
0 0 140
0 0 140
0 0 140
0 0 140
0 0 140
0 0 140
0 0 140
0 0 140
0 0 140
0 0 140
0 0 140
0 0 140
0 0 140
0 0 140
0 0 140
0 0 140
0 0 140
0 0 140
0 0 140
0 0 140
0 0 140
0 0 140
0 0 140
0 0 140
0 0 140
0 0 140
0 0 140
0 0 140
0 0 140
0 0 140
0 0 140
0 0 140
0 0 140
0 0 140
0 0 140
0 0 140
0 0 140
0 0 140
0 0 140
0 0 140
0 0 140
0 0 140
0 0 140
0 0 140
0 0 140
0 0 140
0 0 140
0 0 140
0 0 140
0 0 140
0 0 140
0 0 140
0 0 140
0 0 140
0 0 140
0 0 140
0 0 140
0 0 140
0 0 140
0 0 140
0 0 140
0 0 140
0 0 140
0 0 140
0 0 140
0 0 140
0 0 140
0 0 140
0 0 140
0 0 140
0 0 140
0 0 140
0 0 140
0 0 140
0 0 140
0 0 140
0 0 140
0 0 140
0 0 140
0 0 140
0 0 140
0 0 140
0 0 140
0 0 140
0 0 140
0 0 140
0 0 140
0 0 140
0 0 140
0 0 140
0 0 140
0 0 140
0 0 140
0 0 140
0 0 140
0 0 140
0 0 140
0 0 140
0 0 140
0 0 140
0 0 140
0 0 140
0 0 140
0 0 140
0 0 140
0 0 140
0 0 140
0 0 140
0 0 140
0 0 140
0 0 140
0 0 140
0 0 140
0 0 140
0 0 140
0 0 140
0 0 138
0 0 140
0 0 138
0 0 138
0 0 137
0 0 138
0 0 138
0 0 138
0 0 139
0 0 140
0 0 137
0 0 138
0 0 138
0 0 138
0 0 136
0 0 138
0 0 139
0 0 140
0 0 140
0 0 140
0 0 139
0 0 139
0 0 140
0 0 139
0 0 140
0 0 140
0 0 140
0 0 140
0 0 140
0 0 140
0 0 140
0 0 140
0 0 140
0 0 140
0 0 140
0 0 140
0 0 140
0 0 140
0 0 140
0 0 140
0 0 140
0 0 140
0 0 140
0 0 140
0 0 140
0 0 140
0 0 140
0 0 140
0 0 140
0 0 140
0 0 140
0 0 140
0 0 140
0 0 140
0 0 140
0 0 140
0 0 140
0 0 140
0 0 140
0 0 140
0 0 140
0 0 140
0 0 140
0 0 140
0 0 140
0 0 140
0 0 140
0 0 140
0 0 140
0 0 140
0 0 140
0 0 140
0 0 140
0 0 140
0 0 140
0 0 140
0 0 140
0 0 140
0 0 140
0 0 140
0 0 140
0 0 140
0 0 140
0 0 140
0 0 140
0 0 140
0 0 140
0 0 140
0 0 140
0 0 140
0 0 140
0 0 140
0 0 140
0 0 140
0 0 140
0 0 140
0 0 140
0 0 140
0 0 140
0 0 140
0 0 140
0 0 140
0 0 140
0 0 140
0 0 140
0 0 140
0 0 140
0 0 140
0 0 140
0 0 140
0 0 140
0 0 140
0 0 140
0 0 140
0 0 140
0 0 140
0 0 140
0 0 140
0 0 140
0 0 140
0 0 140
0 0 140
0 0 140
0 0 140
0 0 140
0 0 140
0 0 140
0 0 140
0 0 140
0 0 140
0 0 140
0 0 140
0 0 140
0 0 140
0 0 140
0 0 140
0 0 140
0 0 140
0 0 140
0 0 140
0 0 140
0 0 140
0 0 140
0 0 140
0 0 140
0 0 140
0 0 140
0 0 140
0 0 140
0 0 140
0 0 140
0 0 140
0 0 140
0 0 140
0 0 140
0 0 140
25 0 135
106 0 14
102 0 0
112 0 0
108 0 0
109 0 0
123 0 0
102 0 0
121 0 0
111 0 0
108 0 0
116 0 0
107 0 0
112 0 0
103 0 0
115 0 0
100 0 0
115 0 0
108 0 0
118 0 0
112 0 0
104 0 0
120 0 0
108 0 0
111 0 0
112 0 0
113 0 0
108 0 0
108 0 0
111 0 0
102 0 0
123 0 0
110 0 0
112 0 0
96 0 0
106 0 0
125 0 0
102 0 0
110 0 0
110 0 0
113 0 0
107 0 0
114 0 0
112 0 0
104 0 0
107 0 0
121 0 0
115 0 0
126 0 0
117 0 0
119 0 0
122 0 0
106 0 0
115 0 0
111 0 0
119 0 0
116 0 0
104 0 0
109 0 0
113 0 0
121 0 0
118 0 0
115 0 0
109 0 0
108 0 0
101 0 0
111 0 0
126 0 0
108 0 0
114 0 0
106 0 0
112 0 0
121 0 0
115 0 0
118 0 0
119 0 0
117 0 0
116 0 0
120 0 0
116 0 0
125 0 0
118 0 0
114 0 0
105 0 0
111 0 0
117 0 0
96 0 0
118 0 0
111 0 0
116 0 0
119 0 0
127 0 0
105 0 0
116 0 0
110 0 0
100 0 0
101 0 0
102 0 0
104 0 0
113 0 0
116 0 0
113 0 0
117 0 0
108 0 0
106 0 0
118 0 0
114 0 0
105 0 0
110 0 0
115 0 0
113 0 0
110 0 0
111 0 0
100 0 0
105 0 0
112 0 0
111 0 0
112 0 0
113 0 19
41 0 132
0 0 140
0 0 140
0 0 140
0 0 140
0 0 140
0 0 140
0 0 140
0 0 140
0 0 140
0 0 140
0 0 140
0 0 140
0 0 140
0 0 140
0 0 140
0 0 140
0 0 140
0 0 140
0 0 140
0 0 140
0 0 140
0 0 140
0 0 140
0 0 140
0 0 140
0 0 140
0 0 140
0 0 140
0 0 140
0 0 140
0 0 140
0 0 140
0 0 140
0 0 140
0 0 140
0 0 140
0 0 140
0 0 140
0 0 140
0 0 140
0 0 140
0 0 140
0 0 140
0 0 140
0 0 140
0 0 140
0 0 140
0 0 140
0 0 140
0 0 140
0 0 140
0 0 140
0 0 140
0 0 140
0 0 140
0 0 140
0 0 140
0 0 140
0 0 140
0 0 140
0 0 140
0 0 140
0 0 140
0 0 140
0 0 140
0 0 140
0 0 140
0 0 140
0 0 140
0 0 140
0 0 140
0 0 140
0 0 140
0 0 140
0 0 140
0 0 140
0 0 140
0 0 140
0 0 140
0 0 140
0 0 140
0 0 140
0 0 140
0 0 140
0 0 140
0 0 140
0 0 140
0 0 140
0 0 140
0 0 140
0 0 140
0 0 140
0 0 140
0 0 140
0 0 140
0 0 140
0 0 140
0 0 140
0 0 140
0 0 140
0 0 140
0 0 140
0 0 140
0 0 140
0 0 140
0 0 140
0 0 140
0 0 140
0 0 140
0 0 140
0 0 140
0 0 140
0 0 140
0 0 140
0 0 140
0 0 140
0 0 140
0 0 140
0 0 140
0 0 140
0 0 140
0 0 140
0 0 140
0 0 140
0 0 140
0 0 140
0 0 140
0 0 140
0 0 140
0 0 140
0 0 140
0 0 140
0 0 140
0 0 140
0 0 139
0 0 139
0 0 140
0 0 140
0 0 138
0 0 138
0 0 140
0 0 140
0 0 140
0 0 140
0 0 140
0 0 140
0 0 140
0 0 140
0 0 140
0 0 140
0 0 140
0 0 140
0 0 140
0 0 140
0 0 140
0 0 140
0 0 140
0 0 140
0 0 140
0 0 140
0 0 140
0 0 140
0 0 140
0 0 140
0 0 140
0 0 140
0 0 140
0 0 140
0 0 140
0 0 140
0 0 140
0 0 140
0 0 140
0 0 140
0 0 140
0 0 140
0 0 140
0 0 140
0 0 140
0 0 140
0 0 140
0 0 140
0 0 140
0 0 140
0 0 140
0 0 140
0 0 140
0 0 140
0 0 140
0 0 140
0 0 140
0 0 140
0 0 140
0 0 140
0 0 140
0 0 140
0 0 140
0 0 140
0 0 140
0 0 140
0 0 140
0 0 140
0 0 140
0 0 140
0 0 140
0 0 140
0 0 140
0 0 140
0 0 140
0 0 140
0 0 140
0 0 140
0 0 140
0 0 140
0 0 140
0 0 140
0 0 140
0 0 140
0 0 140
0 0 140
0 0 140
0 0 140
0 0 140
0 0 140
0 0 140
0 0 140
0 0 140
0 0 140
0 0 140
0 0 140
0 0 140
0 0 140
0 0 140
0 0 140
0 0 140
0 0 140
0 0 140
0 0 140
0 0 140
0 0 140
0 0 140
0 0 140
0 0 140
0 0 140
0 0 140
0 0 140
0 0 140
0 0 140
0 0 140
0 0 140
0 0 140
0 0 140
0 0 140
0 0 140
0 0 140
0 0 140
0 0 140
0 0 140
0 0 140
0 0 140
0 0 140
0 0 140
0 0 140
0 0 140
0 0 140
0 0 140
0 0 140
0 0 140
0 0 140
0 0 140
0 0 140
0 0 140
0 0 140
0 0 140
0 0 140
0 0 140
0 0 140
0 0 140
0 0 140
0 0 140
0 0 140
80 0 79
98 0 0
95 0 0
107 0 0
109 0 0
107 0 0
106 0 0
111 0 0
110 0 0
105 0 0
115 0 0
101 0 0
107 0 0
112 0 0
125 0 0
118 0 0
104 0 0
99 0 0
97 0 0
112 0 0
102 0 0
110 0 0
106 0 0
115 0 0
104 0 0
120 0 0
116 0 0
103 0 0
113 0 0
109 0 0
114 0 0
118 0 0
106 0 0
118 0 0
112 0 0
114 0 0
99 0 0
102 0 0
97 0 0
111 0 0
105 0 0
121 0 0
102 0 0
120 0 0
101 0 0
115 0 0
98 0 0
119 0 0
125 0 0
107 0 0
118 0 0
117 0 0
123 0 0
111 0 0
104 0 0
106 0 0
113 0 0
114 0 0
109 0 0
105 0 0
111 0 0
108 0 0
109 0 0
116 0 0
108 0 0
95 0 0
108 0 0
116 0 0
126 0 0
109 0 0
98 0 0
104 0 0
111 0 0
126 0 0
118 0 0
116 0 0
107 0 0
109 0 0
115 0 0
116 0 0
119 0 0
115 0 0
108 0 0
110 0 0
98 0 0
103 0 0
115 0 0
101 0 0
107 0 0
110 0 0
105 0 0
111 0 0
115 0 0
117 0 0
100 0 0
106 0 0
107 0 0
102 0 0
103 0 0
115 0 0
109 0 0
112 0 0
103 0 0
107 0 0
105 0 0
116 0 0
107 0 0
122 0 0
110 0 0
111 0 0
113 0 0
107 0 0
109 0 0
115 0 0
113 0 0
113 0 0
98 0 0
68 0 98
0 0 140
0 0 140
0 0 140
0 0 140
0 0 140
0 0 140
0 0 140
0 0 140
0 0 140
0 0 140
0 0 140
0 0 140
0 0 140
0 0 140
0 0 140
0 0 140
0 0 140
0 0 140
0 0 140
0 0 140
0 0 140
0 0 140
0 0 140
0 0 140
0 0 140
0 0 140
0 0 140
0 0 140
0 0 140
0 0 140
0 0 140
0 0 140
0 0 140
0 0 140
0 0 140
0 0 140
0 0 140
0 0 140
0 0 140
0 0 140
0 0 140
0 0 140
0 0 140
0 0 140
0 0 140
0 0 140
0 0 140
0 0 140
0 0 140
0 0 140
0 0 140
0 0 140
0 0 140
0 0 140
0 0 140
0 0 140
0 0 140
0 0 140
0 0 140
0 0 140
0 0 140
0 0 140
0 0 140
0 0 140
0 0 140
0 0 140
0 0 140
0 0 140
0 0 140
0 0 140
0 0 140
0 0 140
0 0 140
0 0 140
0 0 140
0 0 140
0 0 140
0 0 140
0 0 140
0 0 140
0 0 140
0 0 140
0 0 140
0 0 140
0 0 140
0 0 140
0 0 140
0 0 140
0 0 140
0 0 140
0 0 140
0 0 140
0 0 140
0 0 140
0 0 140
0 0 140
0 0 140
0 0 140
0 0 140
0 0 140
0 0 140
0 0 140
0 0 140
0 0 140
0 0 140
0 0 140
0 0 140
0 0 140
0 0 140
0 0 140
0 0 140
0 0 140
0 0 140
0 0 140
0 0 140
0 0 140
0 0 140
0 0 140
0 0 140
0 0 140
0 0 140
0 0 140
0 0 140
0 0 140
0 0 140
0 0 140
0 0 140
0 0 140
0 0 140
0 0 140
0 0 140
0 0 140
0 0 140
0 0 140
0 0 140
0 0 140
0 0 140
0 0 140
0 0 140
0 0 140
0 0 140
0 0 140
0 0 140
0 0 140
0 0 140
0 0 140
0 0 140
0 0 140
0 0 140
0 0 140
0 0 140
0 0 140
0 0 140
0 0 140
0 0 140
0 0 140
0 0 140
0 0 140
0 0 140
0 0 140
0 0 140
0 0 140
0 0 140
0 0 140
0 0 140
0 0 140
0 0 140
0 0 140
0 0 140
0 0 140
0 0 140
0 0 140
0 0 140
0 0 140
0 0 140
0 0 140
0 0 140
0 0 140
0 0 140
0 0 140
0 0 140
0 0 140
0 0 140
0 0 140
0 0 140
0 0 140
0 0 140
0 0 140
0 0 140
0 0 140
0 0 140
0 0 140
0 0 140
0 0 140
0 0 140
0 0 140
0 0 140
0 0 140
0 0 140
0 0 140
0 0 140
0 0 140
0 0 140
0 0 140
0 0 140
0 0 140
0 0 140
0 0 140
0 0 140
0 0 140
0 0 140
0 0 140
0 0 140
0 0 140
0 0 140
0 0 140
0 0 140
0 0 140
0 0 140
0 0 140
0 0 140
0 0 140
0 0 140
0 0 140
0 0 140
0 0 140
0 0 140
0 0 140
0 0 140
0 0 140
0 0 140
0 0 140
0 0 140
0 0 140
0 0 140
0 0 140
0 0 140
0 0 140
0 0 140
0 0 140
0 0 140
0 0 140
0 0 140
0 0 140
0 0 140
0 0 140
0 0 140
0 0 140
0 0 140
0 0 140
0 0 140
0 0 140
0 0 140
0 0 140
0 0 140
0 0 140
0 0 140
0 0 140
0 0 140
0 0 140
0 0 140
0 0 140
0 0 140
0 0 140
0 0 140
0 0 140
0 0 140
0 0 140
0 0 140
0 0 140
0 0 140
0 0 140
0 0 140
0 0 140
0 0 140
0 0 140
0 0 140
0 0 140
0 0 140
0 0 140
0 0 140
0 0 140
0 0 135
102 0 0
112 0 0
111 0 0
104 0 0
112 0 0
112 0 0
103 0 0
102 0 0
110 0 0
103 0 0
101 0 0
104 0 0
101 0 0
103 0 0
105 0 0
106 0 0
110 0 0
107 0 0
108 0 0
109 0 0
108 0 0
108 0 0
101 0 0
114 0 0
113 0 0
104 0 0
105 0 0
108 0 0
106 0 0
118 0 0
110 0 0
112 0 0
98 0 0
110 0 0
113 0 0
99 0 0
112 0 0
104 0 0
112 0 0
109 0 0
107 0 0
115 0 0
113 0 0
107 0 0
116 0 0
119 0 0
92 0 0
109 0 0
111 0 0
123 0 0
102 0 0
97 0 0
107 0 0
114 0 0
108 0 0
109 0 0
107 0 0
116 0 0
108 0 0
108 0 0
102 0 0
124 0 0
110 0 0
130 0 0
118 0 0
109 0 0
120 0 0
110 0 0
108 0 0
115 0 0
114 0 0
105 0 0
119 0 0
111 0 0
112 0 0
103 0 0
111 0 0
110 0 0
101 0 0
114 0 0
126 0 0
110 0 0
117 0 0
115 0 0
95 0 0
90 0 0
113 0 0
115 0 0
112 0 0
117 0 0
116 0 0
110 0 0
101 0 0
109 0 0
113 0 0
110 0 0
111 0 0
113 0 0
115 0 0
105 0 0
106 0 0
117 0 0
113 0 0
118 0 0
88 0 0
116 0 0
102 0 0
104 0 0
102 0 0
96 0 0
107 0 0
115 0 0
106 0 0
93 0 0
103 0 0
110 0 28
29 0 131
0 0 140
0 0 140
0 0 140
0 0 140
0 0 140
0 0 140
0 0 140
0 0 140
0 0 140
0 0 140
0 0 140
0 0 140
0 0 140
0 0 140
0 0 140
0 0 140
0 0 140
0 0 140
0 0 140
0 0 140
0 0 140
0 0 140
0 0 140
0 0 140
0 0 140
0 0 140
0 0 140
0 0 140
0 0 140
0 0 140
0 0 140
0 0 140
0 0 140
0 0 140
0 0 140
0 0 140
0 0 140
0 0 140
0 0 140
0 0 140
0 0 140
0 0 140
0 0 140
0 0 140
0 0 140
0 0 140
0 0 140
0 0 140
0 0 140
0 0 140
0 0 140
0 0 140
0 0 140
0 0 140
0 0 140
0 0 140
0 0 140
0 0 140
0 0 140
0 0 140
0 0 140
0 0 140
0 0 140
0 0 140
0 0 140
0 0 140
0 0 140
0 0 140
0 0 140
0 0 140
0 0 140
0 0 140
0 0 140
0 0 140
0 0 140
0 0 140
0 0 140
0 0 140
0 0 140
0 0 140
0 0 140
0 0 140
0 0 140
0 0 140
0 0 140
0 0 140
0 0 140
0 0 140
0 0 140
0 0 140
0 0 140
0 0 140
0 0 140
0 0 140
0 0 140
0 0 140
0 0 140
0 0 140
0 0 140
0 0 140
0 0 140
0 0 140
0 0 140
0 0 140
0 0 140
0 0 140
0 0 140
0 0 140
0 0 140
0 0 140
0 0 140
0 0 140
0 0 140
0 0 140
0 0 140
0 0 140
0 0 140
0 0 140
0 0 140
0 0 140
0 0 140
0 0 140
0 0 140
0 0 140
0 0 140
0 0 140
0 0 140
0 0 140
0 0 140
0 0 140
0 0 140
0 0 140
0 0 140
0 0 140
0 0 140
0 0 140
0 0 140
0 0 140
0 0 140
0 0 140
0 0 140
0 0 140
0 0 140
0 0 140
0 0 140
0 0 140
0 0 140
0 0 140
0 0 140
0 0 140
0 0 140
0 0 140
0 0 140
0 0 140
0 0 140
0 0 140
0 0 140
0 0 140
0 0 140
0 0 140
0 0 140
0 0 140
0 0 140
0 0 140
0 0 140
0 0 140
0 0 140
0 0 140
0 0 140
0 0 140
0 0 140
0 0 140
0 0 140
0 0 140
0 0 140
0 0 140
0 0 140
0 0 140
0 0 140
0 0 140
0 0 140
0 0 140
0 0 140
0 0 140
0 0 140
0 0 140
0 0 140
0 0 140
0 0 140
0 0 140
0 0 140
0 0 140
0 0 140
0 0 140
0 0 140
0 0 140
0 0 140
0 0 140
0 0 140
0 0 140
0 0 140
0 0 140
0 0 140
0 0 140
0 0 140
0 0 140
0 0 140
0 0 140
0 0 140
0 0 140
0 0 140
0 0 140
0 0 140
0 0 140
0 0 140
0 0 140
0 0 140
0 0 140
0 0 140
0 0 140
0 0 140
0 0 140
0 0 140
0 0 140
0 0 140
0 0 140
0 0 140
0 0 140
0 0 140
0 0 140
0 0 140
0 0 140
0 0 140
0 0 140
0 0 140
0 0 140
0 0 140
0 0 140
0 0 140
0 0 140
0 0 140
0 0 140
0 0 140
0 0 140
0 0 140
0 0 140
0 0 140
0 0 140
0 0 140
0 0 140
0 0 140
0 0 140
0 0 140
0 0 140
0 0 140
0 0 140
0 0 140
0 0 140
0 0 140
0 0 140
0 0 140
0 0 140
0 0 140
0 0 140
0 0 140
0 0 140
0 0 140
0 0 140
0 0 140
0 0 140
0 0 140
0 0 140
0 0 140
0 0 140
0 0 140
0 0 140
0 0 140
0 0 140
0 0 140
0 0 140
0 0 140
0 0 140
0 0 140
79 0 81
109 0 0
95 0 0
105 0 0
107 0 0
110 0 0
109 0 0
103 0 0
109 0 0
115 0 0
107 0 0
109 0 0
108 0 0
91 0 0
109 0 0
115 0 0
113 0 0
106 0 0
111 0 0
97 0 0
110 0 0
113 0 0
110 0 0
116 0 0
88 0 0
105 0 0
101 0 0
114 0 0
119 0 0
105 0 0
107 0 0
106 0 0
121 0 0
114 0 0
102 0 0
116 0 0
114 0 0
109 0 0
107 0 0
120 0 0
107 0 0
92 0 0
98 0 0
115 0 0
111 0 0
111 0 0
93 0 0
123 0 0
107 0 0
119 0 0
110 0 0
119 0 0
94 0 0
104 0 0
107 0 0
105 0 0
124 0 0
105 0 0
98 0 0
125 0 0
115 0 0
117 0 0
107 0 0
117 0 0
125 0 0
108 0 0
118 0 0
118 0 0
101 0 0
111 0 0
103 0 0
113 0 0
101 0 0
117 0 0
103 0 0
100 0 0
116 0 0
116 0 0
98 0 0
118 0 0
106 0 0
127 0 0
110 0 0
109 0 0
113 0 0
115 0 0
109 0 0
116 0 0
112 0 0
116 0 0
116 0 0
104 0 0
101 0 0
103 0 0
109 0 0
104 0 0
106 0 0
116 0 0
113 0 0
112 0 0
107 0 0
110 0 0
118 0 0
109 0 0
105 0 0
107 0 0
104 0 0
108 0 0
99 0 0
102 0 0
104 0 0
107 0 0
88 0 0
98 0 0
98 0 0
76 0 89
0 0 140
0 0 140
0 0 140
0 0 140
0 0 140
0 0 140
0 0 140
0 0 140
0 0 140
0 0 140
0 0 140
0 0 140
0 0 140
0 0 140
0 0 140
0 0 140
0 0 140
0 0 140
0 0 140
0 0 140
0 0 140
0 0 140
0 0 140
0 0 140
0 0 140
0 0 140
0 0 140
0 0 140
0 0 140
0 0 140
0 0 140
0 0 140
0 0 140
0 0 140
0 0 140
0 0 140
0 0 140
0 0 140
0 0 140
0 0 140
0 0 140
0 0 140
0 0 140
0 0 140
0 0 140
0 0 140
0 0 140
0 0 140
0 0 140
0 0 140
0 0 140
0 0 140
0 0 140
0 0 140
0 0 140
0 0 140
0 0 140
0 0 140
0 0 140
0 0 140
0 0 140
0 0 140
0 0 140
0 0 140
0 0 140
0 0 140
0 0 140
0 0 140
0 0 140
0 0 140
0 0 140
0 0 140
0 0 140
0 0 140
0 0 140
0 0 140
0 0 140
0 0 140
0 0 140
0 0 140
0 0 140
0 0 140
0 0 140
0 0 140
0 0 140
0 0 140
0 0 140
0 0 140
0 0 140
0 0 140
0 0 140
0 0 140
0 0 140
0 0 140
0 0 140
0 0 140
0 0 140
0 0 140
0 0 140
0 0 140
0 0 140
0 0 140
0 0 140
0 0 140
0 0 140
0 0 140
0 0 140
0 0 140
0 0 140
0 0 140
0 0 140
0 0 140
0 0 140
0 0 140
0 0 140
0 0 140
0 0 140
0 0 140
0 0 140
0 0 140
0 0 140
0 0 140
0 0 140
0 0 140
0 0 140
0 0 140
0 0 140
0 0 140
0 0 140
0 0 140
0 0 140
0 0 140
0 0 140
0 0 140
0 0 140
0 0 140
0 0 140
0 0 140
0 0 140
0 0 140
0 0 140
0 0 140
0 0 140
0 0 140
0 0 140
0 0 140
0 0 140
0 0 140
0 0 140
0 0 140
0 0 140
0 0 140
0 0 140
0 0 140
0 0 140
0 0 140
0 0 140
0 0 140
0 0 140
0 0 140
0 0 140
0 0 140
0 0 140
0 0 140
0 0 140
0 0 140
0 0 140
0 0 140
0 0 140
0 0 140
0 0 140
0 0 140
0 0 140
0 0 140
0 0 140
0 0 140
0 0 140
0 0 140
0 0 140
0 0 140
0 0 140
0 0 140
0 0 140
0 0 140
0 0 140
0 0 140
0 0 140
0 0 140
0 0 140
0 0 140
0 0 140
0 0 140
0 0 140
0 0 140
0 0 140
0 0 140
0 0 140
0 0 140
0 0 140
0 0 140
0 0 140
0 0 140
0 0 140
0 0 140
0 0 140
0 0 140
0 0 140
0 0 140
0 0 140
0 0 140
0 0 140
0 0 140
0 0 140
0 0 140
0 0 140
0 0 140
0 0 140
0 0 140
0 0 140
0 0 140
0 0 140
0 0 140
0 0 140
0 0 140
0 0 140
0 0 140
0 0 140
0 0 140
0 0 140
0 0 140
0 0 140
0 0 140
0 0 140
0 0 140
0 0 140
0 0 140
0 0 140
0 0 140
0 0 140
0 0 140
0 0 140
0 0 140
0 0 140
0 0 140
0 0 140
0 0 140
0 0 140
0 0 140
0 0 140
0 0 140
0 0 140
0 0 140
0 0 140
0 0 140
0 0 140
0 0 140
0 0 140
0 0 140
0 0 140
0 0 140
0 0 140
0 0 140
0 0 140
0 0 140
0 0 140
0 0 140
0 0 140
0 0 140
0 0 140
0 0 140
0 0 140
0 0 140
0 0 140
0 0 140
0 0 140
0 0 140
0 0 140
0 0 140
0 0 140
0 0 140
0 0 140
0 0 140
0 0 140
0 0 140
26 0 135
103 0 14
102 0 0
106 0 0
103 0 0
100 0 0
109 0 0
105 0 0
114 0 0
111 0 0
118 0 0
102 0 0
104 0 0
111 0 0
119 0 0
112 0 0
100 0 0
98 0 0
111 0 0
106 0 0
101 0 0
114 0 0
107 0 0
113 0 0
109 0 0
109 0 0
105 0 0
114 0 0
100 0 0
114 0 0
112 0 0
119 0 0
110 0 0
106 0 0
101 0 0
106 0 0
121 0 0
122 0 0
124 0 0
120 0 0
120 0 0
95 0 0
105 0 0
108 0 0
100 0 0
114 0 0
111 0 0
91 0 0
111 0 0
121 0 0
113 0 0
98 0 0
110 0 0
114 0 0
107 0 0
118 0 0
110 0 0
105 0 0
105 0 0
117 0 0
95 0 0
105 0 0
111 0 0
107 0 0
106 0 0
110 0 0
111 0 0
115 0 0
92 0 0
103 0 0
115 0 0
110 0 0
111 0 0
102 0 0
111 0 0
112 0 0
102 0 0
110 0 0
109 0 0
116 0 0
103 0 0
113 0 0
108 0 0
120 0 0
112 0 0
120 0 0
97 0 0
120 0 0
123 0 0
106 0 0
115 0 0
120 0 0
125 0 0
104 0 0
109 0 0
103 0 0
109 0 0
108 0 0
112 0 0
105 0 0
109 0 0
101 0 0
118 0 0
101 0 0
116 0 0
106 0 0
111 0 0
104 0 0
100 0 0
107 0 0
103 0 0
106 0 0
106 0 0
106 0 0
105 0 31
39 0 131
0 0 140
0 0 140
0 0 140
0 0 140
0 0 140
0 0 140
0 0 140
0 0 140
0 0 140
0 0 140
0 0 140
0 0 140
0 0 140
0 0 140
0 0 140
0 0 140
0 0 140
0 0 140
0 0 140
0 0 140
0 0 140
0 0 140
0 0 140
0 0 140
0 0 140
0 0 140
0 0 140
0 0 140
0 0 140
0 0 140
0 0 140
0 0 140
0 0 140
0 0 140
0 0 140
0 0 140
0 0 140
0 0 140
0 0 140
0 0 140
0 0 140
0 0 140
0 0 140
0 0 140
0 0 140
0 0 140
0 0 140
0 0 140
0 0 140
0 0 140
0 0 140
0 0 140
0 0 140
0 0 140
0 0 140
0 0 140
0 0 140
0 0 140
0 0 140
0 0 140
0 0 140
0 0 140
0 0 140
0 0 140
0 0 140
0 0 140
0 0 140
0 0 140
0 0 140
0 0 140
0 0 140
0 0 140
0 0 140
0 0 140
0 0 140
0 0 140
0 0 140
0 0 140
0 0 140
0 0 140
0 0 140
0 0 140
0 0 140
0 0 140
0 0 140
0 0 140
0 0 140
0 0 140
0 0 140
0 0 140
0 0 140
0 0 140
0 0 140
0 0 140
0 0 140
0 0 140
0 0 140
0 0 140
0 0 140
0 0 140
0 0 140
0 0 140
0 0 140
0 0 140
0 0 140
0 0 140
0 0 140
0 0 140
0 0 140
0 0 140
0 0 140
0 0 140
0 0 140
0 0 140
0 0 140
0 0 140
0 0 140
0 0 140
0 0 140
0 0 140
0 0 140
0 0 140
0 0 140
0 0 140
0 0 140
0 0 140
0 0 140
0 0 140
0 0 140
0 0 140
0 0 140
0 0 140
0 0 140
0 0 140
0 0 140
0 0 140
0 0 140
0 0 140
0 0 140
0 0 140
0 0 140
0 0 140
0 0 140
0 0 140
0 0 140
0 0 140
0 0 140
0 0 140
0 0 140
0 0 140
0 0 140
0 0 140
0 0 140
0 0 140
0 0 140
0 0 140
0 0 140
0 0 140
0 0 140
0 0 140
0 0 140
0 0 140
0 0 140
0 0 140
0 0 140
0 0 140
0 0 140
0 0 140
0 0 140
0 0 140
0 0 140
0 0 140
0 0 140
0 0 140
0 0 140
0 0 140
0 0 140
0 0 140
0 0 140
0 0 140
0 0 140
0 0 140
0 0 140
0 0 140
0 0 140
0 0 140
0 0 140
0 0 140
0 0 140
0 0 140
0 0 140
0 0 140
0 0 140
0 0 140
0 0 140
0 0 140
0 0 140
0 0 140
0 0 140
0 0 140
0 0 140
0 0 140
0 0 140
0 0 140
0 0 140
0 0 140
0 0 140
0 0 140
0 0 140
0 0 140
0 0 140
0 0 140
0 0 140
0 0 140
0 0 140
0 0 140
0 0 140
0 0 140
0 0 140
0 0 140
0 0 140
0 0 140
0 0 140
0 0 140
0 0 140
0 0 140
0 0 140
0 0 140
0 0 140
0 0 140
0 0 140
0 0 140
0 0 140
0 0 140
0 0 140
0 0 140
0 0 140
0 0 140
0 0 140
0 0 140
0 0 140
0 0 140
0 0 140
0 0 140
0 0 140
0 0 140
0 0 140
0 0 140
0 0 140
0 0 140
0 0 140
0 0 140
0 0 140
0 0 140
0 0 140
0 0 140
0 0 140
0 0 140
0 0 140
0 0 140
0 0 140
0 0 140
0 0 140
0 0 140
0 0 140
0 0 140
0 0 140
0 0 140
0 0 140
0 0 140
0 0 140
0 0 140
0 0 140
0 0 140
0 0 140
0 0 140
0 0 140
0 0 140
0 0 140
0 0 140
0 0 140
0 0 140
0 0 140
0 0 140
0 0 140
69 0 105
97 0 0
104 0 0
98 0 0
105 0 0
113 0 0
101 0 0
108 0 0
100 0 0
99 0 0
111 0 0
101 0 0
114 0 0
108 0 0
102 0 0
114 0 0
109 0 0
105 0 0
108 0 0
103 0 0
102 0 0
103 0 0
100 0 0
115 0 0
101 0 0
97 0 0
124 0 0
92 0 0
113 0 0
113 0 0
109 0 0
103 0 0
114 0 0
109 0 0
111 0 0
112 0 0
104 0 0
117 0 0
109 0 0
104 0 0
113 0 0
114 0 0
103 0 0
98 0 0
104 0 0
113 0 0
110 0 0
101 0 0
112 0 0
112 0 0
98 0 0
101 0 0
107 0 0
106 0 0
113 0 0
106 0 0
102 0 0
110 0 0
102 0 0
103 0 0
109 0 0
107 0 0
109 0 0
113 0 0
118 0 0
118 0 0
107 0 0
107 0 0
107 0 0
104 0 0
106 0 0
110 0 0
119 0 0
101 0 0
111 0 0
110 0 0
122 0 0
101 0 0
108 0 0
107 0 0
110 0 0
99 0 0
115 0 0
99 0 0
112 0 0
94 0 0
122 0 0
105 0 0
114 0 0
96 0 0
107 0 0
128 0 0
100 0 0
109 0 0
99 0 0
114 0 0
105 0 0
103 0 0
106 0 0
99 0 0
100 0 0
110 0 0
111 0 0
112 0 0
95 0 0
116 0 0
103 0 0
101 0 0
105 0 0
104 0 0
93 0 0
108 0 0
91 0 0
67 0 102
0 0 140
0 0 140
0 0 140
0 0 140
0 0 140
0 0 140
0 0 140
0 0 140
0 0 140
0 0 140
0 0 140
0 0 140
0 0 140
0 0 140
0 0 140
0 0 140
0 0 140
0 0 140
0 0 140
0 0 140
0 0 140
0 0 140
0 0 140
0 0 140
0 0 140
0 0 140
0 0 140
0 0 140
0 0 140
0 0 140
0 0 140
0 0 140
0 0 140
0 0 140
0 0 140
0 0 140
0 0 140
0 0 140
0 0 140
0 0 140
0 0 140
0 0 140
0 0 140
0 0 140
0 0 140
0 0 140
0 0 140
0 0 140
0 0 140
0 0 140
0 0 140
0 0 140
0 0 140
0 0 140
0 0 140
0 0 140
0 0 140
0 0 140
0 0 140
0 0 140
0 0 140
0 0 140
0 0 140
0 0 140
0 0 140
0 0 140
0 0 140
0 0 140
0 0 140
0 0 140
0 0 140
0 0 140
0 0 140
0 0 140
0 0 140
0 0 140
0 0 140
0 0 140
0 0 140
0 0 140
0 0 140
0 0 140
0 0 140
0 0 140
0 0 140
0 0 140
0 0 140
0 0 140
0 0 140
0 0 140
0 0 140
0 0 140
0 0 140
0 0 140
0 0 140
0 0 140
0 0 140
0 0 140
0 0 140
0 0 140
0 0 140
0 0 140
0 0 140
0 0 140
0 0 140
0 0 140
0 0 140
0 0 140
0 0 140
0 0 140
0 0 140
0 0 140
0 0 140
0 0 140
0 0 140
0 0 140
0 0 140
0 0 140
0 0 140
0 0 140
0 0 140
0 0 140
0 0 140
0 0 140
0 0 140
0 0 140
0 0 140
0 0 140
0 0 140
0 0 140
0 0 140
0 0 140
0 0 140
0 0 140
0 0 140
0 0 140
0 0 140
0 0 140
0 0 140
0 0 140
0 0 140
0 0 140
0 0 140
0 0 140
0 0 140
0 0 140
0 0 140
0 0 140
0 0 140
0 0 140
0 0 140
0 0 140
0 0 140
0 0 140
0 0 140
0 0 140
0 0 140
0 0 140
0 0 140
0 0 140
0 0 140
0 0 140
0 0 140
0 0 140
0 0 140
0 0 140
0 0 140
0 0 140
0 0 140
0 0 140
0 0 140
0 0 140
0 0 140
0 0 140
0 0 140
0 0 140
0 0 140
0 0 140
0 0 140
0 0 140
0 0 140
0 0 140
0 0 140
0 0 140
0 0 140
0 0 140
0 0 140
0 0 140
0 0 140
0 0 140
0 0 140
0 0 140
0 0 140
0 0 140
0 0 140
0 0 140
0 0 140
0 0 140
0 0 140
0 0 140
0 0 140
0 0 140
0 0 140
0 0 140
0 0 140
0 0 140
0 0 140
0 0 140
0 0 140
0 0 140
0 0 140
0 0 140
0 0 140
0 0 140
0 0 140
0 0 140
0 0 140
0 0 140
0 0 140
0 0 140
0 0 140
0 0 140
0 0 140
0 0 140
0 0 140
0 0 140
0 0 140
0 0 140
0 0 140
0 0 140
0 0 140
0 0 140
0 0 140
0 0 140
0 0 140
0 0 140
0 0 140
0 0 140
0 0 140
0 0 140
0 0 140
0 0 140
0 0 140
0 0 140
0 0 140
0 0 140
0 0 140
0 0 140
0 0 140
0 0 140
0 0 140
0 0 140
0 0 140
0 0 140
0 0 140
0 0 140
0 0 140
0 0 140
0 0 140
0 0 140
0 0 140
0 0 140
0 0 140
0 0 140
0 0 140
0 0 140
0 0 140
0 0 140
0 0 140
0 0 140
0 0 140
0 0 140
0 0 140
0 0 140
0 0 140
0 0 140
0 0 140
0 0 140
0 0 140
0 0 140
0 0 140
0 0 140
0 0 140
0 0 140
0 0 140
0 0 140
0 0 137
99 0 46
100 0 0
101 0 0
110 0 0
108 0 0
104 0 0
99 0 0
116 0 0
105 0 0
103 0 0
100 0 0
107 0 0
117 0 0
103 0 0
104 0 0
95 0 0
106 0 0
107 0 0
102 0 0
105 0 0
90 0 0
103 0 0
105 0 0
121 0 0
98 0 0
120 0 0
115 0 0
106 0 0
111 0 0
92 0 0
101 0 0
107 0 0
106 0 0
114 0 0
104 0 0
98 0 0
104 0 0
103 0 0
94 0 0
104 0 0
114 0 0
111 0 0
104 0 0
112 0 0
103 0 0
105 0 0
107 0 0
105 0 0
96 0 0
117 0 0
111 0 0
107 0 0
107 0 0
116 0 0
115 0 0
112 0 0
105 0 0
107 0 0
97 0 0
99 0 0
106 0 0
103 0 0
106 0 0
107 0 0
102 0 0
105 0 0
107 0 0
96 0 0
104 0 0
83 0 0
108 0 0
90 0 0
102 0 0
101 0 0
115 0 0
114 0 0
124 0 0
105 0 0
109 0 0
102 0 0
103 0 0
104 0 0
101 0 0
105 0 0
102 0 0
117 0 0
94 0 0
109 0 0
110 0 0
104 0 0
108 0 0
108 0 0
105 0 0
90 0 0
100 0 0
108 0 0
104 0 0
102 0 0
97 0 0
115 0 0
112 0 0
109 0 0
93 0 0
88 0 0
113 0 0
102 0 0
104 0 0
112 0 0
96 0 0
102 0 0
107 0 0
72 0 54
18 0 134
0 0 140
0 0 140
0 0 140
0 0 140
0 0 140
0 0 140
0 0 140
0 0 140
0 0 140
0 0 140
0 0 140
0 0 140
0 0 140
0 0 140
0 0 140
0 0 140
0 0 140
0 0 140
0 0 140
0 0 140
0 0 140
0 0 140
0 0 140
0 0 140
0 0 140
0 0 140
0 0 140
0 0 140
0 0 140
0 0 140
0 0 140
0 0 140
0 0 140
0 0 140
0 0 140
0 0 140
0 0 140
0 0 140
0 0 140
0 0 140
0 0 140
0 0 140
0 0 140
0 0 140
0 0 140
0 0 140
0 0 140
0 0 140
0 0 140
0 0 140
0 0 140
0 0 140
0 0 140
0 0 140
0 0 140
0 0 140
0 0 140
0 0 140
0 0 140
0 0 140
0 0 140
0 0 140
0 0 140
0 0 140
0 0 140
0 0 140
0 0 140
0 0 140
0 0 140
0 0 140
0 0 140
0 0 140
0 0 140
0 0 140
0 0 140
0 0 140
0 0 140
0 0 140
0 0 140
0 0 140
0 0 140
0 0 140
0 0 140
0 0 140
0 0 140
0 0 140
0 0 140
0 0 140
0 0 140
0 0 140
0 0 140
0 0 140
0 0 140
0 0 140
0 0 140
0 0 140
0 0 140
0 0 140
0 0 140
0 0 140
0 0 140
0 0 140
0 0 140
0 0 140
0 0 140
0 0 140
0 0 140
0 0 140
0 0 140
0 0 140
0 0 140
0 0 140
0 0 140
0 0 140
0 0 140
0 0 140
0 0 140
0 0 140
0 0 140
0 0 140
0 0 140
0 0 140
0 0 140
0 0 140
0 0 140
0 0 140
0 0 140
0 0 140
0 0 140
0 0 140
0 0 140
0 0 140
0 0 140
0 0 140
0 0 140
0 0 140
0 0 140
0 0 140
0 0 140
0 0 140
0 0 140
0 0 140
0 0 140
0 0 140
0 0 140
0 0 140
0 0 140
0 0 140
0 0 140
0 0 140
0 0 140
0 0 140
0 0 140
0 0 140
0 0 140
0 0 140
0 0 140
0 0 140
0 0 140
0 0 140
0 0 140
0 0 140
0 0 140
0 0 140
0 0 140
0 0 140
0 0 140
0 0 140
0 0 140
0 0 140
0 0 140
0 0 140
0 0 140
0 0 140
0 0 140
0 0 140
0 0 140
0 0 140
0 0 140
0 0 140
0 0 140
0 0 140
0 0 140
0 0 140
0 0 140
0 0 140
0 0 140
0 0 140
0 0 140
0 0 140
0 0 140
0 0 140
0 0 140
0 0 140
0 0 140
0 0 140
0 0 140
0 0 140
0 0 140
0 0 140
0 0 140
0 0 140
0 0 140
0 0 140
0 0 140
0 0 140
0 0 140
0 0 140
0 0 140
0 0 140
0 0 140
0 0 140
0 0 140
0 0 140
0 0 140
0 0 140
0 0 140
0 0 140
0 0 140
0 0 140
0 0 140
0 0 140
0 0 140
0 0 140
0 0 140
0 0 140
0 0 140
0 0 140
0 0 140
0 0 140
0 0 140
0 0 140
0 0 140
0 0 140
0 0 140
0 0 140
0 0 140
0 0 140
0 0 140
0 0 140
0 0 140
0 0 140
0 0 140
0 0 140
0 0 140
0 0 140
0 0 140
0 0 140
0 0 140
0 0 140
0 0 140
0 0 140
0 0 140
0 0 140
0 0 140
0 0 140
0 0 140
0 0 140
0 0 140
0 0 140
0 0 140
0 0 140
0 0 140
0 0 140
0 0 140
0 0 140
0 0 140
0 0 140
0 0 140
0 0 140
0 0 140
0 0 140
0 0 140
0 0 140
0 0 140
0 0 140
0 0 140
0 0 140
0 0 140
0 0 140
0 0 140
0 0 140
0 0 140
0 0 140
0 0 140
0 0 140
0 0 140
58 0 118
88 0 0
89 0 0
107 0 0
109 0 0
109 0 0
107 0 0
82 0 0
88 0 0
103 0 0
99 0 0
104 0 0
108 0 0
94 0 0
106 0 0
106 0 0
107 0 0
107 0 0
95 0 0
113 0 0
103 0 0
97 0 0
115 0 0
92 0 0
102 0 0
109 0 0
99 0 0
94 0 0
107 0 0
103 0 0
105 0 0
106 0 0
109 0 0
96 0 0
115 0 0
106 0 0
106 0 0
104 0 0
110 0 0
110 0 0
110 0 0
101 0 0
111 0 0
99 0 0
95 0 0
112 0 0
105 0 0
90 0 0
118 0 0
101 0 0
109 0 0
114 0 0
111 0 0
106 0 0
101 0 0
101 0 0
122 0 0
112 0 0
111 0 0
99 0 0
110 0 0
109 0 0
97 0 0
105 0 0
98 0 0
101 0 0
119 0 0
101 0 0
111 0 0
106 0 0
105 0 0
98 0 0
110 0 0
109 0 0
113 0 0
99 0 0
108 0 0
99 0 0
101 0 0
111 0 0
80 0 0
106 0 0
98 0 0
112 0 0
113 0 0
113 0 0
102 0 0
111 0 0
108 0 0
98 0 0
112 0 0
100 0 0
103 0 0
111 0 0
112 0 0
111 0 0
122 0 0
83 0 0
98 0 0
101 0 0
114 0 0
106 0 0
105 0 0
110 0 0
102 0 0
110 0 0
105 0 0
96 0 0
104 0 0
101 0 0
91 0 0
46 0 109
0 0 140
0 0 140
0 0 140
0 0 140
0 0 140
0 0 140
0 0 140
0 0 140
0 0 140
0 0 140
0 0 140
0 0 140
0 0 140
0 0 140
0 0 140
0 0 140
0 0 140
0 0 140
0 0 140
0 0 140
0 0 140
0 0 140
0 0 140
0 0 140
0 0 140
0 0 140
0 0 140
0 0 140
0 0 140
0 0 140
0 0 140
0 0 140
0 0 140
0 0 140
0 0 140
0 0 140
0 0 140
0 0 140
0 0 140
0 0 140
0 0 140
0 0 140
0 0 140
0 0 140
0 0 140
0 0 140
0 0 140
0 0 140
0 0 140
0 0 140
0 0 140
0 0 140
0 0 140
0 0 140
0 0 140
0 0 140
0 0 140
0 0 140
0 0 140
0 0 140
0 0 140
0 0 140
0 0 140
0 0 140
0 0 140
0 0 140
0 0 140
0 0 140
0 0 140
0 0 140
0 0 140
0 0 140
0 0 140
0 0 140
0 0 140
0 0 140
0 0 140
0 0 140
0 0 140
0 0 140
0 0 140
0 0 140
0 0 140
0 0 140
0 0 140
0 0 140
0 0 140
0 0 140
0 0 140
0 0 140
0 0 140
0 0 140
0 0 140
0 0 140
0 0 140
0 0 140
0 0 140
0 0 140
0 0 140
0 0 140
0 0 140
0 0 140
0 0 140
0 0 140
0 0 140
0 0 140
0 0 140
0 0 140
0 0 140
0 0 140
0 0 140
0 0 140
0 0 140
0 0 140
0 0 140
0 0 140
0 0 140
0 0 140
0 0 140
0 0 140
0 0 140
0 0 140
0 0 140
0 0 140
0 0 140
0 0 140
0 0 140
0 0 140
0 0 140
0 0 140
0 0 140
0 0 140
0 0 140
0 0 140
0 0 140
0 0 140
0 0 140
0 0 140
0 0 140
0 0 140
0 0 140
0 0 140
0 0 140
0 0 140
0 0 140
0 0 140
0 0 140
0 0 140
0 0 140
0 0 140
0 0 140
0 0 140
0 0 140
0 0 140
0 0 140
0 0 140
0 0 140
0 0 140
0 0 140
0 0 140
0 0 140
0 0 140
0 0 140
0 0 140
0 0 140
0 0 140
0 0 140
0 0 140
0 0 140
0 0 140
0 0 140
0 0 140
0 0 140
0 0 140
0 0 140
0 0 140
0 0 140
0 0 140
0 0 140
0 0 140
0 0 140
0 0 140
0 0 140
0 0 140
0 0 140
0 0 140
0 0 140
0 0 140
0 0 140
0 0 140
0 0 140
0 0 140
0 0 140
0 0 140
0 0 140
0 0 140
0 0 140
0 0 140
0 0 140
0 0 140
0 0 140
0 0 140
0 0 140
0 0 140
0 0 140
0 0 140
0 0 140
0 0 140
0 0 140
0 0 140
0 0 140
0 0 140
0 0 140
0 0 140
0 0 140
0 0 140
0 0 140
0 0 140
0 0 140
0 0 140
0 0 140
0 0 140
0 0 140
0 0 140
0 0 140
0 0 140
0 0 140
0 0 140
0 0 140
0 0 140
0 0 140
0 0 140
0 0 140
0 0 140
0 0 140
0 0 140
0 0 140
0 0 140
0 0 140
0 0 140
0 0 140
0 0 140
0 0 140
0 0 140
0 0 140
0 0 140
0 0 140
0 0 140
0 0 140
0 0 140
0 0 140
0 0 140
0 0 140
0 0 140
0 0 140
0 0 140
0 0 140
0 0 140
0 0 140
0 0 140
0 0 140
0 0 140
0 0 140
0 0 140
0 0 140
0 0 140
0 0 140
0 0 140
0 0 140
0 0 140
0 0 140
0 0 140
0 0 140
0 0 140
0 0 140
0 0 140
0 0 140
0 0 140
0 0 140
0 0 140
0 0 140
0 0 140
0 0 140
0 0 140
0 0 140
0 0 140
0 0 140
0 0 140
0 0 140
82 0 70
100 0 0
83 0 0
89 0 0
84 0 0
104 0 0
100 0 0
95 0 0
105 0 0
100 0 0
103 0 0
89 0 0
113 0 0
106 0 0
98 0 0
103 0 0
98 0 0
116 0 0
117 0 0
88 0 0
96 0 0
109 0 0
108 0 0
97 0 0
99 0 0
109 0 0
111 0 0
106 0 0
106 0 0
120 0 0
94 0 0
108 0 0
112 0 0
113 0 0
90 0 0
100 0 0
113 0 0
96 0 0
99 0 0
106 0 0
105 0 0
112 0 0
93 0 0
101 0 0
99 0 0
101 0 0
110 0 0
105 0 0
99 0 0
114 0 0
110 0 0
96 0 0
102 0 0
106 0 0
99 0 0
101 0 0
116 0 0
96 0 0
109 0 0
100 0 0
104 0 0
109 0 0
105 0 0
110 0 0
80 0 0
107 0 0
103 0 0
111 0 0
96 0 0
112 0 0
96 0 0
111 0 0
97 0 0
100 0 0
108 0 0
106 0 0
108 0 0
96 0 0
124 0 0
97 0 0
124 0 0
103 0 0
117 0 0
115 0 0
93 0 0
104 0 0
108 0 0
111 0 0
102 0 0
98 0 0
106 0 0
98 0 0
115 0 0
108 0 0
103 0 0
103 0 0
103 0 0
99 0 0
104 0 0
107 0 0
108 0 0
93 0 0
104 0 0
97 0 0
98 0 0
99 0 0
103 0 0
97 0 0
86 0 0
83 0 76
0 0 140
0 0 140
0 0 140
0 0 140
0 0 140
0 0 140
0 0 140
0 0 140
0 0 140
0 0 140
0 0 140
0 0 140
0 0 140
0 0 140
0 0 140
0 0 140
0 0 140
0 0 140
0 0 140
0 0 140
0 0 140
0 0 140
0 0 140
0 0 140
0 0 140
0 0 140
0 0 140
0 0 140
0 0 140
0 0 140
0 0 140
0 0 140
0 0 140
0 0 140
0 0 140
0 0 140
0 0 140
0 0 140
0 0 140
0 0 140
0 0 140
0 0 140
0 0 140
0 0 140
0 0 140
0 0 140
0 0 140
0 0 140
0 0 140
0 0 140
0 0 140
0 0 140
0 0 140
0 0 140
0 0 140
0 0 140
0 0 140
0 0 140
0 0 140
0 0 140
0 0 140
0 0 140
0 0 140
0 0 140
0 0 140
0 0 140
0 0 140
0 0 140
0 0 140
0 0 140
0 0 140
0 0 140
0 0 140
0 0 140
0 0 140
0 0 140
0 0 140
0 0 140
0 0 140
0 0 140
0 0 140
0 0 140
0 0 140
0 0 140
0 0 140
0 0 140
0 0 140
0 0 140
0 0 140
0 0 140
0 0 140
0 0 140
0 0 140
0 0 140
0 0 140
0 0 140
0 0 140
0 0 140
0 0 140
0 0 140
0 0 140
0 0 140
0 0 140
0 0 140
0 0 140
0 0 140
0 0 140
0 0 140
0 0 140
0 0 140
0 0 140
0 0 140
0 0 140
0 0 140
0 0 140
0 0 140
0 0 140
0 0 140
0 0 140
0 0 140
0 0 140
0 0 140
0 0 140
0 0 140
0 0 140
0 0 140
0 0 140
0 0 140
0 0 140
0 0 140
0 0 140
0 0 140
0 0 140
0 0 140
0 0 140
0 0 140
0 0 140
0 0 140
0 0 140
0 0 140
0 0 140
0 0 140
0 0 140
0 0 140
0 0 140
0 0 140
0 0 140
0 0 140
0 0 140
0 0 140
0 0 140
0 0 140
0 0 140
0 0 140
0 0 140
0 0 140
0 0 140
0 0 140
0 0 140
0 0 140
0 0 140
0 0 140
0 0 140
0 0 140
0 0 140
0 0 140
0 0 140
0 0 140
0 0 140
0 0 140
0 0 140
0 0 140
0 0 140
0 0 140
0 0 140
0 0 140
0 0 140
0 0 140
0 0 140
0 0 140
0 0 140
0 0 140
0 0 140
0 0 140
0 0 140
0 0 140
0 0 140
0 0 140
0 0 140
0 0 140
0 0 140
0 0 140
0 0 140
0 0 140
0 0 140
0 0 140
0 0 140
0 0 140
0 0 140
0 0 140
0 0 140
0 0 140
0 0 140
0 0 140
0 0 140
0 0 140
0 0 140
0 0 140
0 0 140
0 0 140
0 0 140
0 0 140
0 0 140
0 0 140
0 0 140
0 0 140
0 0 140
0 0 140
0 0 140
0 0 140
0 0 140
0 0 140
0 0 140
0 0 140
0 0 140
0 0 140
0 0 140
0 0 140
0 0 140
0 0 140
0 0 140
0 0 140
0 0 140
0 0 140
0 0 140
0 0 140
0 0 140
0 0 140
0 0 140
0 0 140
0 0 140
0 0 140
0 0 140
0 0 140
0 0 140
0 0 140
0 0 140
0 0 140
0 0 140
0 0 140
0 0 140
0 0 140
0 0 140
0 0 140
0 0 140
0 0 140
0 0 140
0 0 140
0 0 140
0 0 140
0 0 140
0 0 140
0 0 140
0 0 140
0 0 140
0 0 140
0 0 140
0 0 140
0 0 140
0 0 140
0 0 140
0 0 140
0 0 140
0 0 140
0 0 140
0 0 140
0 0 140
0 0 140
0 0 140
0 0 140
0 0 140
0 0 140
0 0 140
0 0 140
0 0 140
0 0 140
0 0 140
0 0 140
0 0 140
0 0 140
24 0 133
99 0 31
99 0 0
111 0 0
104 0 0
101 0 0
101 0 0
90 0 0
84 0 0
120 0 0
96 0 0
109 0 0
95 0 0
107 0 0
114 0 0
106 0 0
86 0 0
98 0 0
89 0 0
100 0 0
113 0 0
99 0 0
98 0 0
113 0 0
105 0 0
97 0 0
101 0 0
94 0 0
106 0 0
110 0 0
92 0 0
110 0 0
106 0 0
103 0 0
108 0 0
103 0 0
115 0 0
117 0 0
119 0 0
112 0 0
98 0 0
106 0 0
106 0 0
107 0 0
102 0 0
89 0 0
102 0 0
98 0 0
91 0 0
106 0 0
87 0 0
109 0 0
97 0 0
105 0 0
98 0 0
104 0 0
114 0 0
109 0 0
96 0 0
100 0 0
90 0 0
106 0 0
107 0 0
109 0 0
108 0 0
102 0 0
108 0 0
111 0 0
95 0 0
104 0 0
113 0 0
106 0 0
105 0 0
99 0 0
94 0 0
102 0 0
104 0 0
108 0 0
108 0 0
109 0 0
118 0 0
95 0 0
104 0 0
113 0 0
99 0 0
97 0 0
103 0 0
95 0 0
108 0 0
86 0 0
111 0 0
110 0 0
109 0 0
102 0 0
115 0 0
112 0 0
102 0 0
116 0 0
99 0 0
101 0 0
95 0 0
104 0 0
96 0 0
97 0 0
96 0 0
90 0 0
93 0 0
104 0 0
104 0 39
0 0 132
0 0 140
0 0 140
0 0 140
0 0 140
0 0 140
0 0 140
0 0 140
0 0 140
0 0 140
0 0 140
0 0 140
0 0 140
0 0 140
0 0 140
0 0 140
0 0 140
0 0 140
0 0 140
0 0 140
0 0 140
0 0 140
0 0 140
0 0 140
0 0 140
0 0 140
0 0 140
0 0 140
0 0 140
0 0 140
0 0 140
0 0 140
0 0 140
0 0 140
0 0 140
0 0 140
0 0 140
0 0 140
0 0 140
0 0 140
0 0 140
0 0 140
0 0 140
0 0 140
0 0 140
0 0 140
0 0 140
0 0 140
0 0 140
0 0 140
0 0 140
0 0 140
0 0 140
0 0 140
0 0 140
0 0 140
0 0 140
0 0 140
0 0 140
0 0 140
0 0 140
0 0 140
0 0 140
0 0 140
0 0 140
0 0 140
0 0 140
0 0 140
0 0 140
0 0 140
0 0 140
0 0 140
0 0 140
0 0 140
0 0 140
0 0 140
0 0 140
0 0 140
0 0 140
0 0 140
0 0 140
0 0 140
0 0 140
0 0 140
0 0 140
0 0 140
0 0 140
0 0 140
0 0 140
0 0 140
0 0 140
0 0 140
0 0 140
0 0 140
0 0 140
0 0 140
0 0 140
0 0 140
0 0 140
0 0 140
0 0 140
0 0 140
0 0 140
0 0 140
0 0 140
0 0 140
0 0 140
0 0 140
0 0 140
0 0 140
0 0 140
0 0 140
0 0 140
0 0 140
0 0 140
0 0 140
0 0 140
0 0 140
0 0 140
0 0 140
0 0 140
0 0 140
0 0 140
0 0 140
0 0 140
0 0 140
0 0 140
0 0 140
0 0 140
0 0 140
0 0 140
0 0 140
0 0 140
0 0 140
0 0 140
0 0 140
0 0 140
0 0 140
0 0 140
0 0 140
0 0 140
0 0 140
0 0 140
0 0 140
0 0 140
0 0 140
0 0 140
0 0 140
0 0 140
0 0 140
0 0 140
0 0 140
0 0 140
0 0 140
0 0 140
0 0 140
0 0 140
0 0 140
0 0 140
0 0 140
0 0 140
0 0 140
0 0 140
0 0 140
0 0 140
0 0 140
0 0 140
0 0 140
0 0 140
0 0 140
0 0 140
0 0 140
0 0 140
0 0 140
0 0 140
0 0 140
0 0 140
0 0 140
0 0 140
0 0 140
0 0 140
0 0 140
0 0 140
0 0 140
0 0 140
0 0 140
0 0 140
0 0 140
0 0 140
0 0 140
0 0 140
0 0 140
0 0 140
0 0 140
0 0 140
0 0 140
0 0 140
0 0 140
0 0 140
0 0 140
0 0 140
0 0 140
0 0 140
0 0 140
0 0 140
0 0 140
0 0 140
0 0 140
0 0 140
0 0 140
0 0 140
0 0 140
0 0 140
0 0 140
0 0 140
0 0 140
0 0 140
0 0 140
0 0 140
0 0 140
0 0 140
0 0 140
0 0 140
0 0 140
0 0 140
0 0 140
0 0 140
0 0 140
0 0 140
0 0 140
0 0 140
0 0 140
0 0 140
0 0 140
0 0 140
0 0 140
0 0 140
0 0 140
0 0 140
0 0 140
0 0 140
0 0 140
0 0 140
0 0 140
0 0 140
0 0 140
0 0 140
0 0 140
0 0 140
0 0 140
0 0 140
0 0 140
0 0 140
0 0 140
0 0 140
0 0 140
0 0 140
0 0 140
0 0 140
0 0 140
0 0 140
0 0 140
0 0 140
0 0 140
0 0 140
0 0 140
0 0 140
0 0 140
0 0 140
0 0 140
0 0 140
0 0 140
0 0 140
0 0 140
0 0 140
0 0 140
0 0 140
0 0 140
0 0 140
0 0 140
0 0 140
0 0 140
0 0 140
0 0 140
0 0 140
0 0 140
0 0 140
0 0 140
0 0 140
0 0 140
0 0 140
0 0 140
55 0 109
105 0 0
98 0 0
102 0 0
90 0 0
88 0 0
105 0 0
102 0 0
94 0 0
108 0 0
96 0 0
100 0 0
99 0 0
103 0 0
88 0 0
103 0 0
110 0 0
95 0 0
90 0 0
98 0 0
113 0 0
105 0 0
99 0 0
95 0 0
108 0 0
101 0 0
108 0 0
102 0 0
109 0 0
111 0 0
115 0 0
106 0 0
97 0 0
107 0 0
93 0 0
111 0 0
102 0 0
111 0 0
97 0 0
109 0 0
105 0 0
105 0 0
97 0 0
109 0 0
122 0 0
96 0 0
102 0 0
106 0 0
104 0 0
99 0 0
105 0 0
104 0 0
106 0 0
106 0 0
104 0 0
105 0 0
97 0 0
94 0 0
107 0 0
118 0 0
110 0 0
98 0 0
108 0 0
114 0 0
102 0 0
125 0 0
95 0 0
104 0 0
111 0 0
103 0 0
101 0 0
100 0 0
87 0 0
110 0 0
99 0 0
99 0 0
107 0 0
97 0 0
111 0 0
111 0 0
101 0 0
108 0 0
101 0 0
105 0 0
101 0 0
104 0 0
102 0 0
100 0 0
103 0 0
99 0 0
104 0 0
109 0 0
107 0 0
112 0 0
96 0 0
111 0 0
96 0 0
107 0 0
96 0 0
102 0 0
95 0 0
98 0 0
121 0 0
101 0 0
96 0 0
103 0 0
95 0 0
56 0 110
0 0 140
0 0 140
0 0 140
0 0 140
0 0 140
0 0 140
0 0 140
0 0 140
0 0 140
0 0 140
0 0 140
0 0 140
0 0 140
0 0 140
0 0 140
0 0 140
0 0 140
0 0 140
0 0 140
0 0 140
0 0 140
0 0 140
0 0 140
0 0 140
0 0 140
0 0 140
0 0 140
0 0 140
0 0 140
0 0 140
0 0 140
0 0 140
0 0 140
0 0 140
0 0 140
0 0 140
0 0 140
0 0 140
0 0 140
0 0 140
0 0 140
0 0 140
0 0 140
0 0 140
0 0 140
0 0 140
0 0 140
0 0 140
0 0 140
0 0 140
0 0 140
0 0 140
0 0 140
0 0 140
0 0 140
0 0 140
0 0 140
0 0 140
0 0 140
0 0 140
0 0 140
0 0 140
0 0 140
0 0 140
0 0 140
0 0 140
0 0 140
0 0 140
0 0 140
0 0 140
0 0 140
0 0 140
0 0 140
0 0 140
0 0 140
0 0 140
0 0 140
0 0 140
0 0 140
0 0 140
0 0 140
0 0 140
0 0 140
0 0 140
0 0 140
0 0 140
0 0 140
0 0 140
0 0 140
0 0 140
0 0 140
0 0 140
0 0 140
0 0 140
0 0 140
0 0 140
0 0 140
0 0 140
0 0 140
0 0 140
0 0 140
0 0 140
0 0 140
0 0 140
0 0 140
0 0 140
0 0 140
0 0 140
0 0 140
0 0 140
0 0 140
0 0 140
0 0 140
0 0 140
0 0 140
0 0 140
0 0 140
0 0 140
0 0 140
0 0 140
0 0 140
0 0 140
0 0 140
0 0 140
0 0 140
0 0 140
0 0 140
0 0 140
0 0 140
0 0 140
0 0 140
0 0 140
0 0 140
0 0 140
0 0 140
0 0 140
0 0 140
0 0 140
0 0 140
0 0 140
0 0 140
0 0 140
0 0 140
0 0 140
0 0 140
0 0 140
0 0 140
0 0 140
0 0 140
0 0 140
0 0 140
0 0 140
0 0 140
0 0 140
0 0 140
0 0 140
0 0 140
0 0 140
0 0 140
0 0 140
0 0 140
0 0 140
0 0 140
0 0 140
0 0 140
0 0 140
0 0 140
0 0 140
0 0 140
0 0 140
0 0 140
0 0 140
0 0 140
0 0 140
0 0 140
0 0 140
0 0 140
0 0 140
0 0 140
0 0 140
0 0 140
0 0 140
0 0 140
0 0 140
0 0 140
0 0 140
0 0 140
0 0 140
0 0 140
0 0 140
0 0 140
0 0 140
0 0 140
0 0 140
0 0 140
0 0 140
0 0 140
0 0 140
0 0 140
0 0 140
0 0 140
0 0 140
0 0 140
0 0 140
0 0 140
0 0 140
0 0 140
0 0 140
0 0 140
0 0 140
0 0 140
0 0 140
0 0 140
0 0 140
0 0 140
0 0 140
0 0 140
0 0 140
0 0 140
0 0 140
0 0 140
0 0 140
0 0 140
0 0 140
0 0 140
0 0 140
0 0 140
0 0 140
0 0 140
0 0 140
0 0 140
0 0 140
0 0 140
0 0 140
0 0 140
0 0 140
0 0 140
0 0 140
0 0 140
0 0 140
0 0 140
0 0 140
0 0 140
0 0 140
0 0 140
0 0 140
0 0 140
0 0 140
0 0 140
0 0 140
0 0 140
0 0 140
0 0 140
0 0 140
0 0 140
0 0 140
0 0 140
0 0 140
0 0 140
0 0 140
0 0 140
0 0 140
0 0 140
0 0 140
0 0 140
0 0 140
0 0 140
0 0 140
0 0 140
0 0 140
0 0 140
0 0 140
0 0 140
0 0 140
0 0 140
0 0 140
0 0 140
0 0 140
0 0 140
0 0 140
0 0 140
0 0 140
0 0 140
0 0 140
0 0 140
0 0 140
0 0 140
0 0 140
0 0 140
0 0 140
0 0 140
0 0 140
0 0 140
69 0 87
101 0 0
105 0 0
100 0 0
105 0 0
103 0 0
106 0 0
103 0 0
95 0 0
96 0 0
104 0 0
93 0 0
91 0 0
108 0 0
112 0 0
90 0 0
82 0 0
104 0 0
109 0 0
110 0 0
100 0 0
108 0 0
90 0 0
109 0 0
109 0 0
94 0 0
107 0 0
107 0 0
110 0 0
114 0 0
102 0 0
94 0 0
93 0 0
100 0 0
102 0 0
115 0 0
101 0 0
103 0 0
89 0 0
102 0 0
91 0 0
107 0 0
104 0 0
98 0 0
111 0 0
105 0 0
103 0 0
107 0 0
98 0 0
106 0 0
95 0 0
103 0 0
117 0 0
116 0 0
112 0 0
102 0 0
113 0 0
112 0 0
107 0 0
111 0 0
105 0 0
86 0 0
97 0 0
98 0 0
110 0 0
103 0 0
124 0 0
117 0 0
103 0 0
105 0 0
98 0 0
99 0 0
105 0 0
113 0 0
107 0 0
106 0 0
106 0 0
101 0 0
102 0 0
92 0 0
99 0 0
110 0 0
114 0 0
102 0 0
87 0 0
104 0 0
103 0 0
105 0 0
111 0 0
101 0 0
94 0 0
100 0 0
112 0 0
102 0 0
91 0 0
108 0 0
106 0 0
98 0 0
96 0 0
94 0 0
94 0 0
102 0 0
90 0 0
96 0 0
88 0 0
81 0 74
0 0 140
0 0 140
0 0 140
0 0 140
0 0 140
0 0 140
0 0 140
0 0 140
0 0 140
0 0 140
0 0 140
0 0 140
0 0 140
0 0 140
0 0 140
0 0 140
0 0 140
0 0 140
0 0 140
0 0 140
0 0 140
0 0 140
0 0 140
0 0 140
0 0 140
0 0 140
0 0 140
0 0 140
0 0 140
0 0 140
0 0 140
0 0 140
0 0 140
0 0 140
0 0 140
0 0 140
0 0 140
0 0 140
0 0 140
0 0 140
0 0 140
0 0 140
0 0 140
0 0 140
0 0 140
0 0 140
0 0 140
0 0 140
0 0 140
0 0 140
0 0 140
0 0 140
0 0 140
0 0 140
0 0 140
0 0 140
0 0 140
0 0 140
0 0 140
0 0 140
0 0 140
0 0 140
0 0 140
0 0 140
0 0 140
0 0 140
0 0 140
0 0 140
0 0 140
0 0 140
0 0 140
0 0 140
0 0 140
0 0 140
0 0 140
0 0 140
0 0 140
0 0 140
0 0 140
0 0 140
0 0 140
0 0 140
0 0 140
0 0 140
0 0 140
0 0 140
0 0 140
0 0 140
0 0 140
0 0 140
0 0 140
0 0 140
0 0 140
0 0 140
0 0 140
0 0 140
0 0 140
0 0 140
0 0 140
0 0 140
0 0 140
0 0 140
0 0 140
0 0 140
0 0 140
0 0 140
0 0 140
0 0 140
0 0 140
0 0 140
0 0 140
0 0 140
0 0 140
0 0 140
0 0 140
0 0 140
0 0 140
0 0 140
0 0 140
0 0 140
0 0 140
0 0 140
0 0 140
0 0 140
0 0 140
0 0 140
0 0 140
0 0 140
0 0 140
0 0 140
0 0 140
0 0 140
0 0 140
0 0 140
0 0 140
0 0 140
0 0 140
0 0 140
0 0 140
0 0 140
0 0 140
0 0 140
0 0 140
0 0 140
0 0 140
0 0 140
0 0 140
0 0 140
0 0 140
0 0 140
0 0 140
0 0 140
0 0 140
0 0 140
0 0 140
0 0 140
0 0 140
0 0 140
0 0 140
0 0 140
0 0 140
0 0 140
0 0 140
0 0 140
0 0 140
0 0 140
0 0 140
0 0 140
0 0 140
0 0 140
0 0 140
0 0 140
0 0 140
0 0 140
0 0 140
0 0 140
0 0 140
0 0 140
0 0 140
0 0 140
0 0 140
0 0 140
0 0 140
0 0 140
0 0 140
0 0 140
0 0 140
0 0 140
0 0 140
0 0 140
0 0 140
0 0 140
0 0 140
0 0 140
0 0 140
0 0 140
0 0 140
0 0 140
0 0 140
0 0 140
0 0 140
0 0 140
0 0 140
0 0 140
0 0 140
0 0 140
0 0 140
0 0 140
0 0 140
0 0 140
0 0 140
0 0 140
0 0 140
0 0 140
0 0 140
0 0 140
0 0 140
0 0 140
0 0 140
0 0 140
0 0 140
0 0 140
0 0 140
0 0 140
0 0 140
0 0 140
0 0 140
0 0 140
0 0 140
0 0 140
0 0 140
0 0 140
0 0 140
0 0 140
0 0 140
0 0 140
0 0 140
0 0 140
0 0 140
0 0 140
0 0 140
0 0 140
0 0 140
0 0 140
0 0 140
0 0 140
0 0 140
0 0 140
0 0 140
0 0 140
0 0 140
0 0 140
0 0 140
0 0 140
0 0 140
0 0 140
0 0 140
0 0 140
0 0 140
0 0 140
0 0 140
0 0 140
0 0 140
0 0 140
0 0 140
0 0 140
0 0 140
0 0 140
0 0 140
0 0 140
0 0 140
0 0 140
0 0 140
0 0 140
0 0 140
0 0 140
0 0 140
0 0 140
0 0 140
0 0 140
0 0 140
0 0 140
0 0 140
0 0 140
0 0 140
0 0 140
0 0 140
0 0 140
0 0 140
0 0 140
0 0 140
0 0 140
0 0 140
0 0 140
23 0 136
77 0 56
91 0 0
99 0 0
104 0 0
83 0 0
110 0 0
112 0 0
100 0 0
104 0 0
100 0 0
119 0 0
111 0 0
106 0 0
104 0 0
84 0 0
100 0 0
98 0 0
94 0 0
98 0 0
99 0 0
104 0 0
95 0 0
104 0 0
90 0 0
111 0 0
99 0 0
88 0 0
109 0 0
103 0 0
106 0 0
96 0 0
108 0 0
115 0 0
111 0 0
103 0 0
105 0 0
103 0 0
94 0 0
100 0 0
109 0 0
102 0 0
93 0 0
96 0 0
76 0 0
109 0 0
110 0 0
119 0 0
103 0 0
106 0 0
100 0 0
95 0 0
108 0 0
101 0 0
100 0 0
109 0 0
110 0 0
105 0 0
97 0 0
97 0 0
99 0 0
104 0 0
100 0 0
100 0 0
114 0 0
112 0 0
105 0 0
111 0 0
106 0 0
108 0 0
91 0 0
102 0 0
102 0 0
102 0 0
98 0 0
97 0 0
99 0 0
103 0 0
96 0 0
89 0 0
109 0 0
98 0 0
95 0 0
97 0 0
105 0 0
93 0 0
108 0 0
90 0 0
107 0 0
101 0 0
96 0 0
115 0 0
108 0 0
115 0 0
99 0 0
94 0 0
94 0 0
87 0 0
95 0 0
90 0 0
99 0 0
82 0 0
98 0 0
107 0 0
87 0 54
26 0 137
0 0 140
0 0 140
0 0 140
0 0 140
0 0 140
0 0 140
0 0 140
0 0 140
0 0 140
0 0 140
0 0 140
0 0 140
0 0 140
0 0 140
0 0 140
0 0 140
0 0 140
0 0 140
0 0 140
0 0 140
0 0 140
0 0 140
0 0 140
0 0 140
0 0 140
0 0 140
0 0 140
0 0 140
0 0 140
0 0 140
0 0 140
0 0 140
0 0 140
0 0 140
0 0 140
0 0 140
0 0 140
0 0 140
0 0 140
0 0 140
0 0 140
0 0 140
0 0 140
0 0 140
0 0 140
0 0 140
0 0 140
0 0 140
0 0 140
0 0 140
0 0 140
0 0 140
0 0 140
0 0 140
0 0 140
0 0 140
0 0 140
0 0 140
0 0 140
0 0 140
0 0 140
0 0 140
0 0 140
0 0 140
0 0 140
0 0 140
0 0 140
0 0 140
0 0 140
0 0 140
0 0 140
0 0 140
0 0 140
0 0 140
0 0 140
0 0 140
0 0 140
0 0 140
0 0 140
0 0 140
0 0 140
0 0 140
0 0 140
0 0 140
0 0 140
0 0 140
0 0 140
0 0 140
0 0 140
0 0 140
0 0 140
0 0 140
0 0 140
0 0 140
0 0 140
0 0 140
0 0 140
0 0 140
0 0 140
0 0 140
0 0 140
0 0 140
0 0 140
0 0 140
0 0 140
0 0 140
0 0 140
0 0 140
0 0 140
0 0 140
0 0 140
0 0 140
0 0 140
0 0 140
0 0 140
0 0 140
0 0 140
0 0 140
0 0 140
0 0 140
0 0 140
0 0 140
0 0 140
0 0 140
0 0 140
0 0 140
0 0 140
0 0 140
0 0 140
0 0 140
0 0 140
0 0 140
0 0 140
0 0 140
0 0 140
0 0 140
0 0 140
0 0 140
0 0 140
0 0 140
0 0 140
0 0 140
0 0 140
0 0 140
0 0 140
0 0 140
0 0 140
0 0 140
0 0 140
0 0 140
0 0 140
0 0 140
0 0 140
0 0 140
0 0 140
0 0 140
0 0 140
0 0 140
0 0 140
0 0 140
0 0 140
0 0 140
0 0 140
0 0 140
0 0 140
0 0 140
0 0 140
0 0 140
0 0 140
0 0 140
0 0 140
0 0 140
0 0 140
0 0 140
0 0 140
0 0 140
0 0 140
0 0 140
0 0 140
0 0 140
0 0 140
0 0 140
0 0 140
0 0 140
0 0 140
0 0 140
0 0 140
0 0 140
0 0 140
0 0 140
0 0 140
0 0 140
0 0 140
0 0 140
0 0 140
0 0 140
0 0 140
0 0 140
0 0 140
0 0 140
0 0 140
0 0 140
0 0 140
0 0 140
0 0 140
0 0 140
0 0 140
0 0 140
0 0 140
0 0 140
0 0 140
0 0 140
0 0 140
0 0 140
0 0 140
0 0 140
0 0 140
0 0 140
0 0 140
0 0 140
0 0 140
0 0 140
0 0 140
0 0 140
0 0 140
0 0 140
0 0 140
0 0 140
0 0 140
0 0 140
0 0 140
0 0 140
0 0 140
0 0 140
0 0 140
0 0 140
0 0 140
0 0 140
0 0 140
0 0 140
0 0 140
0 0 140
0 0 140
0 0 140
0 0 140
0 0 140
0 0 140
0 0 140
0 0 140
0 0 140
0 0 140
0 0 140
0 0 140
0 0 140
0 0 140
0 0 140
0 0 140
0 0 140
0 0 140
0 0 140
0 0 140
0 0 140
0 0 140
0 0 140
0 0 140
0 0 140
0 0 140
0 0 140
0 0 140
0 0 140
0 0 140
0 0 140
0 0 140
0 0 140
0 0 140
0 0 140
0 0 140
0 0 140
0 0 140
0 0 140
0 0 140
0 0 140
0 0 140
0 0 140
0 0 140
0 0 140
0 0 140
0 0 140
0 0 140
0 0 140
0 0 140
0 0 140
0 0 140
0 0 140
0 0 140
39 0 125
89 0 19
97 0 0
103 0 0
108 0 0
91 0 0
106 0 0
109 0 0
107 0 0
96 0 0
98 0 0
101 0 0
93 0 0
102 0 0
101 0 0
109 0 0
94 0 0
100 0 0
112 0 0
111 0 0
102 0 0
97 0 0
91 0 0
91 0 0
111 0 0
97 0 0
111 0 0
102 0 0
90 0 0
99 0 0
112 0 0
96 0 0
104 0 0
109 0 0
95 0 0
115 0 0
114 0 0
107 0 0
113 0 0
120 0 0
100 0 0
99 0 0
104 0 0
97 0 0
84 0 0
108 0 0
103 0 0
101 0 0
100 0 0
104 0 0
103 0 0
106 0 0
106 0 0
96 0 0
97 0 0
116 0 0
102 0 0
104 0 0
93 0 0
105 0 0
100 0 0
112 0 0
104 0 0
97 0 0
104 0 0
111 0 0
81 0 0
102 0 0
108 0 0
98 0 0
103 0 0
104 0 0
96 0 0
97 0 0
94 0 0
106 0 0
98 0 0
112 0 0
97 0 0
98 0 0
104 0 0
99 0 0
102 0 0
93 0 0
81 0 0
110 0 0
111 0 0
99 0 0
98 0 0
100 0 0
81 0 0
99 0 0
109 0 0
100 0 0
94 0 0
100 0 0
99 0 0
99 0 0
101 0 0
95 0 0
95 0 0
98 0 0
94 0 14
43 0 126
0 0 140
0 0 140
0 0 140
0 0 140
0 0 140
0 0 140
0 0 140
0 0 140
0 0 140
0 0 140
0 0 140
0 0 140
0 0 140
0 0 140
0 0 140
0 0 140
0 0 140
0 0 140
0 0 140
0 0 140
0 0 140
0 0 140
0 0 140
0 0 140
0 0 140
0 0 140
0 0 140
0 0 140
0 0 140
0 0 140
0 0 140
0 0 140
0 0 140
0 0 140
0 0 140
0 0 140
0 0 140
0 0 140
0 0 140
0 0 140
0 0 140
0 0 140
0 0 140
0 0 140
0 0 140
0 0 140
0 0 140
0 0 140
0 0 140
0 0 140
0 0 140
0 0 140
0 0 140
0 0 140
0 0 140
0 0 140
0 0 140
0 0 140
0 0 140
0 0 140
0 0 140
0 0 140
0 0 140
0 0 140
0 0 140
0 0 140
0 0 140
0 0 140
0 0 140
0 0 140
0 0 140
0 0 140
0 0 140
0 0 140
0 0 140
0 0 140
0 0 140
0 0 140
0 0 140
0 0 140
0 0 140
0 0 140
0 0 140
0 0 140
0 0 140
0 0 140
0 0 140
0 0 140
0 0 140
0 0 140
0 0 140
0 0 140
0 0 140
0 0 140
0 0 140
0 0 140
0 0 140
0 0 140
0 0 140
0 0 140
0 0 140
0 0 140
0 0 140
0 0 140
0 0 140
0 0 140
0 0 140
0 0 140
0 0 140
0 0 140
0 0 140
0 0 140
0 0 140
0 0 140
0 0 140
0 0 140
0 0 140
0 0 140
0 0 140
0 0 140
0 0 140
0 0 140
0 0 140
0 0 140
0 0 140
0 0 140
0 0 140
0 0 140
0 0 140
0 0 140
0 0 140
0 0 140
0 0 140
0 0 140
0 0 140
0 0 140
0 0 140
0 0 140
0 0 140
0 0 140
0 0 140
0 0 140
0 0 140
0 0 140
0 0 140
0 0 140
0 0 140
0 0 140
0 0 140
0 0 140
0 0 140
0 0 140
0 0 140
0 0 140
0 0 140
0 0 140
0 0 140
0 0 140
0 0 140
0 0 140
0 0 140
0 0 140
0 0 140
0 0 140
0 0 140
0 0 140
0 0 140
0 0 140
0 0 140
0 0 140
0 0 140
0 0 140
0 0 140
0 0 140
0 0 140
0 0 140
0 0 140
0 0 140
0 0 140
0 0 140
0 0 140
0 0 140
0 0 140
0 0 140
0 0 140
0 0 140
0 0 140
0 0 140
0 0 140
0 0 140
0 0 140
0 0 140
0 0 140
0 0 140
0 0 140
0 0 140
0 0 140
0 0 140
0 0 140
0 0 140
0 0 140
0 0 140
0 0 140
0 0 140
0 0 140
0 0 140
0 0 140
0 0 140
0 0 140
0 0 140
0 0 140
0 0 140
0 0 140
0 0 140
0 0 140
0 0 140
0 0 140
0 0 140
0 0 140
0 0 140
0 0 140
0 0 140
0 0 140
0 0 140
0 0 140
0 0 140
0 0 140
0 0 140
0 0 140
0 0 140
0 0 140
0 0 140
0 0 140
0 0 140
0 0 140
0 0 140
0 0 140
0 0 140
0 0 140
0 0 140
0 0 140
0 0 140
0 0 140
0 0 140
0 0 140
0 0 140
0 0 140
0 0 140
0 0 140
0 0 140
0 0 140
0 0 140
0 0 140
0 0 140
0 0 140
0 0 140
0 0 140
0 0 140
0 0 140
0 0 140
0 0 140
0 0 140
0 0 140
0 0 140
0 0 140
0 0 140
0 0 140
0 0 140
0 0 140
0 0 140
0 0 140
0 0 140
0 0 140
0 0 140
0 0 140
0 0 140
0 0 140
0 0 140
0 0 140
0 0 140
0 0 140
0 0 140
0 0 140
0 0 140
0 0 140
0 0 140
0 0 140
0 0 140
0 0 140
0 0 140
0 0 140
0 0 140
0 0 140
0 0 140
0 0 140
0 0 140
0 0 140
60 0 112
99 0 0
99 0 0
93 0 0
90 0 0
94 0 0
89 0 0
97 0 0
99 0 0
88 0 0
101 0 0
94 0 0
102 0 0
90 0 0
100 0 0
107 0 0
106 0 0
105 0 0
106 0 0
104 0 0
102 0 0
104 0 0
109 0 0
105 0 0
111 0 0
90 0 0
99 0 0
102 0 0
101 0 0
93 0 0
113 0 0
106 0 0
106 0 0
99 0 0
109 0 0
106 0 0
106 0 0
112 0 0
95 0 0
113 0 0
109 0 0
96 0 0
103 0 0
107 0 0
102 0 0
116 0 0
99 0 0
105 0 0
95 0 0
111 0 0
104 0 0
110 0 0
97 0 0
88 0 0
106 0 0
105 0 0
101 0 0
105 0 0
104 0 0
101 0 0
106 0 0
99 0 0
92 0 0
107 0 0
103 0 0
99 0 0
111 0 0
105 0 0
95 0 0
100 0 0
107 0 0
100 0 0
97 0 0
97 0 0
110 0 0
100 0 0
99 0 0
95 0 0
109 0 0
107 0 0
84 0 0
90 0 0
102 0 0
95 0 0
107 0 0
101 0 0
90 0 0
92 0 0
96 0 0
99 0 0
102 0 0
106 0 0
101 0 0
106 0 0
99 0 0
84 0 0
91 0 0
94 0 0
93 0 0
103 0 0
95 0 0
50 0 110
0 0 140
0 0 140
0 0 140
0 0 140
0 0 140
0 0 140
0 0 140
0 0 140
0 0 140
0 0 140
0 0 140
0 0 140
0 0 140
0 0 140
0 0 140
0 0 140
0 0 140
0 0 140
0 0 140
0 0 140
0 0 140
0 0 140
0 0 140
0 0 140
0 0 140
0 0 140
0 0 140
0 0 140
0 0 140
0 0 140
0 0 140
0 0 140
0 0 140
0 0 140
0 0 140
0 0 140
0 0 140
0 0 140
0 0 140
0 0 140
0 0 140
0 0 140
0 0 140
0 0 140
0 0 140
0 0 140
0 0 140
0 0 140
0 0 140
0 0 140
0 0 140
0 0 140
0 0 140
0 0 140
0 0 140
0 0 140
0 0 140
0 0 140
0 0 140
0 0 140
0 0 140
0 0 140
0 0 140
0 0 140
0 0 140
0 0 140
0 0 140
0 0 140
0 0 140
0 0 140
0 0 140
0 0 140
0 0 140
0 0 140
0 0 140
0 0 140
0 0 140
0 0 140
0 0 140
0 0 140
0 0 140
0 0 140
0 0 140
0 0 140
0 0 140
0 0 140
0 0 140
0 0 140
0 0 140
0 0 140
0 0 140
0 0 140
0 0 140
0 0 140
0 0 140
0 0 140
0 0 140
0 0 140
0 0 140
0 0 140
0 0 140
0 0 140
0 0 140
0 0 140
0 0 140
0 0 140
0 0 140
0 0 140
0 0 140
0 0 140
0 0 140
0 0 140
0 0 140
0 0 140
0 0 140
0 0 140
0 0 140
0 0 140
0 0 140
0 0 140
0 0 140
0 0 140
0 0 140
0 0 140
0 0 140
0 0 140
0 0 140
0 0 140
0 0 140
0 0 140
0 0 140
0 0 140
0 0 140
0 0 140
0 0 140
0 0 140
0 0 140
0 0 140
0 0 140
0 0 140
0 0 140
0 0 140
0 0 140
0 0 140
0 0 140
0 0 140
0 0 140
0 0 140
0 0 140
0 0 140
0 0 140
0 0 140
0 0 140
0 0 140
0 0 140
0 0 140
0 0 140
0 0 140
0 0 140
0 0 140
0 0 140
0 0 140
0 0 140
0 0 140
0 0 140
0 0 140
0 0 140
0 0 140
0 0 140
0 0 140
0 0 140
0 0 140
0 0 140
0 0 140
0 0 140
0 0 140
0 0 140
0 0 140
0 0 140
0 0 140
0 0 140
0 0 140
0 0 140
0 0 140
0 0 140
0 0 140
0 0 140
0 0 140
0 0 140
0 0 140
0 0 140
0 0 140
0 0 140
0 0 140
0 0 140
0 0 140
0 0 140
0 0 140
0 0 140
0 0 140
0 0 140
0 0 140
0 0 140
0 0 140
0 0 140
0 0 140
0 0 140
0 0 140
0 0 140
0 0 140
0 0 140
0 0 140
0 0 140
0 0 140
0 0 140
0 0 140
0 0 140
0 0 140
0 0 140
0 0 140
0 0 140
0 0 140
0 0 140
0 0 140
0 0 140
0 0 140
0 0 140
0 0 140
0 0 140
0 0 140
0 0 140
0 0 140
0 0 140
0 0 140
0 0 140
0 0 140
0 0 140
0 0 140
0 0 140
0 0 140
0 0 140
0 0 140
0 0 140
0 0 140
0 0 140
0 0 140
0 0 140
0 0 140
0 0 140
0 0 140
0 0 140
0 0 140
0 0 140
0 0 140
0 0 140
0 0 140
0 0 140
0 0 140
0 0 140
0 0 140
0 0 140
0 0 140
0 0 140
0 0 140
0 0 140
0 0 140
0 0 140
0 0 140
0 0 140
0 0 140
0 0 140
0 0 140
0 0 140
0 0 140
0 0 140
0 0 140
0 0 140
0 0 140
0 0 140
0 0 140
0 0 140
0 0 140
0 0 140
0 0 140
0 0 140
0 0 140
0 0 140
0 0 140
0 0 140
0 0 140
0 0 140
0 0 140
0 0 140
0 0 140
0 0 140
0 0 140
0 0 140
0 0 140
0 0 140
74 0 90
105 0 0
95 0 0
77 0 0
77 0 0
98 0 0
92 0 0
98 0 0
98 0 0
93 0 0
88 0 0
85 0 0
100 0 0
90 0 0
95 0 0
100 0 0
98 0 0
108 0 0
109 0 0
102 0 0
94 0 0
93 0 0
91 0 0
94 0 0
110 0 0
101 0 0
79 0 0
106 0 0
104 0 0
102 0 0
96 0 0
100 0 0
105 0 0
102 0 0
105 0 0
99 0 0
98 0 0
101 0 0
104 0 0
101 0 0
97 0 0
100 0 0
95 0 0
101 0 0
93 0 0
108 0 0
97 0 0
112 0 0
108 0 0
114 0 0
92 0 0
113 0 0
105 0 0
97 0 0
107 0 0
97 0 0
91 0 0
101 0 0
115 0 0
109 0 0
87 0 0
99 0 0
96 0 0
98 0 0
105 0 0
112 0 0
106 0 0
99 0 0
103 0 0
94 0 0
105 0 0
122 0 0
108 0 0
92 0 0
107 0 0
92 0 0
98 0 0
95 0 0
96 0 0
102 0 0
123 0 0
112 0 0
106 0 0
95 0 0
96 0 0
93 0 0
104 0 0
97 0 0
93 0 0
99 0 0
93 0 0
96 0 0
105 0 0
93 0 0
100 0 0
100 0 0
83 0 0
91 0 0
89 0 0
65 0 84
0 0 140
0 0 140
0 0 140
0 0 140
0 0 140
0 0 140
0 0 140
0 0 140
0 0 140
0 0 140
0 0 140
0 0 140
0 0 140
0 0 140
0 0 140
0 0 140
0 0 140
0 0 140
0 0 140
0 0 140
0 0 140
0 0 140
0 0 140
0 0 140
0 0 140
0 0 140
0 0 140
0 0 140
0 0 140
0 0 140
0 0 140
0 0 140
0 0 140
0 0 140
0 0 140
0 0 140
0 0 140
0 0 140
0 0 140
0 0 140
0 0 140
0 0 140
0 0 140
0 0 140
0 0 140
0 0 140
0 0 140
0 0 140
0 0 140
0 0 140
0 0 140
0 0 140
0 0 140
0 0 140
0 0 140
0 0 140
0 0 140
0 0 140
0 0 140
0 0 140
0 0 140
0 0 140
0 0 140
0 0 140
0 0 140
0 0 140
0 0 140
0 0 140
0 0 140
0 0 140
0 0 140
0 0 140
0 0 140
0 0 140
0 0 140
0 0 140
0 0 140
0 0 140
0 0 140
0 0 140
0 0 140
0 0 140
0 0 140
0 0 140
0 0 140
0 0 140
0 0 140
0 0 140
0 0 140
0 0 140
0 0 140
0 0 140
0 0 140
0 0 140
0 0 140
0 0 140
0 0 140
0 0 140
0 0 140
0 0 140
0 0 140
0 0 140
0 0 140
0 0 140
0 0 140
0 0 140
0 0 140
0 0 140
0 0 140
0 0 140
0 0 140
0 0 140
0 0 140
0 0 140
0 0 140
0 0 140
0 0 140
0 0 140
0 0 140
0 0 140
0 0 140
0 0 140
0 0 140
0 0 140
0 0 140
0 0 140
0 0 140
0 0 140
0 0 140
0 0 140
0 0 140
0 0 140
0 0 140
0 0 140
0 0 140
0 0 140
0 0 140
0 0 140
0 0 140
0 0 140
0 0 140
0 0 140
0 0 140
0 0 140
0 0 140
0 0 140
0 0 140
0 0 140
0 0 140
0 0 140
0 0 140
0 0 140
0 0 140
0 0 140
0 0 140
0 0 140
0 0 140
0 0 140
0 0 140
0 0 140
0 0 140
0 0 140
0 0 140
0 0 140
0 0 140
0 0 140
0 0 140
0 0 140
0 0 140
0 0 140
0 0 140
0 0 140
0 0 140
0 0 140
0 0 140
0 0 140
0 0 140
0 0 140
0 0 140
0 0 140
0 0 140
0 0 140
0 0 140
0 0 140
0 0 140
0 0 140
0 0 140
0 0 140
0 0 140
0 0 140
0 0 140
0 0 140
0 0 140
0 0 140
0 0 140
0 0 140
0 0 140
0 0 140
0 0 140
0 0 140
0 0 140
0 0 140
0 0 140
0 0 140
0 0 140
0 0 140
0 0 140
0 0 140
0 0 140
0 0 140
0 0 140
0 0 140
0 0 140
0 0 140
0 0 140
0 0 140
0 0 140
0 0 140
0 0 140
0 0 140
0 0 140
0 0 140
0 0 140
0 0 140
0 0 140
0 0 140
0 0 140
0 0 140
0 0 140
0 0 140
0 0 140
0 0 140
0 0 140
0 0 140
0 0 140
0 0 140
0 0 140
0 0 140
0 0 140
0 0 140
0 0 140
0 0 140
0 0 140
0 0 140
0 0 140
0 0 140
0 0 140
0 0 140
0 0 140
0 0 140
0 0 140
0 0 140
0 0 140
0 0 140
0 0 140
0 0 140
0 0 140
0 0 140
0 0 140
0 0 140
0 0 140
0 0 140
0 0 140
0 0 140
0 0 140
0 0 140
0 0 140
0 0 140
0 0 140
0 0 140
0 0 140
0 0 140
0 0 140
0 0 140
0 0 140
0 0 140
0 0 140
0 0 140
0 0 140
0 0 140
0 0 140
0 0 140
0 0 140
0 0 140
0 0 140
0 0 140
0 0 140
0 0 140
0 0 140
0 0 140
0 0 140
0 0 140
0 0 140
0 0 140
0 0 140
0 0 140
0 0 140
0 0 140
0 0 140
0 0 140
0 0 140
62 0 89
90 0 0
87 0 0
90 0 0
93 0 0
95 0 0
89 0 0
91 0 0
81 0 0
92 0 0
92 0 0
81 0 0
89 0 0
90 0 0
104 0 0
101 0 0
91 0 0
98 0 0
88 0 0
94 0 0
103 0 0
102 0 0
95 0 0
99 0 0
96 0 0
83 0 0
99 0 0
96 0 0
96 0 0
95 0 0
106 0 0
103 0 0
99 0 0
93 0 0
109 0 0
104 0 0
110 0 0
107 0 0
114 0 0
102 0 0
99 0 0
108 0 0
105 0 0
100 0 0
109 0 0
98 0 0
107 0 0
113 0 0
86 0 0
92 0 0
114 0 0
101 0 0
102 0 0
112 0 0
97 0 0
94 0 0
101 0 0
89 0 0
95 0 0
90 0 0
100 0 0
99 0 0
96 0 0
97 0 0
91 0 0
97 0 0
99 0 0
103 0 0
99 0 0
93 0 0
105 0 0
97 0 0
105 0 0
95 0 0
110 0 0
87 0 0
106 0 0
86 0 0
101 0 0
90 0 0
92 0 0
99 0 0
93 0 0
93 0 0
87 0 0
87 0 0
101 0 0
107 0 0
102 0 0
89 0 0
93 0 0
100 0 0
93 0 0
85 0 0
84 0 0
94 0 0
90 0 0
59 0 85
17 0 138
0 0 140
0 0 140
0 0 140
0 0 140
0 0 140
0 0 140
0 0 140
0 0 140
0 0 140
0 0 140
0 0 140
0 0 140
0 0 140
0 0 140
0 0 140
0 0 140
0 0 140
0 0 140
0 0 140
0 0 140
0 0 140
0 0 140
0 0 140
0 0 140
0 0 140
0 0 140
0 0 140
0 0 140
0 0 140
0 0 140
0 0 140
0 0 140
0 0 140
0 0 140
0 0 140
0 0 140
0 0 140
0 0 140
0 0 140
0 0 140
0 0 140
0 0 140
0 0 140
0 0 140
0 0 140
0 0 140
0 0 140
0 0 140
0 0 140
0 0 140
0 0 140
0 0 140
0 0 140
0 0 140
0 0 140
0 0 140
0 0 140
0 0 140
0 0 140
0 0 140
0 0 140
0 0 140
0 0 140
0 0 140
0 0 140
0 0 140
0 0 140
0 0 140
0 0 140
0 0 140
0 0 140
0 0 140
0 0 140
0 0 140
0 0 140
0 0 140
0 0 140
0 0 140
0 0 140
0 0 140
0 0 140
0 0 140
0 0 140
0 0 140
0 0 140
0 0 140
0 0 140
0 0 140
0 0 140
0 0 140
0 0 140
0 0 140
0 0 140
0 0 140
0 0 140
0 0 140
0 0 140
0 0 140
0 0 140
0 0 140
0 0 140
0 0 140
0 0 140
0 0 140
0 0 140
0 0 140
0 0 140
0 0 140
0 0 140
0 0 140
0 0 140
0 0 140
0 0 140
0 0 140
0 0 140
0 0 140
0 0 140
0 0 140
0 0 140
0 0 140
0 0 140
0 0 140
0 0 140
0 0 140
0 0 140
0 0 140
0 0 140
0 0 140
0 0 140
0 0 140
0 0 140
0 0 140
0 0 140
0 0 140
0 0 140
0 0 140
0 0 140
0 0 140
0 0 140
0 0 140
0 0 140
0 0 140
0 0 140
0 0 140
0 0 140
0 0 140
0 0 140
0 0 140
0 0 140
0 0 140
0 0 140
0 0 140
0 0 140
0 0 140
0 0 140
0 0 140
0 0 140
0 0 140
0 0 140
0 0 140
0 0 140
0 0 140
0 0 140
0 0 140
0 0 140
0 0 140
0 0 140
0 0 140
0 0 140
0 0 140
0 0 140
0 0 140
0 0 140
0 0 140
0 0 140
0 0 140
0 0 140
0 0 140
0 0 140
0 0 140
0 0 140
0 0 140
0 0 140
0 0 140
0 0 140
0 0 140
0 0 140
0 0 140
0 0 140
0 0 140
0 0 140
0 0 140
0 0 140
0 0 140
0 0 140
0 0 140
0 0 140
0 0 140
0 0 140
0 0 140
0 0 140
0 0 140
0 0 140
0 0 140
0 0 140
0 0 140
0 0 140
0 0 140
0 0 140
0 0 140
0 0 140
0 0 140
0 0 140
0 0 140
0 0 140
0 0 140
0 0 140
0 0 140
0 0 140
0 0 140
0 0 140
0 0 140
0 0 140
0 0 140
0 0 140
0 0 140
0 0 140
0 0 140
0 0 140
0 0 140
0 0 140
0 0 140
0 0 140
0 0 140
0 0 140
0 0 140
0 0 140
0 0 140
0 0 140
0 0 140
0 0 140
0 0 140
0 0 140
0 0 140
0 0 140
0 0 140
0 0 140
0 0 140
0 0 140
0 0 140
0 0 140
0 0 140
0 0 140
0 0 140
0 0 140
0 0 140
0 0 140
0 0 140
0 0 140
0 0 140
0 0 140
0 0 140
0 0 140
0 0 140
0 0 140
0 0 140
0 0 140
0 0 140
0 0 140
0 0 140
0 0 140
0 0 140
0 0 140
0 0 140
0 0 140
0 0 140
0 0 140
0 0 140
0 0 140
0 0 140
0 0 140
0 0 140
0 0 140
0 0 140
0 0 140
0 0 140
0 0 140
0 0 140
0 0 140
0 0 140
0 0 140
0 0 140
0 0 140
0 0 140
0 0 140
0 0 140
0 0 140
0 0 140
0 0 140
0 0 140
0 0 140
17 0 135
77 0 65
97 0 0
99 0 0
95 0 0
77 0 0
79 0 0
90 0 0
107 0 0
102 0 0
87 0 0
95 0 0
99 0 0
93 0 0
97 0 0
98 0 0
106 0 0
93 0 0
98 0 0
106 0 0
89 0 0
98 0 0
92 0 0
105 0 0
99 0 0
88 0 0
106 0 0
64 0 0
95 0 0
94 0 0
92 0 0
110 0 0
98 0 0
91 0 0
108 0 0
103 0 0
80 0 0
90 0 0
104 0 0
92 0 0
109 0 0
93 0 0
99 0 0
97 0 0
96 0 0
100 0 0
109 0 0
92 0 0
90 0 0
103 0 0
90 0 0
96 0 0
95 0 0
102 0 0
89 0 0
105 0 0
99 0 0
81 0 0
98 0 0
98 0 0
103 0 0
100 0 0
93 0 0
87 0 0
89 0 0
85 0 0
103 0 0
103 0 0
105 0 0
100 0 0
113 0 0
103 0 0
102 0 0
85 0 0
112 0 0
103 0 0
95 0 0
107 0 0
99 0 0
105 0 0
102 0 0
108 0 0
94 0 0
108 0 0
86 0 0
96 0 0
96 0 0
107 0 0
96 0 0
92 0 0
88 0 0
94 0 0
108 0 0
89 0 0
81 0 0
90 0 0
70 0 62
17 0 137
0 0 140
0 0 140
0 0 140
0 0 140
0 0 140
0 0 140
0 0 140
0 0 140
0 0 140
0 0 140
0 0 140
0 0 140
0 0 140
0 0 140
0 0 140
0 0 140
0 0 140
0 0 140
0 0 140
0 0 140
0 0 140
0 0 140
0 0 140
0 0 140
0 0 140
0 0 140
0 0 140
0 0 140
0 0 140
0 0 140
0 0 140
0 0 140
0 0 140
0 0 140
0 0 140
0 0 140
0 0 140
0 0 140
0 0 140
0 0 140
0 0 140
0 0 140
0 0 140
0 0 140
0 0 140
0 0 140
0 0 140
0 0 140
0 0 140
0 0 140
0 0 140
0 0 140
0 0 140
0 0 140
0 0 140
0 0 140
0 0 140
0 0 140
0 0 140
0 0 140
0 0 140
0 0 140
0 0 140
0 0 140
0 0 140
0 0 140
0 0 140
0 0 140
0 0 140
0 0 140
0 0 140
0 0 140
0 0 140
0 0 140
0 0 140
0 0 140
0 0 140
0 0 140
0 0 140
0 0 140
0 0 140
0 0 140
0 0 140
0 0 140
0 0 140
0 0 140
0 0 140
0 0 140
0 0 140
0 0 140
0 0 140
0 0 140
0 0 140
0 0 140
0 0 140
0 0 140
0 0 140
0 0 140
0 0 140
0 0 140
0 0 140
0 0 140
0 0 140
0 0 140
0 0 140
0 0 140
0 0 140
0 0 140
0 0 140
0 0 140
0 0 140
0 0 140
0 0 140
0 0 140
0 0 140
0 0 140
0 0 140
0 0 140
0 0 140
0 0 140
0 0 140
0 0 140
0 0 140
0 0 140
0 0 140
0 0 140
0 0 140
0 0 140
0 0 140
0 0 140
0 0 140
0 0 140
0 0 140
0 0 140
0 0 140
0 0 140
0 0 140
0 0 140
0 0 140
0 0 140
0 0 140
0 0 140
0 0 140
0 0 140
0 0 140
0 0 140
0 0 140
0 0 140
0 0 140
0 0 140
0 0 140
0 0 140
0 0 140
0 0 140
0 0 140
0 0 140
0 0 140
0 0 140
0 0 140
0 0 140
0 0 140
0 0 140
0 0 140
0 0 140
0 0 140
0 0 140
0 0 140
0 0 140
0 0 140
0 0 140
0 0 140
0 0 140
0 0 140
0 0 140
0 0 140
0 0 140
0 0 140
0 0 140
0 0 140
0 0 140
0 0 140
0 0 140
0 0 140
0 0 140
0 0 140
0 0 140
0 0 140
0 0 140
0 0 140
0 0 140
0 0 140
0 0 140
0 0 140
0 0 140
0 0 140
0 0 140
0 0 140
0 0 140
0 0 140
0 0 140
0 0 140
0 0 140
0 0 140
0 0 140
0 0 140
0 0 140
0 0 140
0 0 140
0 0 140
0 0 140
0 0 140
0 0 140
0 0 140
0 0 140
0 0 140
0 0 140
0 0 140
0 0 140
0 0 140
0 0 140
0 0 140
0 0 140
0 0 140
0 0 140
0 0 140
0 0 140
0 0 140
0 0 140
0 0 140
0 0 140
0 0 140
0 0 140
0 0 140
0 0 140
0 0 140
0 0 140
0 0 140
0 0 140
0 0 140
0 0 140
0 0 140
0 0 140
0 0 140
0 0 140
0 0 140
0 0 140
0 0 140
0 0 140
0 0 140
0 0 140
0 0 140
0 0 140
0 0 140
0 0 140
0 0 140
0 0 140
0 0 140
0 0 140
0 0 140
0 0 140
0 0 140
0 0 140
0 0 140
0 0 140
0 0 140
0 0 140
0 0 140
0 0 140
0 0 140
0 0 140
0 0 140
0 0 140
0 0 140
0 0 140
0 0 140
0 0 140
0 0 140
0 0 140
0 0 140
0 0 140
0 0 140
0 0 140
0 0 140
0 0 140
0 0 140
0 0 140
0 0 140
0 0 140
0 0 140
0 0 140
0 0 140
0 0 140
0 0 140
0 0 140
0 0 140
0 0 140
0 0 140
0 0 140
0 0 140
0 0 140
0 0 140
0 0 140
0 0 140
0 0 137
77 0 65
74 0 0
83 0 0
85 0 0
85 0 0
100 0 0
105 0 0
95 0 0
93 0 0
96 0 0
98 0 0
93 0 0
106 0 0
96 0 0
103 0 0
95 0 0
95 0 0
84 0 0
101 0 0
93 0 0
105 0 0
98 0 0
94 0 0
91 0 0
100 0 0
99 0 0
99 0 0
76 0 0
96 0 0
102 0 0
99 0 0
104 0 0
78 0 0
90 0 0
100 0 0
91 0 0
103 0 0
101 0 0
113 0 0
97 0 0
103 0 0
97 0 0
105 0 0
90 0 0
108 0 0
101 0 0
95 0 0
103 0 0
116 0 0
96 0 0
90 0 0
111 0 0
99 0 0
94 0 0
97 0 0
91 0 0
101 0 0
91 0 0
104 0 0
87 0 0
97 0 0
96 0 0
95 0 0
104 0 0
98 0 0
102 0 0
98 0 0
96 0 0
103 0 0
103 0 0
107 0 0
97 0 0
85 0 0
105 0 0
96 0 0
92 0 0
94 0 0
89 0 0
91 0 0
99 0 0
103 0 0
90 0 0
80 0 0
94 0 0
99 0 0
100 0 0
101 0 0
100 0 0
96 0 0
99 0 0
92 0 0
97 0 0
81 0 0
89 0 57
17 0 138
0 0 140
0 0 140
0 0 140
0 0 140
0 0 140
0 0 140
0 0 140
0 0 140
0 0 140
0 0 140
0 0 140
0 0 140
0 0 140
0 0 140
0 0 140
0 0 140
0 0 140
0 0 140
0 0 140
0 0 140
0 0 140
0 0 140
0 0 140
0 0 140
0 0 140
0 0 140
0 0 140
0 0 140
0 0 140
0 0 140
0 0 140
0 0 140
0 0 140
0 0 140
0 0 140
0 0 140
0 0 140
0 0 140
0 0 140
0 0 140
0 0 140
0 0 140
0 0 140
0 0 140
0 0 140
0 0 140
0 0 140
0 0 140
0 0 140
0 0 140
0 0 140
0 0 140
0 0 140
0 0 140
0 0 140
0 0 140
0 0 140
0 0 140
0 0 140
0 0 140
0 0 140
0 0 140
0 0 140
0 0 140
0 0 140
0 0 140
0 0 140
0 0 140
0 0 140
0 0 140
0 0 140
0 0 140
0 0 140
0 0 140
0 0 140
0 0 140
0 0 140
0 0 140
0 0 140
0 0 140
0 0 140
0 0 140
0 0 140
0 0 140
0 0 140
0 0 140
0 0 140
0 0 140
0 0 140
0 0 140
0 0 140
0 0 140
0 0 140
0 0 140
0 0 140
0 0 140
0 0 140
0 0 140
0 0 140
0 0 140
0 0 140
0 0 140
0 0 140
0 0 140
0 0 140
0 0 140
0 0 140
0 0 140
0 0 140
0 0 140
0 0 140
0 0 140
0 0 140
0 0 140
0 0 140
0 0 140
0 0 140
0 0 140
0 0 140
0 0 140
0 0 140
0 0 140
0 0 140
0 0 140
0 0 140
0 0 140
0 0 140
0 0 140
0 0 140
0 0 140
0 0 140
0 0 140
0 0 140
0 0 140
0 0 140
0 0 140
0 0 140
0 0 140
0 0 140
0 0 140
0 0 140
0 0 140
0 0 140
0 0 140
0 0 140
0 0 140
0 0 140
0 0 140
0 0 140
0 0 140
0 0 140
0 0 140
0 0 140
0 0 140
0 0 140
0 0 140
0 0 140
0 0 140
0 0 140
0 0 140
0 0 140
0 0 140
0 0 140
0 0 140
0 0 140
0 0 140
0 0 140
0 0 140
0 0 140
0 0 140
0 0 140
0 0 140
0 0 140
0 0 140
0 0 140
0 0 140
0 0 140
0 0 140
0 0 140
0 0 140
0 0 140
0 0 140
0 0 140
0 0 140
0 0 140
0 0 140
0 0 140
0 0 140
0 0 140
0 0 140
0 0 140
0 0 140
0 0 140
0 0 140
0 0 140
0 0 140
0 0 140
0 0 140
0 0 140
0 0 140
0 0 140
0 0 140
0 0 140
0 0 140
0 0 140
0 0 140
0 0 140
0 0 140
0 0 140
0 0 140
0 0 140
0 0 140
0 0 140
0 0 140
0 0 140
0 0 140
0 0 140
0 0 140
0 0 140
0 0 140
0 0 140
0 0 140
0 0 140
0 0 140
0 0 140
0 0 140
0 0 140
0 0 140
0 0 140
0 0 140
0 0 140
0 0 140
0 0 140
0 0 140
0 0 140
0 0 140
0 0 140
0 0 140
0 0 140
0 0 140
0 0 140
0 0 140
0 0 140
0 0 140
0 0 140
0 0 140
0 0 140
0 0 140
0 0 140
0 0 140
0 0 140
0 0 140
0 0 140
0 0 140
0 0 140
0 0 140
0 0 140
0 0 140
0 0 140
0 0 140
0 0 140
0 0 140
0 0 140
0 0 140
0 0 140
0 0 140
0 0 140
0 0 140
0 0 140
0 0 140
0 0 140
0 0 140
0 0 140
0 0 140
0 0 140
0 0 140
0 0 140
0 0 140
0 0 140
0 0 140
0 0 140
0 0 140
0 0 140
0 0 140
0 0 140
0 0 140
0 0 140
0 0 140
0 0 140
0 0 140
0 0 140
0 0 140
0 0 140
0 0 140
0 0 140
0 0 140
0 0 140
0 0 140
0 0 140
0 0 140
0 0 140
0 0 140
0 0 140
0 0 140
0 0 140
24 0 135
71 0 70
83 0 0
83 0 0
100 0 0
101 0 0
92 0 0
92 0 0
91 0 0
108 0 0
73 0 0
97 0 0
82 0 0
86 0 0
105 0 0
100 0 0
96 0 0
98 0 0
88 0 0
85 0 0
94 0 0
100 0 0
101 0 0
102 0 0
95 0 0
91 0 0
99 0 0
85 0 0
109 0 0
93 0 0
100 0 0
94 0 0
94 0 0
88 0 0
103 0 0
100 0 0
96 0 0
102 0 0
103 0 0
98 0 0
92 0 0
85 0 0
103 0 0
91 0 0
101 0 0
102 0 0
87 0 0
96 0 0
103 0 0
102 0 0
101 0 0
106 0 0
97 0 0
98 0 0
98 0 0
105 0 0
92 0 0
94 0 0
89 0 0
88 0 0
94 0 0
99 0 0
89 0 0
86 0 0
87 0 0
92 0 0
99 0 0
109 0 0
96 0 0
102 0 0
107 0 0
101 0 0
83 0 0
91 0 0
104 0 0
87 0 0
90 0 0
93 0 0
72 0 0
90 0 0
94 0 0
95 0 0
94 0 0
95 0 0
90 0 0
89 0 0
85 0 0
88 0 0
86 0 0
84 0 0
85 0 0
86 0 0
73 0 54
17 0 136
0 0 140
0 0 140
0 0 140
0 0 140
0 0 140
0 0 140
0 0 140
0 0 140
0 0 140
0 0 140
0 0 140
0 0 140
0 0 140
0 0 140
0 0 140
0 0 140
0 0 140
0 0 140
0 0 140
0 0 140
0 0 140
0 0 140
0 0 140
0 0 140
0 0 140
0 0 140
0 0 140
0 0 140
0 0 140
0 0 140
0 0 140
0 0 140
0 0 140
0 0 140
0 0 140
0 0 140
0 0 140
0 0 140
0 0 140
0 0 140
0 0 140
0 0 140
0 0 140
0 0 140
0 0 140
0 0 140
0 0 140
0 0 140
0 0 140
0 0 140
0 0 140
0 0 140
0 0 140
0 0 140
0 0 140
0 0 140
0 0 140
0 0 140
0 0 140
0 0 140
0 0 140
0 0 140
0 0 140
0 0 140
0 0 140
0 0 140
0 0 140
0 0 140
0 0 140
0 0 140
0 0 140
0 0 140
0 0 140
0 0 140
0 0 140
0 0 140
0 0 140
0 0 140
0 0 140
0 0 140
0 0 140
0 0 140
0 0 140
0 0 140
0 0 140
0 0 140
0 0 140
0 0 140
0 0 140
0 0 140
0 0 140
0 0 140
0 0 140
0 0 140
0 0 140
0 0 140
0 0 140
0 0 140
0 0 140
0 0 140
0 0 140
0 0 140
0 0 140
0 0 140
0 0 140
0 0 140
0 0 140
0 0 140
0 0 140
0 0 140
0 0 140
0 0 140
0 0 140
0 0 140
0 0 140
0 0 140
0 0 140
0 0 140
0 0 140
0 0 140
0 0 140
0 0 140
0 0 140
0 0 140
0 0 140
0 0 140
0 0 140
0 0 140
0 0 140
0 0 140
0 0 140
0 0 140
0 0 140
0 0 140
0 0 140
0 0 140
0 0 140
0 0 140
0 0 140
0 0 140
0 0 140
0 0 140
0 0 140
0 0 140
0 0 140
0 0 140
0 0 140
0 0 140
0 0 140
0 0 140
0 0 140
0 0 140
0 0 140
0 0 140
0 0 140
0 0 140
0 0 140
0 0 140
0 0 140
0 0 140
0 0 140
0 0 140
0 0 140
0 0 140
0 0 140
0 0 140
0 0 140
0 0 140
0 0 140
0 0 140
0 0 140
0 0 140
0 0 140
0 0 140
0 0 140
0 0 140
0 0 140
0 0 140
0 0 140
0 0 140
0 0 140
0 0 140
0 0 140
0 0 140
0 0 140
0 0 140
0 0 140
0 0 140
0 0 140
0 0 140
0 0 140
0 0 140
0 0 140
0 0 140
0 0 140
0 0 140
0 0 140
0 0 140
0 0 140
0 0 140
0 0 140
0 0 140
0 0 140
0 0 140
0 0 140
0 0 140
0 0 140
0 0 140
0 0 140
0 0 140
0 0 140
0 0 140
0 0 140
0 0 140
0 0 140
0 0 140
0 0 140
0 0 140
0 0 140
0 0 140
0 0 140
0 0 140
0 0 140
0 0 140
0 0 140
0 0 140
0 0 140
0 0 140
0 0 140
0 0 140
0 0 140
0 0 140
0 0 140
0 0 140
0 0 140
0 0 140
0 0 140
0 0 140
0 0 140
0 0 140
0 0 140
0 0 140
0 0 140
0 0 140
0 0 140
0 0 140
0 0 140
0 0 140
0 0 140
0 0 140
0 0 140
0 0 140
0 0 140
0 0 140
0 0 140
0 0 140
0 0 140
0 0 140
0 0 140
0 0 140
0 0 140
0 0 140
0 0 140
0 0 140
0 0 140
0 0 140
0 0 140
0 0 140
0 0 140
0 0 140
0 0 140
0 0 140
0 0 140
0 0 140
0 0 140
0 0 140
0 0 140
0 0 140
0 0 140
0 0 140
0 0 140
0 0 140
0 0 140
0 0 140
0 0 140
0 0 140
0 0 140
0 0 140
0 0 140
0 0 140
0 0 140
0 0 140
0 0 140
0 0 140
0 0 140
0 0 140
0 0 140
0 0 140
0 0 140
0 0 140
0 0 140
0 0 140
0 0 140
0 0 140
0 0 140
0 0 140
0 0 140
36 0 135
74 0 74
83 0 0
87 0 0
87 0 0
85 0 0
88 0 0
75 0 0
94 0 0
83 0 0
89 0 0
90 0 0
90 0 0
92 0 0
98 0 0
88 0 0
90 0 0
104 0 0
84 0 0
101 0 0
101 0 0
79 0 0
101 0 0
94 0 0
104 0 0
83 0 0
93 0 0
110 0 0
104 0 0
98 0 0
96 0 0
92 0 0
107 0 0
91 0 0
100 0 0
103 0 0
91 0 0
97 0 0
103 0 0
92 0 0
93 0 0
107 0 0
97 0 0
97 0 0
98 0 0
85 0 0
91 0 0
97 0 0
102 0 0
106 0 0
98 0 0
91 0 0
102 0 0
107 0 0
97 0 0
111 0 0
95 0 0
103 0 0
93 0 0
94 0 0
104 0 0
89 0 0
109 0 0
93 0 0
87 0 0
99 0 0
92 0 0
88 0 0
98 0 0
101 0 0
97 0 0
93 0 0
100 0 0
97 0 0
99 0 0
91 0 0
88 0 0
95 0 0
90 0 0
95 0 0
103 0 0
81 0 0
88 0 0
80 0 0
89 0 0
87 0 0
88 0 0
88 0 0
83 0 0
101 0 0
56 0 76
0 0 137
0 0 140
0 0 140
0 0 140
0 0 140
0 0 140
0 0 140
0 0 140
0 0 140
0 0 140
0 0 140
0 0 140
0 0 140
0 0 140
0 0 140
0 0 140
0 0 140
0 0 140
0 0 140
0 0 140
0 0 140
0 0 140
0 0 140
0 0 140
0 0 140
0 0 140
0 0 140
0 0 140
0 0 140
0 0 140
0 0 140
0 0 140
0 0 140
0 0 140
0 0 140
0 0 140
0 0 140
0 0 140
0 0 140
0 0 140
0 0 140
0 0 140
0 0 140
0 0 140
0 0 140
0 0 140
0 0 140
0 0 140
0 0 140
0 0 140
0 0 140
0 0 140
0 0 140
0 0 140
0 0 140
0 0 140
0 0 140
0 0 140
0 0 140
0 0 140
0 0 140
0 0 140
0 0 140
0 0 140
0 0 140
0 0 140
0 0 140
0 0 140
0 0 140
0 0 140
0 0 140
0 0 140
0 0 140
0 0 140
0 0 140
0 0 140
0 0 140
0 0 140
0 0 140
0 0 140
0 0 140
0 0 140
0 0 140
0 0 140
0 0 140
0 0 140
0 0 140
0 0 140
0 0 140
0 0 140
0 0 140
0 0 140
0 0 140
0 0 140
0 0 140
0 0 140
0 0 140
0 0 140
0 0 140
0 0 140
0 0 140
0 0 140
0 0 140
0 0 140
0 0 140
0 0 140
0 0 140
0 0 140
0 0 140
0 0 140
0 0 140
0 0 140
0 0 140
0 0 140
0 0 140
0 0 140
0 0 140
0 0 140
0 0 140
0 0 140
0 0 140
0 0 140
0 0 140
0 0 140
0 0 140
0 0 140
0 0 140
0 0 140
0 0 140
0 0 140
0 0 140
0 0 140
0 0 140
0 0 140
0 0 140
0 0 140
0 0 140
0 0 140
0 0 140
0 0 140
0 0 140
0 0 140
0 0 140
0 0 140
0 0 140
0 0 140
0 0 140
0 0 140
0 0 140
0 0 140
0 0 140
0 0 140
0 0 140
0 0 140
0 0 140
0 0 140
0 0 140
0 0 140
0 0 140
0 0 140
0 0 140
0 0 140
0 0 140
0 0 140
0 0 140
0 0 140
0 0 140
0 0 140
0 0 140
0 0 140
0 0 140
0 0 140
0 0 140
0 0 140
0 0 140
0 0 140
0 0 140
0 0 140
0 0 140
0 0 140
0 0 140
0 0 140
0 0 140
0 0 140
0 0 140
0 0 140
0 0 140
0 0 140
0 0 140
0 0 140
0 0 140
0 0 140
0 0 140
0 0 140
0 0 140
0 0 140
0 0 140
0 0 140
0 0 140
0 0 140
0 0 140
0 0 140
0 0 140
0 0 140
0 0 140
0 0 140
0 0 140
0 0 140
0 0 140
0 0 140
0 0 140
0 0 140
0 0 140
0 0 140
0 0 140
0 0 140
0 0 140
0 0 140
0 0 140
0 0 140
0 0 140
0 0 140
0 0 140
0 0 140
0 0 140
0 0 140
0 0 140
0 0 140
0 0 140
0 0 140
0 0 140
0 0 140
0 0 140
0 0 140
0 0 140
0 0 140
0 0 140
0 0 140
0 0 140
0 0 140
0 0 140
0 0 140
0 0 140
0 0 140
0 0 140
0 0 140
0 0 140
0 0 140
0 0 140
0 0 140
0 0 140
0 0 140
0 0 140
0 0 140
0 0 140
0 0 140
0 0 140
0 0 140
0 0 140
0 0 140
0 0 140
0 0 140
0 0 140
0 0 140
0 0 140
0 0 140
0 0 140
0 0 140
0 0 140
0 0 140
0 0 140
0 0 140
0 0 140
0 0 140
0 0 140
0 0 140
0 0 140
0 0 140
0 0 140
0 0 140
0 0 140
0 0 140
0 0 140
0 0 140
0 0 140
0 0 140
0 0 140
0 0 140
0 0 140
0 0 140
0 0 140
0 0 140
0 0 140
0 0 140
0 0 140
0 0 140
0 0 140
0 0 140
0 0 140
0 0 140
0 0 140
0 0 140
0 0 140
0 0 140
0 0 140
0 0 140
0 0 140
0 0 140
0 0 140
0 0 140
24 0 138
68 0 68
99 0 0
88 0 0
87 0 0
79 0 0
95 0 0
96 0 0
103 0 0
100 0 0
90 0 0
93 0 0
88 0 0
91 0 0
100 0 0
87 0 0
100 0 0
91 0 0
84 0 0
84 0 0
86 0 0
96 0 0
96 0 0
98 0 0
90 0 0
103 0 0
82 0 0
88 0 0
92 0 0
89 0 0
88 0 0
81 0 0
99 0 0
103 0 0
86 0 0
106 0 0
96 0 0
90 0 0
93 0 0
95 0 0
91 0 0
97 0 0
90 0 0
87 0 0
92 0 0
102 0 0
105 0 0
100 0 0
95 0 0
116 0 0
92 0 0
101 0 0
88 0 0
93 0 0
95 0 0
88 0 0
102 0 0
104 0 0
96 0 0
99 0 0
95 0 0
100 0 0
103 0 0
96 0 0
101 0 0
94 0 0
102 0 0
95 0 0
82 0 0
84 0 0
93 0 0
98 0 0
91 0 0
106 0 0
88 0 0
91 0 0
73 0 0
83 0 0
80 0 0
88 0 0
94 0 0
102 0 0
92 0 0
91 0 0
87 0 0
91 0 0
86 0 0
67 0 0
76 0 68
18 0 136
0 0 140
0 0 140
0 0 140
0 0 140
0 0 140
0 0 140
0 0 140
0 0 140
0 0 140
0 0 140
0 0 140
0 0 140
0 0 140
0 0 140
0 0 140
0 0 140
0 0 140
0 0 140
0 0 140
0 0 140
0 0 140
0 0 140
0 0 140
0 0 140
0 0 140
0 0 140
0 0 140
0 0 140
0 0 140
0 0 140
0 0 140
0 0 140
0 0 140
0 0 140
0 0 140
0 0 140
0 0 140
0 0 140
0 0 140
0 0 140
0 0 140
0 0 140
0 0 140
0 0 140
0 0 140
0 0 140
0 0 140
0 0 140
0 0 140
0 0 140
0 0 140
0 0 140
0 0 140
0 0 140
0 0 140
0 0 140
0 0 140
0 0 140
0 0 140
0 0 140
0 0 140
0 0 140
0 0 140
0 0 140
0 0 140
0 0 140
0 0 140
0 0 140
0 0 140
0 0 140
0 0 140
0 0 140
0 0 140
0 0 140
0 0 140
0 0 140
0 0 140
0 0 140
0 0 140
0 0 140
0 0 140
0 0 140
0 0 140
0 0 140
0 0 140
0 0 140
0 0 140
0 0 140
0 0 140
0 0 140
0 0 140
0 0 140
0 0 140
0 0 140
0 0 140
0 0 140
0 0 140
0 0 140
0 0 140
0 0 140
0 0 140
0 0 140
0 0 140
0 0 140
0 0 140
0 0 140
0 0 140
0 0 140
0 0 140
0 0 140
0 0 140
0 0 140
0 0 140
0 0 140
0 0 140
0 0 140
0 0 140
0 0 140
0 0 140
0 0 140
0 0 140
0 0 140
0 0 140
0 0 140
0 0 140
0 0 140
0 0 140
0 0 140
0 0 140
0 0 140
0 0 140
0 0 140
0 0 140
0 0 140
0 0 140
0 0 140
0 0 140
0 0 140
0 0 140
0 0 140
0 0 140
0 0 140
0 0 140
0 0 140
0 0 140
0 0 140
0 0 140
0 0 140
0 0 140
0 0 140
0 0 140
0 0 140
0 0 140
0 0 140
0 0 140
0 0 140
0 0 140
0 0 140
0 0 140
0 0 140
0 0 140
0 0 140
0 0 140
0 0 140
0 0 140
0 0 140
0 0 140
0 0 140
0 0 140
0 0 140
0 0 140
0 0 140
0 0 140
0 0 140
0 0 140
0 0 140
0 0 140
0 0 140
0 0 140
0 0 140
0 0 140
0 0 140
0 0 140
0 0 140
0 0 140
0 0 140
0 0 140
0 0 140
0 0 140
0 0 140
0 0 140
0 0 140
0 0 140
0 0 140
0 0 140
0 0 140
0 0 140
0 0 140
0 0 140
0 0 140
0 0 140
0 0 140
0 0 140
0 0 140
0 0 140
0 0 140
0 0 140
0 0 140
0 0 140
0 0 140
0 0 140
0 0 140
0 0 140
0 0 140
0 0 140
0 0 140
0 0 140
0 0 140
0 0 140
0 0 140
0 0 140
0 0 140
0 0 140
0 0 140
0 0 140
0 0 140
0 0 140
0 0 140
0 0 140
0 0 140
0 0 140
0 0 140
0 0 140
0 0 140
0 0 140
0 0 140
0 0 140
0 0 140
0 0 140
0 0 140
0 0 140
0 0 140
0 0 140
0 0 140
0 0 140
0 0 140
0 0 140
0 0 140
0 0 140
0 0 140
0 0 140
0 0 140
0 0 140
0 0 140
0 0 140
0 0 140
0 0 140
0 0 140
0 0 140
0 0 140
0 0 140
0 0 140
0 0 140
0 0 140
0 0 140
0 0 140
0 0 140
0 0 140
0 0 140
0 0 140
0 0 140
0 0 140
0 0 140
0 0 140
0 0 140
0 0 140
0 0 140
0 0 140
0 0 140
0 0 140
0 0 140
0 0 140
0 0 140
0 0 140
0 0 140
0 0 140
0 0 140
0 0 140
0 0 140
0 0 140
0 0 140
0 0 140
0 0 140
0 0 140
0 0 140
0 0 140
0 0 140
0 0 140
0 0 140
0 0 140
0 0 140
0 0 140
0 0 140
0 0 140
0 0 140
0 0 140
0 0 140
0 0 140
0 0 140
0 0 140
0 0 140
0 0 138
77 0 80
92 0 0
76 0 0
86 0 0
94 0 0
96 0 0
90 0 0
79 0 0
81 0 0
93 0 0
93 0 0
104 0 0
94 0 0
90 0 0
96 0 0
85 0 0
99 0 0
99 0 0
91 0 0
86 0 0
76 0 0
89 0 0
85 0 0
92 0 0
95 0 0
94 0 0
98 0 0
100 0 0
93 0 0
86 0 0
88 0 0
98 0 0
98 0 0
102 0 0
88 0 0
97 0 0
98 0 0
94 0 0
99 0 0
103 0 0
94 0 0
92 0 0
84 0 0
95 0 0
89 0 0
97 0 0
84 0 0
101 0 0
91 0 0
83 0 0
86 0 0
90 0 0
89 0 0
100 0 0
93 0 0
102 0 0
102 0 0
88 0 0
95 0 0
88 0 0
100 0 0
94 0 0
105 0 0
92 0 0
102 0 0
107 0 0
98 0 0
96 0 0
93 0 0
88 0 0
91 0 0
100 0 0
88 0 0
89 0 0
79 0 0
96 0 0
90 0 0
84 0 0
95 0 0
92 0 0
77 0 0
94 0 0
89 0 0
89 0 0
98 0 0
70 0 89
18 0 137
0 0 140
0 0 140
0 0 140
0 0 140
0 0 140
0 0 140
0 0 140
0 0 140
0 0 140
0 0 140
0 0 140
0 0 140
0 0 140
0 0 140
0 0 140
0 0 140
0 0 140
0 0 140
0 0 140
0 0 140
0 0 140
0 0 140
0 0 140
0 0 140
0 0 140
0 0 140
0 0 140
0 0 140
0 0 140
0 0 140
0 0 140
0 0 140
0 0 140
0 0 140
0 0 140
0 0 140
0 0 140
0 0 140
0 0 140
0 0 140
0 0 140
0 0 140
0 0 140
0 0 140
0 0 140
0 0 140
0 0 140
0 0 140
0 0 140
0 0 140
0 0 140
0 0 140
0 0 140
0 0 140
0 0 140
0 0 140
0 0 140
0 0 140
0 0 140
0 0 140
0 0 140
0 0 140
0 0 140
0 0 140
0 0 140
0 0 140
0 0 140
0 0 140
0 0 140
0 0 140
0 0 140
0 0 140
0 0 140
0 0 140
0 0 140
0 0 140
0 0 140
0 0 140
0 0 140
0 0 140
0 0 140
0 0 140
0 0 140
0 0 140
0 0 140
0 0 140
0 0 140
0 0 140
0 0 140
0 0 140
0 0 140
0 0 140
0 0 140
0 0 140
0 0 140
0 0 140
0 0 140
0 0 140
0 0 140
0 0 140
0 0 140
0 0 140
0 0 140
0 0 140
0 0 140
0 0 140
0 0 140
0 0 140
0 0 140
0 0 140
0 0 140
0 0 140
0 0 140
0 0 140
0 0 140
0 0 140
0 0 140
0 0 140
0 0 140
0 0 140
0 0 140
0 0 140
0 0 140
0 0 140
0 0 140
0 0 140
0 0 140
0 0 140
0 0 140
0 0 140
0 0 140
0 0 140
0 0 140
0 0 140
0 0 140
0 0 140
0 0 140
0 0 140
0 0 140
0 0 140
0 0 140
0 0 140
0 0 140
0 0 140
0 0 140
0 0 140
0 0 140
0 0 140
0 0 140
0 0 140
0 0 140
0 0 140
0 0 140
0 0 140
0 0 140
0 0 140
0 0 140
0 0 140
0 0 140
0 0 140
0 0 140
0 0 140
0 0 140
0 0 140
0 0 140
0 0 140
0 0 140
0 0 140
0 0 140
0 0 140
0 0 140
0 0 140
0 0 140
0 0 140
0 0 140
0 0 140
0 0 140
0 0 140
0 0 140
0 0 140
0 0 140
0 0 140
0 0 140
0 0 140
0 0 140
0 0 140
0 0 140
0 0 140
0 0 140
0 0 140
0 0 140
0 0 140
0 0 140
0 0 140
0 0 140
0 0 140
0 0 140
0 0 140
0 0 140
0 0 140
0 0 140
0 0 140
0 0 140
0 0 140
0 0 140
0 0 140
0 0 140
0 0 140
0 0 140
0 0 140
0 0 140
0 0 140
0 0 140
0 0 140
0 0 140
0 0 140
0 0 140
0 0 140
0 0 140
0 0 140
0 0 140
0 0 140
0 0 140
0 0 140
0 0 140
0 0 140
0 0 140
0 0 140
0 0 140
0 0 140
0 0 140
0 0 140
0 0 140
0 0 140
0 0 140
0 0 140
0 0 140
0 0 140
0 0 140
0 0 140
0 0 140
0 0 140
0 0 140
0 0 140
0 0 140
0 0 140
0 0 140
0 0 140
0 0 140
0 0 140
0 0 140
0 0 140
0 0 140
0 0 140
0 0 140
0 0 140
0 0 140
0 0 140
0 0 140
0 0 140
0 0 140
0 0 140
0 0 140
0 0 140
0 0 140
0 0 140
0 0 140
0 0 140
0 0 140
0 0 140
0 0 140
0 0 140
0 0 140
0 0 140
0 0 140
0 0 140
0 0 140
0 0 140
0 0 140
0 0 140
0 0 140
0 0 140
0 0 140
0 0 140
0 0 140
0 0 140
0 0 140
0 0 140
0 0 140
0 0 140
0 0 140
0 0 140
0 0 140
0 0 140
0 0 140
0 0 140
0 0 140
0 0 140
0 0 140
0 0 140
0 0 140
0 0 140
0 0 140
0 0 140
0 0 140
0 0 140
0 0 140
0 0 140
0 0 140
0 0 140
0 0 140
0 0 140
0 0 140
0 0 140
39 0 109
89 0 0
85 0 0
100 0 0
77 0 0
97 0 0
97 0 0
81 0 0
91 0 0
88 0 0
92 0 0
82 0 0
89 0 0
92 0 0
103 0 0
99 0 0
98 0 0
90 0 0
89 0 0
87 0 0
82 0 0
95 0 0
76 0 0
82 0 0
90 0 0
98 0 0
95 0 0
84 0 0
99 0 0
76 0 0
95 0 0
83 0 0
105 0 0
86 0 0
102 0 0
88 0 0
95 0 0
98 0 0
96 0 0
91 0 0
89 0 0
91 0 0
81 0 0
106 0 0
94 0 0
85 0 0
92 0 0
82 0 0
84 0 0
93 0 0
104 0 0
90 0 0
81 0 0
98 0 0
97 0 0
82 0 0
84 0 0
92 0 0
93 0 0
86 0 0
88 0 0
90 0 0
83 0 0
97 0 0
94 0 0
101 0 0
81 0 0
79 0 0
89 0 0
79 0 0
89 0 0
87 0 0
100 0 0
100 0 0
99 0 0
94 0 0
91 0 0
68 0 0
73 0 0
83 0 0
97 0 0
93 0 0
91 0 14
50 0 108
0 0 140
0 0 140
0 0 140
0 0 140
0 0 140
0 0 140
0 0 140
0 0 140
0 0 140
0 0 140
0 0 140
0 0 140
0 0 140
0 0 140
0 0 140
0 0 140
0 0 140
0 0 140
0 0 140
0 0 140
0 0 140
0 0 140
0 0 140
0 0 140
0 0 140
0 0 140
0 0 140
0 0 140
0 0 140
0 0 140
0 0 140
0 0 140
0 0 140
0 0 140
0 0 140
0 0 140
0 0 140
0 0 140
0 0 140
0 0 140
0 0 140
0 0 140
0 0 140
0 0 140
0 0 140
0 0 140
0 0 140
0 0 140
0 0 140
0 0 140
0 0 140
0 0 140
0 0 140
0 0 140
0 0 140
0 0 140
0 0 140
0 0 140
0 0 140
0 0 140
0 0 140
0 0 140
0 0 140
0 0 140
0 0 140
0 0 140
0 0 140
0 0 140
0 0 140
0 0 140
0 0 140
0 0 140
0 0 140
0 0 140
0 0 140
0 0 140
0 0 140
0 0 140
0 0 140
0 0 140
0 0 140
0 0 140
0 0 140
0 0 140
0 0 140
0 0 140
0 0 140
0 0 140
0 0 140
0 0 140
0 0 140
0 0 140
0 0 140
0 0 140
0 0 140
0 0 140
0 0 140
0 0 140
0 0 140
0 0 140
0 0 140
0 0 140
0 0 140
0 0 140
0 0 140
0 0 140
0 0 140
0 0 140
0 0 140
0 0 140
0 0 140
0 0 140
0 0 140
0 0 140
0 0 140
0 0 140
0 0 140
0 0 140
0 0 140
0 0 140
0 0 140
0 0 140
0 0 140
0 0 140
0 0 140
0 0 140
0 0 140
0 0 140
0 0 140
0 0 140
0 0 140
0 0 140
0 0 140
0 0 140
0 0 140
0 0 140
0 0 140
0 0 140
0 0 140
0 0 140
0 0 140
0 0 140
0 0 140
0 0 140
0 0 140
0 0 140
0 0 140
0 0 140
0 0 140
0 0 140
0 0 140
0 0 140
0 0 140
0 0 140
0 0 140
0 0 140
0 0 140
0 0 140
0 0 140
0 0 140
0 0 140
0 0 140
0 0 140
0 0 140
0 0 140
0 0 140
0 0 140
0 0 140
0 0 140
0 0 140
0 0 140
0 0 140
0 0 140
0 0 140
0 0 140
0 0 140
0 0 140
0 0 140
0 0 140
0 0 140
0 0 140
0 0 140
0 0 140
0 0 140
0 0 140
0 0 140
0 0 140
0 0 140
0 0 140
0 0 140
0 0 140
0 0 140
0 0 140
0 0 140
0 0 140
0 0 140
0 0 140
0 0 140
0 0 140
0 0 140
0 0 140
0 0 140
0 0 140
0 0 140
0 0 140
0 0 140
0 0 140
0 0 140
0 0 140
0 0 140
0 0 140
0 0 140
0 0 140
0 0 140
0 0 140
0 0 140
0 0 140
0 0 140
0 0 140
0 0 140
0 0 140
0 0 140
0 0 140
0 0 140
0 0 140
0 0 140
0 0 140
0 0 140
0 0 140
0 0 140
0 0 140
0 0 140
0 0 140
0 0 140
0 0 140
0 0 140
0 0 140
0 0 140
0 0 140
0 0 140
0 0 140
0 0 140
0 0 140
0 0 140
0 0 140
0 0 140
0 0 140
0 0 140
0 0 140
0 0 140
0 0 140
0 0 140
0 0 140
0 0 140
0 0 140
0 0 140
0 0 140
0 0 140
0 0 140
0 0 140
0 0 140
0 0 140
0 0 140
0 0 140
0 0 140
0 0 140
0 0 140
0 0 140
0 0 140
0 0 140
0 0 140
0 0 140
0 0 140
0 0 140
0 0 140
0 0 140
0 0 140
0 0 140
0 0 140
0 0 140
0 0 140
0 0 140
0 0 140
0 0 140
0 0 140
0 0 140
0 0 140
0 0 140
0 0 140
0 0 140
0 0 140
0 0 140
0 0 140
0 0 140
0 0 140
0 0 140
0 0 140
0 0 140
0 0 140
0 0 140
0 0 140
0 0 140
0 0 140
0 0 140
0 0 140
0 0 140
0 0 140
0 0 140
0 0 140
0 0 140
0 0 140
0 0 140
0 0 140
0 0 140
0 0 140
0 0 140
0 0 140
57 0 114
84 0 37
78 0 0
83 0 0
88 0 0
83 0 0
88 0 0
77 0 0
75 0 0
92 0 0
93 0 0
77 0 0
82 0 0
98 0 0
94 0 0
85 0 0
85 0 0
87 0 0
106 0 0
88 0 0
96 0 0
65 0 0
73 0 0
99 0 0
91 0 0
91 0 0
100 0 0
91 0 0
98 0 0
98 0 0
86 0 0
85 0 0
90 0 0
91 0 0
89 0 0
89 0 0
80 0 0
80 0 0
87 0 0
89 0 0
96 0 0
94 0 0
90 0 0
85 0 0
89 0 0
84 0 0
76 0 0
75 0 0
88 0 0
106 0 0
89 0 0
83 0 0
80 0 0
91 0 0
91 0 0
100 0 0
100 0 0
73 0 0
91 0 0
94 0 0
99 0 0
93 0 0
80 0 0
88 0 0
85 0 0
85 0 0
86 0 0
90 0 0
89 0 0
89 0 0
91 0 0
82 0 0
95 0 0
85 0 0
101 0 0
80 0 0
75 0 0
81 0 0
88 0 0
69 0 0
75 0 39
53 0 117
0 0 140
0 0 140
0 0 140
0 0 140
0 0 140
0 0 140
0 0 140
0 0 140
0 0 140
0 0 140
0 0 140
0 0 140
0 0 140
0 0 140
0 0 140
0 0 140
0 0 140
0 0 140
0 0 140
0 0 140
0 0 140
0 0 140
0 0 140
0 0 140
0 0 140
0 0 140
0 0 140
0 0 140
0 0 140
0 0 140
0 0 140
0 0 140
0 0 140
0 0 140
0 0 140
0 0 140
0 0 140
0 0 140
0 0 140
0 0 140
0 0 140
0 0 140
0 0 140
0 0 140
0 0 140
0 0 140
0 0 140
0 0 140
0 0 140
0 0 140
0 0 140
0 0 140
0 0 140
0 0 140
0 0 140
0 0 140
0 0 140
0 0 140
0 0 140
0 0 140
0 0 140
0 0 140
0 0 140
0 0 140
0 0 140
0 0 140
0 0 140
0 0 140
0 0 140
0 0 140
0 0 140
0 0 140
0 0 140
0 0 140
0 0 140
0 0 140
0 0 140
0 0 140
0 0 140
0 0 140
0 0 140
0 0 140
0 0 140
0 0 140
0 0 140
0 0 140
0 0 140
0 0 140
0 0 140
0 0 140
0 0 140
0 0 140
0 0 140
0 0 140
0 0 140
0 0 140
0 0 140
0 0 140
0 0 140
0 0 140
0 0 140
0 0 140
0 0 140
0 0 140
0 0 140
0 0 140
0 0 140
0 0 140
0 0 140
0 0 140
0 0 140
0 0 140
0 0 140
0 0 140
0 0 140
0 0 140
0 0 140
0 0 140
0 0 140
0 0 140
0 0 140
0 0 140
0 0 140
0 0 140
0 0 140
0 0 140
0 0 140
0 0 140
0 0 140
0 0 140
0 0 140
0 0 140
0 0 140
0 0 140
0 0 140
0 0 140
0 0 140
0 0 140
0 0 140
0 0 140
0 0 140
0 0 140
0 0 140
0 0 140
0 0 140
0 0 140
0 0 140
0 0 140
0 0 140
0 0 140
0 0 140
0 0 140
0 0 140
0 0 140
0 0 140
0 0 140
0 0 140
0 0 140
0 0 140
0 0 140
0 0 140
0 0 140
0 0 140
0 0 140
0 0 140
0 0 140
0 0 140
0 0 140
0 0 140
0 0 140
0 0 140
0 0 140
0 0 140
0 0 140
0 0 140
0 0 140
0 0 140
0 0 140
0 0 140
0 0 140
0 0 140
0 0 140
0 0 140
0 0 140
0 0 140
0 0 140
0 0 140
0 0 140
0 0 140
0 0 140
0 0 140
0 0 140
0 0 140
0 0 140
0 0 140
0 0 140
0 0 140
0 0 140
0 0 140
0 0 140
0 0 140
0 0 140
0 0 140
0 0 140
0 0 140
0 0 140
0 0 140
0 0 140
0 0 140
0 0 140
0 0 140
0 0 140
0 0 140
0 0 140
0 0 140
0 0 140
0 0 140
0 0 140
0 0 140
0 0 140
0 0 140
0 0 140
0 0 140
0 0 140
0 0 140
0 0 140
0 0 140
0 0 140
0 0 140
0 0 140
0 0 140
0 0 140
0 0 140
0 0 140
0 0 140
0 0 140
0 0 140
0 0 140
0 0 140
0 0 140
0 0 140
0 0 140
0 0 140
0 0 140
0 0 140
0 0 140
0 0 140
0 0 140
0 0 140
0 0 140
0 0 140
0 0 140
0 0 140
0 0 140
0 0 140
0 0 140
0 0 140
0 0 140
0 0 140
0 0 140
0 0 140
0 0 140
0 0 140
0 0 140
0 0 140
0 0 140
0 0 140
0 0 140
0 0 140
0 0 140
0 0 140
0 0 140
0 0 140
0 0 140
0 0 140
0 0 140
0 0 140
0 0 140
0 0 140
0 0 140
0 0 140
0 0 140
0 0 140
0 0 140
0 0 140
0 0 140
0 0 140
0 0 140
0 0 140
0 0 140
0 0 140
0 0 140
0 0 140
0 0 140
0 0 140
0 0 140
0 0 140
0 0 140
0 0 140
0 0 140
0 0 140
0 0 140
0 0 140
0 0 140
0 0 140
0 0 140
0 0 140
0 0 140
0 0 140
0 0 140
0 0 140
0 0 140
0 0 140
0 0 140
0 0 140
0 0 140
0 0 140
0 0 140
0 0 140
25 0 131
71 0 79
81 0 0
87 0 0
81 0 0
73 0 0
78 0 0
79 0 0
88 0 0
80 0 0
82 0 0
76 0 0
78 0 0
76 0 0
86 0 0
88 0 0
87 0 0
96 0 0
89 0 0
87 0 0
85 0 0
68 0 0
85 0 0
92 0 0
94 0 0
98 0 0
87 0 0
87 0 0
84 0 0
95 0 0
86 0 0
98 0 0
98 0 0
102 0 0
101 0 0
81 0 0
85 0 0
92 0 0
84 0 0
105 0 0
78 0 0
101 0 0
96 0 0
96 0 0
89 0 0
93 0 0
91 0 0
96 0 0
75 0 0
96 0 0
102 0 0
85 0 0
73 0 0
100 0 0
96 0 0
86 0 0
92 0 0
95 0 0
80 0 0
85 0 0
98 0 0
91 0 0
96 0 0
89 0 0
95 0 0
86 0 0
80 0 0
93 0 0
92 0 0
86 0 0
81 0 0
84 0 0
77 0 0
81 0 0
89 0 0
80 0 0
75 0 0
82 0 0
69 0 68
35 0 128
0 0 140
0 0 140
0 0 140
0 0 140
0 0 140
0 0 140
0 0 140
0 0 140
0 0 140
0 0 140
0 0 140
0 0 140
0 0 140
0 0 140
0 0 140
0 0 140
0 0 140
0 0 140
0 0 140
0 0 140
0 0 140
0 0 140
0 0 140
0 0 140
0 0 140
0 0 140
0 0 140
0 0 140
0 0 140
0 0 140
0 0 140
0 0 140
0 0 140
0 0 140
0 0 140
0 0 140
0 0 140
0 0 140
0 0 140
0 0 140
0 0 140
0 0 140
0 0 140
0 0 140
0 0 140
0 0 140
0 0 140
0 0 140
0 0 140
0 0 140
0 0 140
0 0 140
0 0 140
0 0 140
0 0 140
0 0 140
0 0 140
0 0 140
0 0 140
0 0 140
0 0 140
0 0 140
0 0 140
0 0 140
0 0 140
0 0 140
0 0 140
0 0 140
0 0 140
0 0 140
0 0 140
0 0 140
0 0 140
0 0 140
0 0 140
0 0 140
0 0 140
0 0 140
0 0 140
0 0 140
0 0 140
0 0 140
0 0 140
0 0 140
0 0 140
0 0 140
0 0 140
0 0 140
0 0 140
0 0 140
0 0 140
0 0 140
0 0 140
0 0 140
0 0 140
0 0 140
0 0 140
0 0 140
0 0 140
0 0 140
0 0 140
0 0 140
0 0 140
0 0 140
0 0 140
0 0 140
0 0 140
0 0 140
0 0 140
0 0 140
0 0 140
0 0 140
0 0 140
0 0 140
0 0 140
0 0 140
0 0 140
0 0 140
0 0 140
0 0 140
0 0 140
0 0 140
0 0 140
0 0 140
0 0 140
0 0 140
0 0 140
0 0 140
0 0 140
0 0 140
0 0 140
0 0 140
0 0 140
0 0 140
0 0 140
0 0 140
0 0 140
0 0 140
0 0 140
0 0 140
0 0 140
0 0 140
0 0 140
0 0 140
0 0 140
0 0 140
0 0 140
0 0 140
0 0 140
0 0 140
0 0 140
0 0 140
0 0 140
0 0 140
0 0 140
0 0 140
0 0 140
0 0 140
0 0 140
0 0 140
0 0 140
0 0 140
0 0 140
0 0 140
0 0 140
0 0 140
0 0 140
0 0 140
0 0 140
0 0 140
0 0 140
0 0 140
0 0 140
0 0 140
0 0 140
0 0 140
0 0 140
0 0 140
0 0 140
0 0 140
0 0 140
0 0 140
0 0 140
0 0 140
0 0 140
0 0 140
0 0 140
0 0 140
0 0 140
0 0 140
0 0 140
0 0 140
0 0 140
0 0 140
0 0 140
0 0 140
0 0 140
0 0 140
0 0 140
0 0 140
0 0 140
0 0 140
0 0 140
0 0 140
0 0 140
0 0 140
0 0 140
0 0 140
0 0 140
0 0 140
0 0 140
0 0 140
0 0 140
0 0 140
0 0 140
0 0 140
0 0 140
0 0 140
0 0 140
0 0 140
0 0 140
0 0 140
0 0 140
0 0 140
0 0 140
0 0 140
0 0 140
0 0 140
0 0 140
0 0 140
0 0 140
0 0 140
0 0 140
0 0 140
0 0 140
0 0 140
0 0 140
0 0 140
0 0 140
0 0 140
0 0 140
0 0 140
0 0 140
0 0 140
0 0 140
0 0 140
0 0 140
0 0 140
0 0 140
0 0 140
0 0 140
0 0 140
0 0 140
0 0 140
0 0 140
0 0 140
0 0 140
0 0 140
0 0 140
0 0 140
0 0 140
0 0 140
0 0 140
0 0 140
0 0 140
0 0 140
0 0 140
0 0 140
0 0 140
0 0 140
0 0 140
0 0 140
0 0 140
0 0 140
0 0 140
0 0 140
0 0 140
0 0 140
0 0 140
0 0 140
0 0 140
0 0 140
0 0 140
0 0 140
0 0 140
0 0 140
0 0 140
0 0 140
0 0 140
0 0 140
0 0 140
0 0 140
0 0 140
0 0 140
0 0 140
0 0 140
0 0 140
0 0 140
0 0 140
0 0 140
0 0 140
0 0 140
0 0 140
0 0 140
0 0 140
0 0 140
0 0 140
0 0 140
0 0 140
0 0 140
0 0 140
0 0 140
0 0 140
0 0 140
0 0 140
0 0 140
0 0 140
0 0 140
0 0 140
0 0 140
0 0 140
0 0 138
62 0 91
69 0 14
86 0 0
82 0 0
89 0 0
90 0 0
80 0 0
81 0 0
85 0 0
87 0 0
73 0 0
87 0 0
84 0 0
91 0 0
88 0 0
89 0 0
98 0 0
94 0 0
86 0 0
82 0 0
77 0 0
84 0 0
77 0 0
95 0 0
75 0 0
95 0 0
83 0 0
89 0 0
85 0 0
86 0 0
92 0 0
87 0 0
87 0 0
99 0 0
97 0 0
83 0 0
101 0 0
94 0 0
93 0 0
92 0 0
86 0 0
89 0 0
94 0 0
91 0 0
86 0 0
79 0 0
85 0 0
86 0 0
99 0 0
80 0 0
88 0 0
81 0 0
93 0 0
79 0 0
89 0 0
86 0 0
79 0 0
93 0 0
73 0 0
82 0 0
89 0 0
82 0 0
94 0 0
86 0 0
81 0 0
84 0 0
87 0 0
82 0 0
93 0 0
95 0 0
80 0 0
92 0 0
83 0 0
75 0 0
77 0 14
53 0 88
0 0 137
0 0 140
0 0 140
0 0 140
0 0 140
0 0 140
0 0 140
0 0 140
0 0 140
0 0 140
0 0 140
0 0 140
0 0 140
0 0 140
0 0 140
0 0 140
0 0 140
0 0 140
0 0 140
0 0 140
0 0 140
0 0 140
0 0 140
0 0 140
0 0 140
0 0 140
0 0 140
0 0 140
0 0 140
0 0 140
0 0 140
0 0 140
0 0 140
0 0 140
0 0 140
0 0 140
0 0 140
0 0 140
0 0 140
0 0 140
0 0 140
0 0 140
0 0 140
0 0 140
0 0 140
0 0 140
0 0 140
0 0 140
0 0 140
0 0 140
0 0 140
0 0 140
0 0 140
0 0 140
0 0 140
0 0 140
0 0 140
0 0 140
0 0 140
0 0 140
0 0 140
0 0 140
0 0 140
0 0 140
0 0 140
0 0 140
0 0 140
0 0 140
0 0 140
0 0 140
0 0 140
0 0 140
0 0 140
0 0 140
0 0 140
0 0 140
0 0 140
0 0 140
0 0 140
0 0 140
0 0 140
0 0 140
0 0 140
0 0 140
0 0 140
0 0 140
0 0 140
0 0 140
0 0 140
0 0 140
0 0 140
0 0 140
0 0 140
0 0 140
0 0 140
0 0 140
0 0 140
0 0 140
0 0 140
0 0 140
0 0 140
0 0 140
0 0 140
0 0 140
0 0 140
0 0 140
0 0 140
0 0 140
0 0 140
0 0 140
0 0 140
0 0 140
0 0 140
0 0 140
0 0 140
0 0 140
0 0 140
0 0 140
0 0 140
0 0 140
0 0 140
0 0 140
0 0 140
0 0 140
0 0 140
0 0 140
0 0 140
0 0 140
0 0 140
0 0 140
0 0 140
0 0 140
0 0 140
0 0 140
0 0 140
0 0 140
0 0 140
0 0 140
0 0 140
0 0 140
0 0 140
0 0 140
0 0 140
0 0 140
0 0 140
0 0 140
0 0 140
0 0 140
0 0 140
0 0 140
0 0 140
0 0 140
0 0 140
0 0 140
0 0 140
0 0 140
0 0 140
0 0 140
0 0 140
0 0 140
0 0 140
0 0 140
0 0 140
0 0 140
0 0 140
0 0 140
0 0 140
0 0 140
0 0 140
0 0 140
0 0 140
0 0 140
0 0 140
0 0 140
0 0 140
0 0 140
0 0 140
0 0 140
0 0 140
0 0 140
0 0 140
0 0 140
0 0 140
0 0 140
0 0 140
0 0 140
0 0 140
0 0 140
0 0 140
0 0 140
0 0 140
0 0 140
0 0 140
0 0 140
0 0 140
0 0 140
0 0 140
0 0 140
0 0 140
0 0 140
0 0 140
0 0 140
0 0 140
0 0 140
0 0 140
0 0 140
0 0 140
0 0 140
0 0 140
0 0 140
0 0 140
0 0 140
0 0 140
0 0 140
0 0 140
0 0 140
0 0 140
0 0 140
0 0 140
0 0 140
0 0 140
0 0 140
0 0 140
0 0 140
0 0 140
0 0 140
0 0 140
0 0 140
0 0 140
0 0 140
0 0 140
0 0 140
0 0 140
0 0 140
0 0 140
0 0 140
0 0 140
0 0 140
0 0 140
0 0 140
0 0 140
0 0 140
0 0 140
0 0 140
0 0 140
0 0 140
0 0 140
0 0 140
0 0 140
0 0 140
0 0 140
0 0 140
0 0 140
0 0 140
0 0 140
0 0 140
0 0 140
0 0 140
0 0 140
0 0 140
0 0 140
0 0 140
0 0 140
0 0 140
0 0 140
0 0 140
0 0 140
0 0 140
0 0 140
0 0 140
0 0 140
0 0 140
0 0 140
0 0 140
0 0 140
0 0 140
0 0 140
0 0 140
0 0 140
0 0 140
0 0 140
0 0 140
0 0 140
0 0 140
0 0 140
0 0 140
0 0 140
0 0 140
0 0 140
0 0 140
0 0 140
0 0 140
0 0 140
0 0 140
0 0 140
0 0 140
0 0 140
0 0 140
0 0 140
0 0 140
0 0 140
0 0 140
0 0 140
0 0 140
0 0 140
0 0 140
0 0 140
0 0 140
0 0 140
0 0 140
0 0 140
0 0 140
0 0 140
0 0 140
0 0 140
0 0 140
0 0 140
0 0 140
0 0 140
0 0 140
0 0 140
0 0 140
0 0 140
0 0 140
0 0 140
51 0 121
59 0 50
64 0 0
73 0 0
66 0 0
83 0 0
79 0 0
77 0 0
96 0 0
74 0 0
83 0 0
88 0 0
76 0 0
84 0 0
88 0 0
68 0 0
72 0 0
69 0 0
73 0 0
76 0 0
75 0 0
92 0 0
91 0 0
82 0 0
78 0 0
77 0 0
90 0 0
94 0 0
74 0 0
87 0 0
88 0 0
107 0 0
91 0 0
87 0 0
93 0 0
92 0 0
76 0 0
110 0 0
91 0 0
84 0 0
72 0 0
83 0 0
81 0 0
78 0 0
83 0 0
92 0 0
83 0 0
92 0 0
94 0 0
94 0 0
90 0 0
84 0 0
98 0 0
94 0 0
94 0 0
78 0 0
104 0 0
87 0 0
88 0 0
83 0 0
89 0 0
84 0 0
83 0 0
70 0 0
83 0 0
81 0 0
86 0 0
70 0 0
85 0 0
66 0 0
88 0 0
72 0 0
54 0 50
25 0 123
0 0 140
0 0 140
0 0 140
0 0 140
0 0 140
0 0 140
0 0 140
0 0 140
0 0 140
0 0 140
0 0 140
0 0 140
0 0 140
0 0 140
0 0 140
0 0 140
0 0 140
0 0 140
0 0 140
0 0 140
0 0 140
0 0 140
0 0 140
0 0 140
0 0 140
0 0 140
0 0 140
0 0 140
0 0 140
0 0 140
0 0 140
0 0 140
0 0 140
0 0 140
0 0 140
0 0 140
0 0 140
0 0 140
0 0 140
0 0 140
0 0 140
0 0 140
0 0 140
0 0 140
0 0 140
0 0 140
0 0 140
0 0 140
0 0 140
0 0 140
0 0 140
0 0 140
0 0 140
0 0 140
0 0 140
0 0 140
0 0 140
0 0 140
0 0 140
0 0 140
0 0 140
0 0 140
0 0 140
0 0 140
0 0 140
0 0 140
0 0 140
0 0 140
0 0 140
0 0 140
0 0 140
0 0 140
0 0 140
0 0 140
0 0 140
0 0 140
0 0 140
0 0 140
0 0 140
0 0 140
0 0 140
0 0 140
0 0 140
0 0 140
0 0 140
0 0 140
0 0 140
0 0 140
0 0 140
0 0 140
0 0 140
0 0 140
0 0 140
0 0 140
0 0 140
0 0 140
0 0 140
0 0 140
0 0 140
0 0 140
0 0 140
0 0 140
0 0 140
0 0 140
0 0 140
0 0 140
0 0 140
0 0 140
0 0 140
0 0 140
0 0 140
0 0 140
0 0 140
0 0 140
0 0 140
0 0 140
0 0 140
0 0 140
0 0 140
0 0 140
0 0 140
0 0 140
0 0 140
0 0 140
0 0 140
0 0 140
0 0 140
0 0 140
0 0 140
0 0 140
0 0 140
0 0 140
0 0 140
0 0 140
0 0 140
0 0 140
0 0 140
0 0 140
0 0 140
0 0 140
0 0 140
0 0 140
0 0 140
0 0 140
0 0 140
0 0 140
0 0 140
0 0 140
0 0 140
0 0 140
0 0 140
0 0 140
0 0 140
0 0 140
0 0 140
0 0 140
0 0 140
0 0 140
0 0 140
0 0 140
0 0 140
0 0 140
0 0 140
0 0 140
0 0 140
0 0 140
0 0 140
0 0 140
0 0 140
0 0 140
0 0 140
0 0 140
0 0 140
0 0 140
0 0 140
0 0 140
0 0 140
0 0 140
0 0 140
0 0 140
0 0 140
0 0 140
0 0 140
0 0 140
0 0 140
0 0 140
0 0 140
0 0 140
0 0 140
0 0 140
0 0 140
0 0 140
0 0 140
0 0 140
0 0 140
0 0 140
0 0 140
0 0 140
0 0 140
0 0 140
0 0 140
0 0 140
0 0 140
0 0 140
0 0 140
0 0 140
0 0 140
0 0 140
0 0 140
0 0 140
0 0 140
0 0 140
0 0 140
0 0 140
0 0 140
0 0 140
0 0 140
0 0 140
0 0 140
0 0 140
0 0 140
0 0 140
0 0 140
0 0 140
0 0 140
0 0 140
0 0 140
0 0 140
0 0 140
0 0 140
0 0 140
0 0 140
0 0 140
0 0 140
0 0 140
0 0 140
0 0 140
0 0 140
0 0 140
0 0 140
0 0 140
0 0 140
0 0 140
0 0 140
0 0 140
0 0 140
0 0 140
0 0 140
0 0 140
0 0 140
0 0 140
0 0 140
0 0 140
0 0 140
0 0 140
0 0 140
0 0 140
0 0 140
0 0 140
0 0 140
0 0 140
0 0 140
0 0 140
0 0 140
0 0 140
0 0 140
0 0 140
0 0 140
0 0 140
0 0 140
0 0 140
0 0 140
0 0 140
0 0 140
0 0 140
0 0 140
0 0 140
0 0 140
0 0 140
0 0 140
0 0 140
0 0 140
0 0 140
0 0 140
0 0 140
0 0 140
0 0 140
0 0 140
0 0 140
0 0 140
0 0 140
0 0 140
0 0 140
0 0 140
0 0 140
0 0 140
0 0 140
0 0 140
0 0 140
0 0 140
0 0 140
0 0 140
0 0 140
0 0 140
0 0 140
0 0 140
0 0 140
0 0 140
0 0 140
0 0 140
0 0 140
0 0 140
0 0 140
0 0 140
0 0 140
0 0 140
0 0 140
0 0 140
0 0 140
0 0 140
0 0 140
0 0 140
0 0 140
0 0 140
0 0 140
0 0 140
0 0 140
0 0 138
43 0 94
59 0 34
76 0 0
64 0 0
77 0 0
77 0 0
73 0 0
85 0 0
81 0 0
91 0 0
94 0 0
85 0 0
89 0 0
88 0 0
74 0 0
88 0 0
86 0 0
83 0 0
81 0 0
76 0 0
81 0 0
82 0 0
88 0 0
102 0 0
81 0 0
87 0 0
90 0 0
87 0 0
65 0 0
79 0 0
71 0 0
92 0 0
85 0 0
82 0 0
88 0 0
80 0 0
99 0 0
75 0 0
66 0 0
84 0 0
85 0 0
91 0 0
94 0 0
83 0 0
87 0 0
82 0 0
83 0 0
91 0 0
101 0 0
87 0 0
82 0 0
90 0 0
86 0 0
86 0 0
87 0 0
77 0 0
82 0 0
94 0 0
91 0 0
93 0 0
85 0 0
55 0 0
83 0 0
86 0 0
86 0 0
88 0 0
86 0 0
84 0 0
75 0 19
56 0 96
17 0 135
0 0 140
0 0 140
0 0 140
0 0 140
0 0 140
0 0 140
0 0 140
0 0 140
0 0 140
0 0 140
0 0 140
0 0 140
0 0 140
0 0 140
0 0 140
0 0 140
0 0 140
0 0 140
0 0 140
0 0 140
0 0 140
0 0 140
0 0 140
0 0 140
0 0 140
0 0 140
0 0 140
0 0 140
0 0 140
0 0 140
0 0 140
0 0 140
0 0 140
0 0 140
0 0 140
0 0 140
0 0 140
0 0 140
0 0 140
0 0 140
0 0 140
0 0 140
0 0 140
0 0 140
0 0 140
0 0 140
0 0 140
0 0 140
0 0 140
0 0 140
0 0 140
0 0 140
0 0 140
0 0 140
0 0 140
0 0 140
0 0 140
0 0 140
0 0 140
0 0 140
0 0 140
0 0 140
0 0 140
0 0 140
0 0 140
0 0 140
0 0 140
0 0 140
0 0 140
0 0 140
0 0 140
0 0 140
0 0 140
0 0 140
0 0 140
0 0 140
0 0 140
0 0 140
0 0 140
0 0 140
0 0 140
0 0 140
0 0 140
0 0 140
0 0 140
0 0 140
0 0 140
0 0 140
0 0 140
0 0 140
0 0 140
0 0 140
0 0 140
0 0 140
0 0 140
0 0 140
0 0 140
0 0 140
0 0 140
0 0 140
0 0 140
0 0 140
0 0 140
0 0 140
0 0 140
0 0 140
0 0 140
0 0 140
0 0 140
0 0 140
0 0 140
0 0 140
0 0 140
0 0 140
0 0 140
0 0 140
0 0 140
0 0 140
0 0 140
0 0 140
0 0 140
0 0 140
0 0 140
0 0 140
0 0 140
0 0 140
0 0 140
0 0 140
0 0 140
0 0 140
0 0 140
0 0 140
0 0 140
0 0 140
0 0 140
0 0 140
0 0 140
0 0 140
0 0 140
0 0 140
0 0 140
0 0 140
0 0 140
0 0 140
0 0 140
0 0 140
0 0 140
0 0 140
0 0 140
0 0 140
0 0 140
0 0 140
0 0 140
0 0 140
0 0 140
0 0 140
0 0 140
0 0 140
0 0 140
0 0 140
0 0 140
0 0 140
0 0 140
0 0 140
0 0 140
0 0 140
0 0 140
0 0 140
0 0 140
0 0 140
0 0 140
0 0 140
0 0 140
0 0 140
0 0 140
0 0 140
0 0 140
0 0 140
0 0 140
0 0 140
0 0 140
0 0 140
0 0 140
0 0 140
0 0 140
0 0 140
0 0 140
0 0 140
0 0 140
0 0 140
0 0 140
0 0 140
0 0 140
0 0 140
0 0 140
0 0 140
0 0 140
0 0 140
0 0 140
0 0 140
0 0 140
0 0 140
0 0 140
0 0 140
0 0 140
0 0 140
0 0 140
0 0 140
0 0 140
0 0 140
0 0 140
0 0 140
0 0 140
0 0 140
0 0 140
0 0 140
0 0 140
0 0 140
0 0 140
0 0 140
0 0 140
0 0 140
0 0 140
0 0 140
0 0 140
0 0 140
0 0 140
0 0 140
0 0 140
0 0 140
0 0 140
0 0 140
0 0 140
0 0 140
0 0 140
0 0 140
0 0 140
0 0 140
0 0 140
0 0 140
0 0 140
0 0 140
0 0 140
0 0 140
0 0 140
0 0 140
0 0 140
0 0 140
0 0 140
0 0 140
0 0 140
0 0 140
0 0 140
0 0 140
0 0 140
0 0 140
0 0 140
0 0 140
0 0 140
0 0 140
0 0 140
0 0 140
0 0 140
0 0 140
0 0 140
0 0 140
0 0 140
0 0 140
0 0 140
0 0 140
0 0 140
0 0 140
0 0 140
0 0 140
0 0 140
0 0 140
0 0 140
0 0 140
0 0 140
0 0 140
0 0 140
0 0 140
0 0 140
0 0 140
0 0 140
0 0 140
0 0 140
0 0 140
0 0 140
0 0 140
0 0 140
0 0 140
0 0 140
0 0 140
0 0 140
0 0 140
0 0 140
0 0 140
0 0 140
0 0 140
0 0 140
0 0 140
0 0 140
0 0 140
0 0 140
0 0 140
0 0 140
0 0 140
0 0 140
0 0 140
0 0 140
0 0 140
0 0 140
0 0 140
0 0 140
0 0 140
0 0 140
0 0 140
0 0 140
0 0 140
0 0 140
0 0 140
0 0 140
0 0 140
0 0 140
0 0 140
0 0 140
0 0 140
0 0 140
0 0 140
25 0 130
57 0 71
64 0 0
59 0 0
79 0 0
78 0 0
75 0 0
75 0 0
78 0 0
81 0 0
85 0 0
71 0 0
66 0 0
83 0 0
75 0 0
82 0 0
83 0 0
93 0 0
87 0 0
84 0 0
74 0 0
80 0 0
94 0 0
97 0 0
70 0 0
74 0 0
95 0 0
85 0 0
79 0 0
85 0 0
90 0 0
83 0 0
92 0 0
91 0 0
98 0 0
95 0 0
88 0 0
84 0 0
78 0 0
91 0 0
89 0 0
83 0 0
86 0 0
95 0 0
96 0 0
100 0 0
85 0 0
73 0 0
79 0 0
84 0 0
75 0 0
68 0 0
85 0 0
76 0 0
82 0 0
76 0 0
84 0 0
84 0 0
86 0 0
80 0 0
82 0 0
82 0 0
77 0 0
73 0 0
68 0 0
86 0 0
59 0 78
24 0 135
0 0 140
0 0 140
0 0 140
0 0 140
0 0 140
0 0 140
0 0 140
0 0 140
0 0 140
0 0 140
0 0 140
0 0 140
0 0 140
0 0 140
0 0 140
0 0 140
0 0 140
0 0 140
0 0 140
0 0 140
0 0 140
0 0 140
0 0 140
0 0 140
0 0 140
0 0 140
0 0 140
0 0 140
0 0 140
0 0 140
0 0 140
0 0 140
0 0 140
0 0 140
0 0 140
0 0 140
0 0 140
0 0 140
0 0 140
0 0 140
0 0 140
0 0 140
0 0 140
0 0 140
0 0 140
0 0 140
0 0 140
0 0 140
0 0 140
0 0 140
0 0 140
0 0 140
0 0 140
0 0 140
0 0 140
0 0 140
0 0 140
0 0 140
0 0 140
0 0 140
0 0 140
0 0 140
0 0 140
0 0 140
0 0 140
0 0 140
0 0 140
0 0 140
0 0 140
0 0 140
0 0 140
0 0 140
0 0 140
0 0 140
0 0 140
0 0 140
0 0 140
0 0 140
0 0 140
0 0 140
0 0 140
0 0 140
0 0 140
0 0 140
0 0 140
0 0 140
0 0 140
0 0 140
0 0 140
0 0 140
0 0 140
0 0 140
0 0 140
0 0 140
0 0 140
0 0 140
0 0 140
0 0 140
0 0 140
0 0 140
0 0 140
0 0 140
0 0 140
0 0 140
0 0 140
0 0 140
0 0 140
0 0 140
0 0 140
0 0 140
0 0 140
0 0 140
0 0 140
0 0 140
0 0 140
0 0 140
0 0 140
0 0 140
0 0 140
0 0 140
0 0 140
0 0 140
0 0 140
0 0 140
0 0 140
0 0 140
0 0 140
0 0 140
0 0 140
0 0 140
0 0 140
0 0 140
0 0 140
0 0 140
0 0 140
0 0 140
0 0 140
0 0 140
0 0 140
0 0 140
0 0 140
0 0 140
0 0 140
0 0 140
0 0 140
0 0 140
0 0 140
0 0 140
0 0 140
0 0 140
0 0 140
0 0 140
0 0 140
0 0 140
0 0 140
0 0 140
0 0 140
0 0 140
0 0 140
0 0 140
0 0 140
0 0 140
0 0 140
0 0 140
0 0 140
0 0 140
0 0 140
0 0 140
0 0 140
0 0 140
0 0 140
0 0 140
0 0 140
0 0 140
0 0 140
0 0 140
0 0 140
0 0 140
0 0 140
0 0 140
0 0 140
0 0 140
0 0 140
0 0 140
0 0 140
0 0 140
0 0 140
0 0 140
0 0 140
0 0 140
0 0 140
0 0 140
0 0 140
0 0 140
0 0 140
0 0 140
0 0 140
0 0 140
0 0 140
0 0 140
0 0 140
0 0 140
0 0 140
0 0 140
0 0 140
0 0 140
0 0 140
0 0 140
0 0 140
0 0 140
0 0 140
0 0 140
0 0 140
0 0 140
0 0 140
0 0 140
0 0 140
0 0 140
0 0 140
0 0 140
0 0 140
0 0 140
0 0 140
0 0 140
0 0 140
0 0 140
0 0 140
0 0 140
0 0 140
0 0 140
0 0 140
0 0 140
0 0 140
0 0 140
0 0 140
0 0 140
0 0 140
0 0 140
0 0 140
0 0 140
0 0 140
0 0 140
0 0 140
0 0 140
0 0 140
0 0 140
0 0 140
0 0 140
0 0 140
0 0 140
0 0 140
0 0 140
0 0 140
0 0 140
0 0 140
0 0 140
0 0 140
0 0 140
0 0 140
0 0 140
0 0 140
0 0 140
0 0 140
0 0 140
0 0 140
0 0 140
0 0 140
0 0 140
0 0 140
0 0 140
0 0 140
0 0 140
0 0 140
0 0 140
0 0 140
0 0 140
0 0 140
0 0 140
0 0 140
0 0 140
0 0 140
0 0 140
0 0 140
0 0 140
0 0 140
0 0 140
0 0 140
0 0 140
0 0 140
0 0 140
0 0 140
0 0 140
0 0 140
0 0 140
0 0 140
0 0 140
0 0 140
0 0 140
0 0 140
0 0 140
0 0 140
0 0 140
0 0 140
0 0 140
0 0 140
0 0 140
0 0 140
0 0 140
0 0 140
0 0 140
0 0 140
0 0 140
0 0 140
0 0 140
0 0 140
0 0 140
0 0 140
0 0 140
0 0 140
0 0 140
0 0 140
0 0 140
0 0 140
0 0 140
0 0 140
0 0 140
0 0 140
0 0 140
0 0 140
0 0 140
0 0 140
0 0 140
0 0 140
0 0 140
51 0 110
65 0 48
89 0 0
69 0 0
70 0 0
75 0 0
82 0 0
57 0 0
79 0 0
73 0 0
84 0 0
78 0 0
80 0 0
71 0 0
75 0 0
95 0 0
71 0 0
73 0 0
83 0 0
77 0 0
78 0 0
88 0 0
69 0 0
88 0 0
87 0 0
84 0 0
78 0 0
82 0 0
85 0 0
75 0 0
66 0 0
75 0 0
96 0 0
74 0 0
82 0 0
94 0 0
70 0 0
77 0 0
69 0 0
87 0 0
78 0 0
89 0 0
77 0 0
93 0 0
84 0 0
83 0 0
88 0 0
75 0 0
84 0 0
78 0 0
82 0 0
83 0 0
83 0 0
89 0 0
81 0 0
91 0 0
71 0 0
82 0 0
89 0 0
78 0 0
73 0 0
78 0 0
61 0 57
48 0 110
0 0 140
0 0 140
0 0 140
0 0 140
0 0 140
0 0 140
0 0 140
0 0 140
0 0 140
0 0 140
0 0 140
0 0 140
0 0 140
0 0 140
0 0 140
0 0 140
0 0 140
0 0 140
0 0 140
0 0 140
0 0 140
0 0 140
0 0 140
0 0 140
0 0 140
0 0 140
0 0 140
0 0 140
0 0 140
0 0 140
0 0 140
0 0 140
0 0 140
0 0 140
0 0 140
0 0 140
0 0 140
0 0 140
0 0 140
0 0 140
0 0 140
0 0 140
0 0 140
0 0 140
0 0 140
0 0 140
0 0 140
0 0 140
0 0 140
0 0 140
0 0 140
0 0 140
0 0 140
0 0 140
0 0 140
0 0 140
0 0 140
0 0 140
0 0 140
0 0 140
0 0 140
0 0 140
0 0 140
0 0 140
0 0 140
0 0 140
0 0 140
0 0 140
0 0 140
0 0 140
0 0 140
0 0 140
0 0 140
0 0 140
0 0 140
0 0 140
0 0 140
0 0 140
0 0 140
0 0 140
0 0 140
0 0 140
0 0 140
0 0 140
0 0 140
0 0 140
0 0 140
0 0 140
0 0 140
0 0 140
0 0 140
0 0 140
0 0 140
0 0 140
0 0 140
0 0 140
0 0 140
0 0 140
0 0 140
0 0 140
0 0 140
0 0 140
0 0 140
0 0 140
0 0 140
0 0 140
0 0 140
0 0 140
0 0 140
0 0 140
0 0 140
0 0 140
0 0 140
0 0 140
0 0 140
0 0 140
0 0 140
0 0 140
0 0 140
0 0 140
0 0 140
0 0 140
0 0 140
0 0 140
0 0 140
0 0 140
0 0 140
0 0 140
0 0 140
0 0 140
0 0 140
0 0 140
0 0 140
0 0 140
0 0 140
0 0 140
0 0 140
0 0 140
0 0 140
0 0 140
0 0 140
0 0 140
0 0 140
0 0 140
0 0 140
0 0 140
0 0 140
0 0 140
0 0 140
0 0 140
0 0 140
0 0 140
0 0 140
0 0 140
0 0 140
0 0 140
0 0 140
0 0 140
0 0 140
0 0 140
0 0 140
0 0 140
0 0 140
0 0 140
0 0 140
0 0 140
0 0 140
0 0 140
0 0 140
0 0 140
0 0 140
0 0 140
0 0 140
0 0 140
0 0 140
0 0 140
0 0 140
0 0 140
0 0 140
0 0 140
0 0 140
0 0 140
0 0 140
0 0 140
0 0 140
0 0 140
0 0 140
0 0 140
0 0 140
0 0 140
0 0 140
0 0 140
0 0 140
0 0 140
0 0 140
0 0 140
0 0 140
0 0 140
0 0 140
0 0 140
0 0 140
0 0 140
0 0 140
0 0 140
0 0 140
0 0 140
0 0 140
0 0 140
0 0 140
0 0 140
0 0 140
0 0 140
0 0 140
0 0 140
0 0 140
0 0 140
0 0 140
0 0 140
0 0 140
0 0 140
0 0 140
0 0 140
0 0 140
0 0 140
0 0 140
0 0 140
0 0 140
0 0 140
0 0 140
0 0 140
0 0 140
0 0 140
0 0 140
0 0 140
0 0 140
0 0 140
0 0 140
0 0 140
0 0 140
0 0 140
0 0 140
0 0 140
0 0 140
0 0 140
0 0 140
0 0 140
0 0 140
0 0 140
0 0 140
0 0 140
0 0 140
0 0 140
0 0 140
0 0 140
0 0 140
0 0 140
0 0 140
0 0 140
0 0 140
0 0 140
0 0 140
0 0 140
0 0 140
0 0 140
0 0 140
0 0 140
0 0 140
0 0 140
0 0 140
0 0 140
0 0 140
0 0 140
0 0 140
0 0 140
0 0 140
0 0 140
0 0 140
0 0 140
0 0 140
0 0 140
0 0 140
0 0 140
0 0 140
0 0 140
0 0 140
0 0 140
0 0 140
0 0 140
0 0 140
0 0 140
0 0 140
0 0 140
0 0 140
0 0 140
0 0 140
0 0 140
0 0 140
0 0 140
0 0 140
0 0 140
0 0 140
0 0 140
0 0 140
0 0 140
0 0 140
0 0 140
0 0 140
0 0 140
0 0 140
0 0 140
0 0 140
0 0 140
0 0 140
0 0 140
0 0 140
0 0 140
0 0 140
0 0 140
0 0 140
0 0 140
0 0 140
0 0 140
0 0 140
0 0 140
0 0 140
0 0 140
0 0 140
0 0 140
0 0 140
0 0 140
0 0 140
0 0 140
0 0 140
0 0 140
0 0 140
0 0 140
0 0 140
0 0 138
50 0 113
69 0 46
84 0 0
67 0 0
70 0 0
75 0 0
83 0 0
84 0 0
77 0 0
61 0 0
85 0 0
76 0 0
88 0 0
74 0 0
79 0 0
78 0 0
76 0 0
89 0 0
74 0 0
88 0 0
60 0 0
80 0 0
74 0 0
75 0 0
87 0 0
79 0 0
82 0 0
85 0 0
76 0 0
74 0 0
78 0 0
69 0 0
92 0 0
87 0 0
80 0 0
76 0 0
69 0 0
93 0 0
74 0 0
89 0 0
82 0 0
78 0 0
78 0 0
86 0 0
68 0 0
78 0 0
57 0 0
80 0 0
73 0 0
79 0 0
78 0 0
83 0 0
73 0 0
66 0 0
89 0 0
66 0 0
66 0 0
74 0 0
61 0 46
31 0 113
0 0 139
0 0 140
0 0 140
0 0 140
0 0 140
0 0 140
0 0 140
0 0 140
0 0 140
0 0 140
0 0 140
0 0 140
0 0 140
0 0 140
0 0 140
0 0 140
0 0 140
0 0 140
0 0 140
0 0 140
0 0 140
0 0 140
0 0 140
0 0 140
0 0 140
0 0 140
0 0 140
0 0 140
0 0 140
0 0 140
0 0 140
0 0 140
0 0 140
0 0 140
0 0 140
0 0 140
0 0 140
0 0 140
0 0 140
0 0 140
0 0 140
0 0 140
0 0 140
0 0 140
0 0 140
0 0 140
0 0 140
0 0 140
0 0 140
0 0 140
0 0 140
0 0 140
0 0 140
0 0 140
0 0 140
0 0 140
0 0 140
0 0 140
0 0 140
0 0 140
0 0 140
0 0 140
0 0 140
0 0 140
0 0 140
0 0 140
0 0 140
0 0 140
0 0 140
0 0 140
0 0 140
0 0 140
0 0 140
0 0 140
0 0 140
0 0 140
0 0 140
0 0 140
0 0 140
0 0 140
0 0 140
0 0 140
0 0 140
0 0 140
0 0 140
0 0 140
0 0 140
0 0 140
0 0 140
0 0 140
0 0 140
0 0 140
0 0 140
0 0 140
0 0 140
0 0 140
0 0 140
0 0 140
0 0 140
0 0 140
0 0 140
0 0 140
0 0 140
0 0 140
0 0 140
0 0 140
0 0 140
0 0 140
0 0 140
0 0 140
0 0 140
0 0 140
0 0 140
0 0 140
0 0 140
0 0 140
0 0 140
0 0 140
0 0 140
0 0 140
0 0 140
0 0 140
0 0 140
0 0 140
0 0 140
0 0 140
0 0 140
0 0 140
0 0 140
0 0 140
0 0 140
0 0 140
0 0 140
0 0 140
0 0 140
0 0 140
0 0 140
0 0 140
0 0 140
0 0 140
0 0 140
0 0 140
0 0 140
0 0 140
0 0 140
0 0 140
0 0 140
0 0 140
0 0 140
0 0 140
0 0 140
0 0 140
0 0 140
0 0 140
0 0 140
0 0 140
0 0 140
0 0 140
0 0 140
0 0 140
0 0 140
0 0 140
0 0 140
0 0 140
0 0 140
0 0 140
0 0 140
0 0 140
0 0 140
0 0 140
0 0 140
0 0 140
0 0 140
0 0 140
0 0 140
0 0 140
0 0 140
0 0 140
0 0 140
0 0 140
0 0 140
0 0 140
0 0 140
0 0 140
0 0 140
0 0 140
0 0 140
0 0 140
0 0 140
0 0 140
0 0 140
0 0 140
0 0 140
0 0 140
0 0 140
0 0 140
0 0 140
0 0 140
0 0 140
0 0 140
0 0 140
0 0 140
0 0 140
0 0 140
0 0 140
0 0 140
0 0 140
0 0 140
0 0 140
0 0 140
0 0 140
0 0 140
0 0 140
0 0 140
0 0 140
0 0 140
0 0 140
0 0 140
0 0 140
0 0 140
0 0 140
0 0 140
0 0 140
0 0 140
0 0 140
0 0 140
0 0 140
0 0 140
0 0 140
0 0 140
0 0 140
0 0 140
0 0 140
0 0 140
0 0 140
0 0 140
0 0 140
0 0 140
0 0 140
0 0 140
0 0 140
0 0 140
0 0 140
0 0 140
0 0 140
0 0 140
0 0 140
0 0 140
0 0 140
0 0 140
0 0 140
0 0 140
0 0 140
0 0 140
0 0 140
0 0 140
0 0 140
0 0 140
0 0 140
0 0 140
0 0 140
0 0 140
0 0 140
0 0 140
0 0 140
0 0 140
0 0 140
0 0 140
0 0 140
0 0 140
0 0 140
0 0 140
0 0 140
0 0 140
0 0 140
0 0 140
0 0 140
0 0 140
0 0 140
0 0 140
0 0 140
0 0 140
0 0 140
0 0 140
0 0 140
0 0 140
0 0 140
0 0 140
0 0 140
0 0 140
0 0 140
0 0 140
0 0 140
0 0 140
0 0 140
0 0 140
0 0 140
0 0 140
0 0 140
0 0 140
0 0 140
0 0 140
0 0 140
0 0 140
0 0 140
0 0 140
0 0 140
0 0 140
0 0 140
0 0 140
0 0 140
0 0 140
0 0 140
0 0 140
0 0 140
0 0 140
0 0 140
0 0 140
0 0 140
0 0 140
0 0 140
0 0 140
0 0 140
0 0 140
0 0 140
0 0 140
0 0 140
0 0 140
0 0 140
0 0 140
0 0 140
0 0 140
0 0 140
0 0 140
0 0 140
0 0 140
0 0 140
0 0 140
0 0 140
0 0 140
0 0 135
0 0 124
39 0 89
61 0 50
67 0 0
72 0 0
80 0 0
39 0 0
67 0 0
78 0 0
72 0 0
73 0 0
82 0 0
81 0 0
68 0 0
78 0 0
95 0 0
76 0 0
74 0 0
84 0 0
71 0 0
81 0 0
82 0 0
83 0 0
77 0 0
63 0 0
66 0 0
73 0 0
92 0 0
77 0 0
71 0 0
88 0 0
80 0 0
80 0 0
78 0 0
77 0 0
73 0 0
73 0 0
80 0 0
78 0 0
69 0 0
66 0 0
87 0 0
68 0 0
75 0 0
82 0 0
73 0 0
68 0 0
71 0 0
66 0 0
69 0 0
68 0 0
66 0 0
68 0 0
62 0 0
72 0 0
52 0 50
24 0 95
0 0 123
0 0 137
0 0 139
0 0 140
0 0 140
0 0 140
0 0 140
0 0 140
0 0 140
0 0 140
0 0 140
0 0 140
0 0 140
0 0 140
0 0 140
0 0 140
0 0 140
0 0 140
0 0 140
0 0 140
0 0 140
0 0 140
0 0 140
0 0 140
0 0 140
0 0 140
0 0 140
0 0 140
0 0 140
0 0 140
0 0 140
0 0 140
0 0 140
0 0 140
0 0 140
0 0 140
0 0 140
0 0 140
0 0 140
0 0 140
0 0 140
0 0 140
0 0 140
0 0 140
0 0 140
0 0 140
0 0 140
0 0 140
0 0 140
0 0 140
0 0 140
0 0 140
0 0 140
0 0 140
0 0 140
0 0 140
0 0 140
0 0 140
0 0 140
0 0 140
0 0 140
0 0 140
0 0 140
0 0 140
0 0 140
0 0 140
0 0 140
0 0 140
0 0 140
0 0 140
0 0 140
0 0 140
0 0 140
0 0 140
0 0 140
0 0 140
0 0 140
0 0 140
0 0 140
0 0 140
0 0 140
0 0 140
0 0 140
0 0 140
0 0 140
0 0 140
0 0 140
0 0 140
0 0 140
0 0 140
0 0 140
0 0 140
0 0 140
0 0 140
0 0 140
0 0 140
0 0 140
0 0 140
0 0 140
0 0 140
0 0 140
0 0 140
0 0 140
0 0 140
0 0 140
0 0 140
0 0 140
0 0 140
0 0 140
0 0 140
0 0 140
0 0 140
0 0 140
0 0 140
0 0 140
0 0 140
0 0 140
0 0 140
0 0 140
0 0 140
0 0 140
0 0 140
0 0 140
0 0 140
0 0 140
0 0 140
0 0 140
0 0 140
0 0 140
0 0 140
0 0 140
0 0 140
0 0 140
0 0 140
0 0 140
0 0 140
0 0 140
0 0 140
0 0 140
0 0 140
0 0 140
0 0 140
0 0 140
0 0 140
0 0 140
0 0 140
0 0 140
0 0 140
0 0 140
0 0 140
0 0 140
0 0 140
0 0 140
0 0 140
0 0 140
0 0 140
0 0 140
0 0 140
0 0 140
0 0 140
0 0 140
0 0 140
0 0 140
0 0 140
0 0 140
0 0 140
0 0 140
0 0 140
0 0 140
0 0 140
0 0 140
0 0 140
0 0 140
0 0 140
0 0 140
0 0 140
0 0 140
0 0 140
0 0 140
0 0 140
0 0 140
0 0 140
0 0 140
0 0 140
0 0 140
0 0 140
0 0 140
0 0 140
0 0 140
0 0 140
0 0 140
0 0 140
0 0 140
0 0 140
0 0 140
0 0 140
0 0 140
0 0 140
0 0 140
0 0 140
0 0 140
0 0 140
0 0 140
0 0 140
0 0 140
0 0 140
0 0 140
0 0 140
0 0 140
0 0 140
0 0 140
0 0 140
0 0 140
0 0 140
0 0 140
0 0 140
0 0 140
0 0 140
0 0 140
0 0 140
0 0 140
0 0 140
0 0 140
0 0 140
0 0 140
0 0 140
0 0 140
0 0 140
0 0 140
0 0 140
0 0 140
0 0 140
0 0 140
0 0 140
0 0 140
0 0 140
0 0 140
0 0 140
0 0 140
0 0 140
0 0 140
0 0 140
0 0 140
0 0 140
0 0 140
0 0 140
0 0 140
0 0 140
0 0 140
0 0 140
0 0 140
0 0 140
0 0 140
0 0 140
0 0 140
0 0 140
0 0 140
0 0 140
0 0 140
0 0 140
0 0 140
0 0 140
0 0 140
0 0 140
0 0 140
0 0 140
0 0 140
0 0 140
0 0 140
0 0 140
0 0 140
0 0 140
0 0 140
0 0 140
0 0 140
0 0 140
0 0 140
0 0 140
0 0 140
0 0 140
0 0 140
0 0 140
0 0 140
0 0 140
0 0 140
0 0 140
0 0 140
0 0 140
0 0 140
0 0 140
0 0 140
0 0 140
0 0 140
0 0 140
0 0 140
0 0 140
0 0 140
0 0 140
0 0 140
0 0 140
0 0 140
0 0 140
0 0 140
0 0 140
0 0 140
0 0 140
0 0 140
0 0 140
0 0 140
0 0 140
0 0 140
0 0 140
0 0 140
0 0 140
0 0 140
0 0 140
0 0 140
0 0 140
0 0 140
0 0 140
0 0 140
0 0 140
0 0 140
0 0 140
0 0 140
0 0 140
0 0 140
0 0 140
0 0 140
0 0 140
0 0 140
0 0 140
0 0 140
0 0 140
0 0 140
0 0 140
0 0 140
0 0 140
0 0 140
0 0 140
0 0 137
0 0 134
0 0 126
0 0 113
0 0 97
0 0 96
30 0 62
59 0 34
69 0 0
62 0 0
78 0 0
63 0 0
61 0 0
74 0 0
56 0 0
71 0 0
67 0 0
71 0 0
64 0 0
74 0 0
82 0 0
70 0 0
76 0 0
77 0 0
56 0 0
73 0 0
73 0 0
80 0 0
77 0 0
76 0 0
82 0 0
72 0 0
85 0 0
88 0 0
81 0 0
68 0 0
81 0 0
80 0 0
82 0 0
71 0 0
90 0 0
96 0 0
75 0 0
89 0 0
69 0 0
78 0 0
78 0 0
77 0 0
75 0 0
69 0 0
69 0 0
71 0 0
61 0 0
71 0 0
64 0 0
72 0 0
40 0 24
31 0 54
0 0 89
0 0 104
0 0 113
0 0 118
0 0 136
0 0 138
0 0 140
0 0 140
0 0 140
0 0 140
0 0 140
0 0 140
0 0 140
0 0 140
0 0 140
0 0 140
0 0 140
0 0 140
0 0 140
0 0 140
0 0 140
0 0 140
0 0 140
0 0 140
0 0 140
0 0 140
0 0 140
0 0 140
0 0 140
0 0 140
0 0 140
0 0 140
0 0 140
0 0 140
0 0 140
0 0 140
0 0 140
0 0 140
0 0 140
0 0 140
0 0 140
0 0 140
0 0 140
0 0 140
0 0 140
0 0 140
0 0 140
0 0 140
0 0 140
0 0 140
0 0 140
0 0 140
0 0 140
0 0 140
0 0 140
0 0 140
0 0 140
0 0 140
0 0 140
0 0 140
0 0 140
0 0 140
0 0 140
0 0 140
0 0 140
0 0 140
0 0 140
0 0 140
0 0 140
0 0 140
0 0 140
0 0 140
0 0 140
0 0 140
0 0 140
0 0 140
0 0 140
0 0 140
0 0 140
0 0 140
0 0 140
0 0 140
0 0 140
0 0 140
0 0 140
0 0 140
0 0 140
0 0 140
0 0 140
0 0 140
0 0 140
0 0 140
0 0 140
0 0 140
0 0 140
0 0 140
0 0 140
0 0 140
0 0 140
0 0 140
0 0 140
0 0 140
0 0 140
0 0 140
0 0 140
0 0 140
0 0 140
0 0 140
0 0 140
0 0 140
0 0 140
0 0 140
0 0 140
0 0 140
0 0 140
0 0 140
0 0 140
0 0 140
0 0 140
0 0 140
0 0 140
0 0 140
0 0 140
0 0 140
0 0 140
0 0 140
0 0 140
0 0 140
0 0 140
0 0 140
0 0 140
0 0 140
0 0 140
0 0 140
0 0 140
0 0 140
0 0 140
0 0 140
0 0 140
0 0 140
0 0 140
0 0 140
0 0 140
0 0 140
0 0 140
0 0 140
0 0 140
0 0 140
0 0 140
0 0 140
0 0 140
0 0 140
0 0 140
0 0 140
0 0 140
0 0 140
0 0 140
0 0 140
0 0 140
0 0 140
0 0 140
0 0 140
0 0 140
0 0 140
0 0 140
0 0 140
0 0 140
0 0 140
0 0 140
0 0 140
0 0 140
0 0 140
0 0 140
0 0 140
0 0 140
0 0 140
0 0 140
0 0 140
0 0 140
0 0 140
0 0 140
0 0 140
0 0 140
0 0 140
0 0 140
0 0 140
0 0 140
0 0 140
0 0 140
0 0 140
0 0 140
0 0 140
0 0 140
0 0 140
0 0 140
0 0 140
0 0 140
0 0 140
0 0 140
0 0 140
0 0 140
0 0 140
0 0 140
0 0 140
0 0 140
0 0 140
0 0 140
0 0 140
0 0 140
0 0 140
0 0 140
0 0 140
0 0 140
0 0 140
0 0 140
0 0 140
0 0 140
0 0 140
0 0 140
0 0 140
0 0 140
0 0 140
0 0 140
0 0 140
0 0 140
0 0 140
0 0 140
0 0 140
0 0 140
0 0 140
0 0 140
0 0 140
0 0 140
0 0 140
0 0 140
0 0 140
0 0 140
0 0 140
0 0 140
0 0 140
0 0 140
0 0 140
0 0 140
0 0 140
0 0 140
0 0 140
0 0 140
0 0 140
0 0 140
0 0 140
0 0 140
0 0 140
0 0 140
0 0 140
0 0 140
0 0 140
0 0 140
0 0 140
0 0 140
0 0 140
0 0 140
0 0 140
0 0 140
0 0 140
0 0 140
0 0 140
0 0 140
0 0 140
0 0 140
0 0 140
0 0 140
0 0 140
0 0 140
0 0 140
0 0 140
0 0 140
0 0 140
0 0 140
0 0 140
0 0 140
0 0 140
0 0 140
0 0 140
0 0 140
0 0 140
0 0 140
0 0 140
0 0 140
0 0 140
0 0 140
0 0 140
0 0 140
0 0 140
0 0 140
0 0 140
0 0 140
0 0 140
0 0 140
0 0 140
0 0 140
0 0 140
0 0 140
0 0 140
0 0 140
0 0 140
0 0 140
0 0 140
0 0 140
0 0 140
0 0 140
0 0 140
0 0 140
0 0 140
0 0 140
0 0 140
0 0 140
0 0 140
0 0 140
0 0 140
0 0 140
0 0 140
0 0 140
0 0 140
0 0 140
0 0 140
0 0 140
0 0 140
0 0 140
0 0 140
0 0 140
0 0 140
0 0 140
0 0 140
0 0 140
0 0 140
0 0 140
0 0 140
0 0 140
0 0 140
0 0 140
0 0 140
0 0 137
0 0 127
0 0 123
0 0 99
0 0 104
0 0 89
0 0 71
0 0 59
0 0 24
0 0 0
25 0 0
53 0 0
61 0 0
78 0 0
53 0 0
77 0 0
67 0 0
69 0 0
64 0 0
74 0 0
68 0 0
80 0 0
73 0 0
81 0 0
85 0 0
79 0 0
69 0 0
85 0 0
64 0 0
62 0 0
69 0 0
64 0 0
77 0 0
72 0 0
85 0 0
69 0 0
83 0 0
84 0 0
78 0 0
69 0 0
82 0 0
76 0 0
67 0 0
71 0 0
68 0 0
73 0 0
78 0 0
67 0 0
82 0 0
85 0 0
71 0 0
72 0 0
71 0 0
67 0 0
53 0 0
36 0 0
35 0 0
0 0 31
0 0 59
0 0 65
0 0 89
0 0 103
0 0 107
0 0 111
0 0 124
0 0 134
0 0 140
0 0 140
0 0 140
0 0 140
0 0 140
0 0 140
0 0 140
0 0 140
0 0 140
0 0 140
0 0 140
0 0 140
0 0 140
0 0 140
0 0 140
0 0 140
0 0 140
0 0 140
0 0 140
0 0 140
0 0 140
0 0 140
0 0 140
0 0 140
0 0 140
0 0 140
0 0 140
0 0 140
0 0 140
0 0 140
0 0 140
0 0 140
0 0 140
0 0 140
0 0 140
0 0 140
0 0 140
0 0 140
0 0 140
0 0 140
0 0 140
0 0 140
0 0 140
0 0 140
0 0 140
0 0 140
0 0 140
0 0 140
0 0 140
0 0 140
0 0 140
0 0 140
0 0 140
0 0 140
0 0 140
0 0 140
0 0 140
0 0 140
0 0 140
0 0 140
0 0 140
0 0 140
0 0 140
0 0 140
0 0 140
0 0 140
0 0 140
0 0 140
0 0 140
0 0 140
0 0 140
0 0 140
0 0 140
0 0 140
0 0 140
0 0 140
0 0 140
0 0 140
0 0 140
0 0 140
0 0 140
0 0 140
0 0 140
0 0 140
0 0 140
0 0 140
0 0 140
0 0 140
0 0 140
0 0 140
0 0 140
0 0 140
0 0 140
0 0 140
0 0 140
0 0 140
0 0 140
0 0 140
0 0 140
0 0 140
0 0 140
0 0 140
0 0 140
0 0 140
0 0 140
0 0 140
0 0 140
0 0 140
0 0 140
0 0 140
0 0 140
0 0 140
0 0 140
0 0 140
0 0 140
0 0 140
0 0 140
0 0 140
0 0 140
0 0 140
0 0 140
0 0 140
0 0 140
0 0 140
0 0 140
0 0 140
0 0 140
0 0 140
0 0 140
0 0 140
0 0 140
0 0 140
0 0 140
0 0 140
0 0 140
0 0 140
0 0 140
0 0 140
0 0 140
0 0 140
0 0 140
0 0 140
0 0 140
0 0 140
0 0 140
0 0 140
0 0 140
0 0 140
0 0 140
0 0 140
0 0 140
0 0 140
0 0 140
0 0 140
0 0 140
0 0 140
0 0 140
0 0 140
0 0 140
0 0 140
0 0 140
0 0 140
0 0 140
0 0 140
0 0 140
0 0 140
0 0 140
0 0 140
0 0 140
0 0 140
0 0 140
0 0 140
0 0 140
0 0 140
0 0 140
0 0 140
0 0 140
0 0 140
0 0 140
0 0 140
0 0 140
0 0 140
0 0 140
0 0 140
0 0 140
0 0 140
0 0 140
0 0 140
0 0 140
0 0 140
0 0 140
0 0 140
0 0 140
0 0 140
0 0 140
0 0 140
0 0 140
0 0 140
0 0 140
0 0 140
0 0 140
0 0 140
0 0 140
0 0 140
0 0 140
0 0 140
0 0 140
0 0 140
0 0 140
0 0 140
0 0 140
0 0 140
0 0 140
0 0 140
0 0 140
0 0 140
0 0 140
0 0 140
0 0 140
0 0 140
0 0 140
0 0 140
0 0 140
0 0 140
0 0 140
0 0 140
0 0 140
0 0 140
0 0 140
0 0 140
0 0 140
0 0 140
0 0 140
0 0 140
0 0 140
0 0 140
0 0 140
0 0 140
0 0 140
0 0 140
0 0 140
0 0 140
0 0 140
0 0 140
0 0 140
0 0 140
0 0 140
0 0 140
0 0 140
0 0 140
0 0 140
0 0 140
0 0 140
0 0 140
0 0 140
0 0 140
0 0 140
0 0 140
0 0 140
0 0 140
0 0 140
0 0 140
0 0 140
0 0 140
0 0 140
0 0 140
0 0 140
0 0 140
0 0 140
0 0 140
0 0 140
0 0 140
0 0 140
0 0 140
0 0 140
0 0 140
0 0 140
0 0 140
0 0 140
0 0 140
0 0 140
0 0 140
0 0 140
0 0 140
0 0 140
0 0 140
0 0 140
0 0 140
0 0 140
0 0 140
0 0 140
0 0 140
0 0 140
0 0 140
0 0 140
0 0 140
0 0 140
0 0 140
0 0 140
0 0 140
0 0 140
0 0 140
0 0 140
0 0 140
0 0 140
0 0 140
0 0 140
0 0 140
0 0 140
0 0 140
0 0 140
0 0 140
0 0 140
0 0 140
0 0 140
0 0 140
0 0 140
0 0 140
0 0 140
0 0 140
0 0 140
0 0 140
0 0 140
0 0 140
0 0 140
0 0 140
0 0 140
0 0 140
0 0 140
0 0 140
0 0 140
0 0 140
0 0 139
0 0 138
0 0 130
0 0 114
0 0 114
0 0 96
0 0 76
0 0 59
0 0 54
0 0 14
0 0 0
0 0 0
0 0 0
0 0 0
0 0 0
36 0 0
54 0 0
40 0 0
74 0 0
62 0 0
78 0 0
76 0 0
59 0 0
69 0 0
54 0 0
59 0 0
73 0 0
69 0 0
89 0 0
80 0 0
69 0 0
85 0 0
67 0 0
62 0 0
46 0 0
84 0 0
68 0 0
71 0 0
54 0 0
64 0 0
76 0 0
67 0 0
73 0 0
84 0 0
64 0 0
56 0 0
86 0 0
63 0 0
69 0 0
72 0 0
47 0 0
70 0 0
59 0 0
59 0 0
39 0 0
31 0 0
0 0 0
0 0 0
0 0 0
0 0 0
0 0 19
0 0 50
0 0 72
0 0 71
0 0 85
0 0 111
0 0 114
0 0 127
0 0 132
0 0 139
0 0 140
0 0 140
0 0 140
0 0 140
0 0 140
0 0 140
0 0 140
0 0 140
0 0 140
0 0 140
0 0 140
0 0 140
0 0 140
0 0 140
0 0 140
0 0 140
0 0 140
0 0 140
0 0 140
0 0 140
0 0 140
0 0 140
0 0 140
0 0 140
0 0 140
0 0 140
0 0 140
0 0 140
0 0 140
0 0 140
0 0 140
0 0 140
0 0 140
0 0 140
0 0 140
0 0 140
0 0 140
0 0 140
0 0 140
0 0 140
0 0 140
0 0 140
0 0 140
0 0 140
0 0 140
0 0 140
0 0 140
0 0 140
0 0 140
0 0 140
0 0 140
0 0 140
0 0 140
0 0 140
0 0 140
0 0 140
0 0 140
0 0 140
0 0 140
0 0 140
0 0 140
0 0 140
0 0 140
0 0 140
0 0 140
0 0 140
0 0 140
0 0 140
0 0 140
0 0 140
0 0 140
0 0 140
0 0 140
0 0 140
0 0 140
0 0 140
0 0 140
0 0 140
0 0 140
0 0 140
0 0 140
0 0 140
0 0 140
0 0 140
0 0 140
0 0 140
0 0 140
0 0 140
0 0 140
0 0 140
0 0 140
0 0 140
0 0 140
0 0 140
0 0 140
0 0 140
0 0 140
0 0 140
0 0 140
0 0 140
0 0 140
0 0 140
0 0 140
0 0 140
0 0 140
0 0 140
0 0 140
0 0 140
0 0 140
0 0 140
0 0 140
0 0 140
0 0 140
0 0 140
0 0 140
0 0 140
0 0 140
0 0 140
0 0 140
0 0 140
0 0 140
0 0 140
0 0 140
0 0 140
0 0 140
0 0 140
0 0 140
0 0 140
0 0 140
0 0 140
0 0 140
0 0 140
0 0 140
0 0 140
0 0 140
0 0 140
0 0 140
0 0 140
0 0 140
0 0 140
0 0 140
0 0 140
0 0 140
0 0 140
0 0 140
0 0 140
0 0 140
0 0 140
0 0 140
0 0 140
0 0 140
0 0 140
0 0 140
0 0 140
0 0 140
0 0 140
0 0 140
0 0 140
0 0 140
0 0 140
0 0 140
0 0 140
0 0 140
0 0 140
0 0 140
0 0 140
0 0 140
0 0 140
0 0 140
0 0 140
0 0 140
0 0 140
0 0 140
0 0 140
0 0 140
0 0 140
0 0 140
0 0 140
0 0 140
0 0 140
0 0 140
0 0 140
0 0 140
0 0 140
0 0 140
0 0 140
0 0 140
0 0 140
0 0 140
0 0 140
0 0 140
0 0 140
0 0 140
0 0 140
0 0 140
0 0 140
0 0 140
0 0 140
0 0 140
0 0 140
0 0 140
0 0 140
0 0 140
0 0 140
0 0 140
0 0 140
0 0 140
0 0 140
0 0 140
0 0 140
0 0 140
0 0 140
0 0 140
0 0 140
0 0 140
0 0 140
0 0 140
0 0 140
0 0 140
0 0 140
0 0 140
0 0 140
0 0 140
0 0 140
0 0 140
0 0 140
0 0 140
0 0 140
0 0 140
0 0 140
0 0 140
0 0 140
0 0 140
0 0 140
0 0 140
0 0 140
0 0 140
0 0 140
0 0 140
0 0 140
0 0 140
0 0 140
0 0 140
0 0 140
0 0 140
0 0 140
0 0 140
0 0 140
0 0 140
0 0 140
0 0 140
0 0 140
0 0 140
0 0 140
0 0 140
0 0 140
0 0 140
0 0 140
0 0 140
0 0 140
0 0 140
0 0 140
0 0 140
0 0 140
0 0 140
0 0 140
0 0 140
0 0 140
0 0 140
0 0 140
0 0 140
0 0 140
0 0 140
0 0 140
0 0 140
0 0 140
0 0 140
0 0 140
0 0 140
0 0 140
0 0 140
0 0 140
0 0 140
0 0 140
0 0 140
0 0 140
0 0 140
0 0 140
0 0 140
0 0 140
0 0 140
0 0 140
0 0 140
0 0 140
0 0 140
0 0 140
0 0 140
0 0 140
0 0 140
0 0 140
0 0 140
0 0 140
0 0 140
0 0 140
0 0 140
0 0 140
0 0 140
0 0 140
0 0 140
0 0 140
0 0 140
0 0 140
0 0 140
0 0 140
0 0 140
0 0 140
0 0 140
0 0 140
0 0 140
0 0 140
0 0 140
0 0 140
0 0 140
0 0 140
0 0 140
0 0 140
0 0 140
0 0 140
0 0 140
0 0 139
0 0 133
0 0 119
0 0 115
0 0 115
0 0 93
0 0 75
0 0 61
0 0 37
0 0 0
0 0 0
0 0 0
0 0 0
0 0 0
0 0 0
0 0 0
0 0 0
0 0 0
18 0 0
25 0 0
54 0 0
47 0 0
47 0 0
59 0 0
77 0 0
65 0 0
65 0 0
72 0 0
66 0 0
67 0 0
68 0 0
64 0 0
64 0 0
66 0 0
64 0 0
75 0 0
83 0 0
61 0 0
79 0 0
68 0 0
61 0 0
64 0 0
72 0 0
75 0 0
67 0 0
50 0 0
57 0 0
72 0 0
67 0 0
54 0 0
35 0 0
40 0 0
30 0 0
18 0 0
0 0 0
0 0 0
0 0 0
0 0 0
0 0 0
0 0 0
0 0 0
0 0 0
0 0 0
0 0 28
0 0 67
0 0 67
0 0 99
0 0 105
0 0 113
0 0 125
0 0 134
0 0 138
0 0 140
0 0 140
0 0 140
0 0 140
0 0 140
0 0 140
0 0 140
0 0 140
0 0 140
0 0 140
0 0 140
0 0 140
0 0 140
0 0 140
0 0 140
0 0 140
0 0 140
0 0 140
0 0 140
0 0 140
0 0 140
0 0 140
0 0 140
0 0 140
0 0 140
0 0 140
0 0 140
0 0 140
0 0 140
0 0 140
0 0 140
0 0 140
0 0 140
0 0 140
0 0 140
0 0 140
0 0 140
0 0 140
0 0 140
0 0 140
0 0 140
0 0 140
0 0 140
0 0 140
0 0 140
0 0 140
0 0 140
0 0 140
0 0 140
0 0 140
0 0 140
0 0 140
0 0 140
0 0 140
0 0 140
0 0 140
0 0 140
0 0 140
0 0 140
0 0 140
0 0 140
0 0 140
0 0 140
0 0 140
0 0 140
0 0 140
0 0 140
0 0 140
0 0 140
0 0 140
0 0 140
0 0 140
0 0 140
0 0 140
0 0 140
0 0 140
0 0 140
0 0 140
0 0 140
0 0 140
0 0 140
0 0 140
0 0 140
0 0 140
0 0 140
0 0 140
0 0 140
0 0 140
0 0 140
0 0 140
0 0 140
0 0 140
0 0 140
0 0 140
0 0 140
0 0 140
0 0 140
0 0 140
0 0 140
0 0 140
0 0 140
0 0 140
0 0 140
0 0 140
0 0 140
0 0 140
0 0 140
0 0 140
0 0 140
0 0 140
0 0 140
0 0 140
0 0 140
0 0 140
0 0 140
0 0 140
0 0 140
0 0 140
0 0 140
0 0 140
0 0 140
0 0 140
0 0 140
0 0 140
0 0 140
0 0 140
0 0 140
0 0 140
0 0 140
0 0 140
0 0 140
0 0 140
0 0 140
0 0 140
0 0 140
0 0 140
0 0 140
0 0 140
0 0 140
0 0 140
0 0 140
0 0 140
0 0 140
0 0 140
0 0 140
0 0 140
0 0 140
0 0 140
0 0 140
0 0 140
0 0 140
0 0 140
0 0 140
0 0 140
0 0 140
0 0 140
0 0 140
0 0 140
0 0 140
0 0 140
0 0 140
0 0 140
0 0 140
0 0 140
0 0 140
0 0 140
0 0 140
0 0 140
0 0 140
0 0 140
0 0 140
0 0 140
0 0 140
0 0 140
0 0 140
0 0 140
0 0 140
0 0 140
0 0 140
0 0 140
0 0 140
0 0 140
0 0 140
0 0 140
0 0 140
0 0 140
0 0 140
0 0 140
0 0 140
0 0 140
0 0 140
0 0 140
0 0 140
0 0 140
0 0 140
0 0 140
0 0 140
0 0 140
0 0 140
0 0 140
0 0 140
0 0 140
0 0 140
0 0 140
0 0 140
0 0 140
0 0 140
0 0 140
0 0 140
0 0 140
0 0 140
0 0 140
0 0 140
0 0 140
0 0 140
0 0 140
0 0 140
0 0 140
0 0 140
0 0 140
0 0 140
0 0 140
0 0 140
0 0 140
0 0 140
0 0 140
0 0 140
0 0 140
0 0 140
0 0 140
0 0 140
0 0 140
0 0 140
0 0 140
0 0 140
0 0 140
0 0 140
0 0 140
0 0 140
0 0 140
0 0 140
0 0 140
0 0 140
0 0 140
0 0 140
0 0 140
0 0 140
0 0 140
0 0 140
0 0 140
0 0 140
0 0 140
0 0 140
0 0 140
0 0 140
0 0 140
0 0 140
0 0 140
0 0 140
0 0 140
0 0 140
0 0 140
0 0 140
0 0 140
0 0 140
0 0 140
0 0 140
0 0 140
0 0 140
0 0 140
0 0 140
0 0 140
0 0 140
0 0 140
0 0 140
0 0 140
0 0 140
0 0 140
0 0 140
0 0 140
0 0 140
0 0 140
0 0 140
0 0 140
0 0 140
0 0 140
0 0 140
0 0 140
0 0 140
0 0 140
0 0 140
0 0 140
0 0 140
0 0 140
0 0 140
0 0 140
0 0 140
0 0 140
0 0 140
0 0 140
0 0 140
0 0 140
0 0 140
0 0 140
0 0 140
0 0 140
0 0 140
0 0 140
0 0 140
0 0 140
0 0 140
0 0 140
0 0 140
0 0 140
0 0 140
0 0 140
0 0 140
0 0 140
0 0 140
0 0 140
0 0 140
0 0 140
0 0 140
0 0 140
0 0 140
0 0 140
0 0 140
0 0 138
0 0 132
0 0 120
0 0 111
0 0 98
0 0 86
0 0 70
0 0 62
0 0 34
0 0 0
0 0 0
0 0 0
0 0 0
0 0 0
0 0 0
0 0 0
0 0 0
0 0 0
0 0 0
0 0 0
0 0 0
0 0 0
0 0 0
0 0 0
35 0 0
31 0 0
53 0 0
57 0 0
56 0 0
71 0 0
50 0 0
51 0 0
60 0 0
59 0 0
70 0 0
80 0 0
67 0 0
74 0 0
64 0 0
62 0 0
81 0 0
74 0 0
65 0 0
44 0 0
57 0 0
51 0 0
47 0 0
35 0 0
36 0 0
31 0 0
0 0 0
0 0 0
0 0 0
0 0 0
0 0 0
0 0 0
0 0 0
0 0 0
0 0 0
0 0 0
0 0 0
0 0 0
0 0 0
0 0 0
0 0 14
0 0 28
0 0 56
0 0 81
0 0 87
0 0 99
0 0 107
0 0 123
0 0 130
0 0 139
0 0 140
0 0 140
0 0 140
0 0 140
0 0 140
0 0 140
0 0 140
0 0 140
0 0 140
0 0 140
0 0 140
0 0 140
0 0 140
0 0 140
0 0 140
0 0 140
0 0 140
0 0 140
0 0 140
0 0 140
0 0 140
0 0 140
0 0 140
0 0 140
0 0 140
0 0 140
0 0 140
0 0 140
0 0 140
0 0 140
0 0 140
0 0 140
0 0 140
0 0 140
0 0 140
0 0 140
0 0 140
0 0 140
0 0 140
0 0 140
0 0 140
0 0 140
0 0 140
0 0 140
0 0 140
0 0 140
0 0 140
0 0 140
0 0 140
0 0 140
0 0 140
0 0 140
0 0 140
0 0 140
0 0 140
0 0 140
0 0 140
0 0 140
0 0 140
0 0 140
0 0 140
0 0 140
0 0 140
0 0 140
0 0 140
0 0 140
0 0 140
0 0 140
0 0 140
0 0 140
0 0 140
0 0 140
0 0 140
0 0 140
0 0 140
0 0 140
0 0 140
0 0 140
0 0 140
0 0 140
0 0 140
0 0 140
0 0 140
0 0 140
0 0 140
0 0 140
0 0 140
0 0 140
0 0 140
0 0 140
0 0 140
0 0 140
0 0 140
0 0 140
0 0 140
0 0 140
0 0 140
0 0 140
0 0 140
0 0 140
0 0 140
0 0 140
0 0 140
0 0 140
0 0 140
0 0 140
0 0 140
0 0 140
0 0 140
0 0 140
0 0 140
0 0 140
0 0 140
0 0 140
0 0 140
0 0 140
0 0 140
0 0 140
0 0 140
0 0 140
0 0 140
0 0 140
0 0 140
0 0 140
0 0 140
0 0 140
0 0 140
0 0 140
0 0 140
0 0 140
0 0 140
0 0 140
0 0 140
0 0 140
0 0 140
0 0 140
0 0 140
0 0 140
0 0 140
0 0 140
0 0 140
0 0 140
0 0 140
0 0 140
0 0 140
0 0 140
0 0 140
0 0 140
0 0 140
0 0 140
0 0 140
0 0 140
0 0 140
0 0 140
0 0 140
0 0 140
0 0 140
0 0 140
0 0 140
0 0 140
0 0 140
0 0 140
0 0 140
0 0 140
0 0 140
0 0 140
0 0 140
0 0 140
0 0 140
0 0 140
0 0 140
0 0 140
0 0 140
0 0 140
0 0 140
0 0 140
0 0 140
0 0 140
0 0 140
0 0 140
0 0 140
0 0 140
0 0 140
0 0 140
0 0 140
0 0 140
0 0 140
0 0 140
0 0 140
0 0 140
0 0 140
0 0 140
0 0 140
0 0 140
0 0 140
0 0 140
0 0 140
0 0 140
0 0 140
0 0 140
0 0 140
0 0 140
0 0 140
0 0 140
0 0 140
0 0 140
0 0 140
0 0 140
0 0 140
0 0 140
0 0 140
0 0 140
0 0 140
0 0 140
0 0 140
0 0 140
0 0 140
0 0 140
0 0 140
0 0 140
0 0 140
0 0 140
0 0 140
0 0 140
0 0 140
0 0 140
0 0 140
0 0 140
0 0 140
0 0 140
0 0 140
0 0 140
0 0 140
0 0 140
0 0 140
0 0 140
0 0 140
0 0 140
0 0 140
0 0 140
0 0 140
0 0 140
0 0 140
0 0 140
0 0 140
0 0 140
0 0 140
0 0 140
0 0 140
0 0 140
0 0 140
0 0 140
0 0 140
0 0 140
0 0 140
0 0 140
0 0 140
0 0 140
0 0 140
0 0 140
0 0 140
0 0 140
0 0 140
0 0 140
0 0 140
0 0 140
0 0 140
0 0 140
0 0 140
0 0 140
0 0 140
0 0 140
0 0 140
0 0 140
0 0 140
0 0 140
0 0 140
0 0 140
0 0 140
0 0 140
0 0 140
0 0 140
0 0 140
0 0 140
0 0 140
0 0 140
0 0 140
0 0 140
0 0 140
0 0 140
0 0 140
0 0 140
0 0 140
0 0 140
0 0 140
0 0 140
0 0 140
0 0 140
0 0 140
0 0 140
0 0 140
0 0 140
0 0 140
0 0 140
0 0 140
0 0 140
0 0 140
0 0 140
0 0 140
0 0 140
0 0 140
0 0 140
0 0 140
0 0 140
0 0 140
0 0 140
0 0 140
0 0 140
0 0 140
0 0 140
0 0 140
0 0 140
0 0 140
0 0 140
0 0 140
0 0 135
0 0 126
0 0 115
0 0 114
0 0 96
0 0 93
0 0 65
0 0 54
0 0 46
0 0 0
0 0 0
0 0 0
0 0 0
0 0 0
0 0 0
0 0 0
0 0 0
0 0 0
0 0 0
0 0 0
0 0 0
0 0 0
0 0 0
0 0 0
0 0 0
0 0 0
0 0 0
0 0 0
0 0 0
0 0 0
0 0 0
0 0 0
24 0 0
30 0 0
44 0 0
26 0 0
48 0 0
48 0 0
36 0 0
0 0 0
25 0 0
17 0 0
0 0 0
18 0 0
18 0 0
25 0 0
0 0 0
0 0 0
0 0 0
0 0 0
0 0 0
0 0 0
0 0 0
0 0 0
0 0 0
0 0 0
0 0 0
0 0 0
0 0 0
0 0 0
0 0 0
0 0 0
0 0 0
0 0 0
0 0 0
0 0 0
0 0 0
0 0 31
0 0 75
0 0 87
0 0 87
0 0 105
0 0 107
0 0 126
0 0 130
0 0 136
0 0 139
0 0 140
0 0 140
0 0 140
0 0 140
0 0 140
0 0 140
0 0 140
0 0 140
0 0 140
0 0 140
0 0 140
0 0 140
0 0 140
0 0 140
0 0 140
0 0 140
0 0 140
0 0 140
0 0 140
0 0 140
0 0 140
0 0 140
0 0 140
0 0 140
0 0 140
0 0 140
0 0 140
0 0 140
0 0 140
0 0 140
0 0 140
0 0 140
0 0 140
0 0 140
0 0 140
0 0 140
0 0 140
0 0 140
0 0 140
0 0 140
0 0 140
0 0 140
0 0 140
0 0 140
0 0 140
0 0 140
0 0 140
0 0 140
0 0 140
0 0 140
0 0 140
0 0 140
0 0 140
0 0 140
0 0 140
0 0 140
0 0 140
0 0 140
0 0 140
0 0 140
0 0 140
0 0 140
0 0 140
0 0 140
0 0 140
0 0 140
0 0 140
0 0 140
0 0 140
0 0 140
0 0 140
0 0 140
0 0 140
0 0 140
0 0 140
0 0 140
0 0 140
0 0 140
0 0 140
0 0 140
0 0 140
0 0 140
0 0 140
0 0 140
0 0 140
0 0 140
0 0 140
0 0 140
0 0 140
0 0 140
0 0 140
0 0 140
0 0 140
0 0 140
0 0 140
0 0 140
0 0 140
0 0 140
0 0 140
0 0 140
0 0 140
0 0 140
0 0 140
0 0 140
0 0 140
0 0 140
0 0 140
0 0 140
0 0 140
0 0 140
0 0 140
0 0 140
0 0 140
0 0 140
0 0 140
0 0 140
0 0 140
0 0 140
0 0 140
0 0 140
0 0 140
0 0 140
0 0 140
0 0 140
0 0 140
0 0 140
0 0 140
0 0 140
0 0 140
0 0 140
0 0 140
0 0 140
0 0 140
0 0 140
0 0 140
0 0 140
0 0 140
0 0 140
0 0 140
0 0 140
0 0 140
0 0 140
0 0 140
0 0 140
0 0 140
0 0 140
0 0 140
0 0 140
0 0 140
0 0 140
0 0 140
0 0 140
0 0 140
0 0 140
0 0 140
0 0 140
0 0 140
0 0 140
0 0 140
0 0 140
0 0 140
0 0 140
0 0 140
0 0 140
0 0 140
0 0 140
0 0 140
0 0 140
0 0 140
0 0 140
0 0 140
0 0 140
0 0 140
0 0 140
0 0 140
0 0 140
0 0 140
0 0 140
0 0 140
0 0 140
0 0 140
0 0 140
0 0 140
0 0 140
0 0 140
0 0 140
0 0 140
0 0 140
0 0 140
0 0 140
0 0 140
0 0 140
0 0 140
0 0 140
0 0 140
0 0 140
0 0 140
0 0 140
0 0 140
0 0 140
0 0 140
0 0 140
0 0 140
0 0 140
0 0 140
0 0 140
0 0 140
0 0 140
0 0 140
0 0 140
0 0 140
0 0 140
0 0 140
0 0 140
0 0 140
0 0 140
0 0 140
0 0 140
0 0 140
0 0 140
0 0 140
0 0 140
0 0 140
0 0 140
0 0 140
0 0 140
0 0 140
0 0 140
0 0 140
0 0 140
0 0 140
0 0 140
0 0 140
0 0 140
0 0 140
0 0 140
0 0 140
0 0 140
0 0 140
0 0 140
0 0 140
0 0 140
0 0 140
0 0 140
0 0 140
0 0 140
0 0 140
0 0 140
0 0 140
0 0 140
0 0 140
0 0 140
0 0 140
0 0 140
0 0 140
0 0 140
0 0 140
0 0 140
0 0 140
0 0 140
0 0 140
0 0 140
0 0 140
0 0 140
0 0 140
0 0 140
0 0 140
0 0 140
0 0 140
0 0 140
0 0 140
0 0 140
0 0 140
0 0 140
0 0 140
0 0 140
0 0 140
0 0 140
0 0 140
0 0 140
0 0 140
0 0 140
0 0 140
0 0 140
0 0 140
0 0 140
0 0 140
0 0 140
0 0 140
0 0 140
0 0 140
0 0 140
0 0 140
0 0 140
0 0 140
0 0 140
0 0 140
0 0 140
0 0 140
0 0 140
0 0 140
0 0 140
0 0 140
0 0 140
0 0 140
0 0 140
0 0 140
0 0 140
0 0 140
0 0 140
0 0 140
0 0 140
0 0 140
0 0 140
0 0 140
0 0 140
0 0 140
0 0 140
0 0 140
0 0 140
0 0 140
0 0 138
0 0 135
0 0 127
0 0 121
0 0 113
0 0 97
0 0 87
0 0 71
0 0 59
0 0 28
0 0 0
0 0 0
0 0 0
0 0 0
0 0 0
0 0 0
0 0 0
0 0 0
0 0 0
0 0 0
0 0 0
0 0 0
0 0 0
0 0 0
0 0 0
0 0 0
0 0 0
0 0 0
0 0 0
0 0 0
0 0 0
0 0 0
0 0 0
0 0 0
0 0 0
0 0 0
0 0 0
0 0 0
0 0 0
0 0 0
0 0 0
0 0 0
0 0 0
0 0 0
0 0 0
0 0 0
0 0 0
0 0 0
0 0 0
0 0 0
0 0 0
0 0 0
0 0 0
0 0 0
0 0 0
0 0 0
0 0 0
0 0 0
0 0 0
0 0 0
0 0 0
0 0 0
0 0 0
0 0 0
0 0 0
0 0 0
0 0 0
0 0 0
0 0 0
0 0 0
0 0 37
0 0 54
0 0 75
0 0 96
0 0 100
0 0 109
0 0 118
0 0 128
0 0 135
0 0 140
0 0 140
0 0 140
0 0 140
0 0 140
0 0 140
0 0 140
0 0 140
0 0 140
0 0 140
0 0 140
0 0 140
0 0 140
0 0 140
0 0 140
0 0 140
0 0 140
0 0 140
0 0 140
0 0 140
0 0 140
0 0 140
0 0 140
0 0 140
0 0 140
0 0 140
0 0 140
0 0 140
0 0 140
0 0 140
0 0 140
0 0 140
0 0 140
0 0 140
0 0 140
0 0 140
0 0 140
0 0 140
0 0 140
0 0 140
0 0 140
0 0 140
0 0 140
0 0 140
0 0 140
0 0 140
0 0 140
0 0 140
0 0 140
0 0 140
0 0 140
0 0 140
0 0 140
0 0 140
0 0 140
0 0 140
0 0 140
0 0 140
0 0 140
0 0 140
0 0 140
0 0 140
0 0 140
0 0 140
0 0 140
0 0 140
0 0 140
0 0 140
0 0 140
0 0 140
0 0 140
0 0 140
0 0 140
0 0 140
0 0 140
0 0 140
0 0 140
0 0 140
0 0 140
0 0 140
0 0 140
0 0 140
0 0 140
0 0 140
0 0 140
0 0 140
0 0 140
0 0 140
0 0 140
0 0 140
0 0 140
0 0 140
0 0 140
0 0 140
0 0 140
0 0 140
0 0 140
0 0 140
0 0 140
0 0 140
0 0 140
0 0 140
0 0 140
0 0 140
0 0 140
0 0 140
0 0 140
0 0 140
0 0 140
0 0 140
0 0 140
0 0 140
0 0 140
0 0 140
0 0 140
0 0 140
0 0 140
0 0 140
0 0 140
0 0 140
0 0 140
0 0 140
0 0 140
0 0 140
0 0 140
0 0 140
0 0 140
0 0 140
0 0 140
0 0 140
0 0 140
0 0 140
0 0 140
0 0 140
0 0 140
0 0 140
0 0 140
0 0 140
0 0 140
0 0 140
0 0 140
0 0 140
0 0 140
0 0 140
0 0 140
0 0 140
0 0 140
0 0 140
0 0 140
0 0 140
0 0 140
0 0 140
0 0 140
0 0 140
0 0 140
0 0 140
0 0 140
0 0 140
0 0 140
0 0 140
0 0 140
0 0 140
0 0 140
0 0 140
0 0 140
0 0 140
0 0 140
0 0 140
0 0 140
0 0 140
0 0 140
0 0 140
0 0 140
0 0 140
0 0 140
0 0 140
0 0 140
0 0 140
0 0 140
0 0 140
0 0 140
0 0 140
0 0 140
0 0 140
0 0 140
0 0 140
0 0 140
0 0 140
0 0 140
0 0 140
0 0 140
0 0 140
0 0 140
0 0 140
0 0 140
0 0 140
0 0 140
0 0 140
0 0 140
0 0 140
0 0 140
0 0 140
0 0 140
0 0 140
0 0 140
0 0 140
0 0 140
0 0 140
0 0 140
0 0 140
0 0 140
0 0 140
0 0 140
0 0 140
0 0 140
0 0 140
0 0 140
0 0 140
0 0 140
0 0 140
0 0 140
0 0 140
0 0 140
0 0 140
0 0 140
0 0 140
0 0 140
0 0 140
0 0 140
0 0 140
0 0 140
0 0 140
0 0 140
0 0 140
0 0 140
0 0 140
0 0 140
0 0 140
0 0 140
0 0 140
0 0 140
0 0 140
0 0 140
0 0 140
0 0 140
0 0 140
0 0 140
0 0 140
0 0 140
0 0 140
0 0 140
0 0 140
0 0 140
0 0 140
0 0 140
0 0 140
0 0 140
0 0 140
0 0 140
0 0 140
0 0 140
0 0 140
0 0 140
0 0 140
0 0 140
0 0 140
0 0 140
0 0 140
0 0 140
0 0 140
0 0 140
0 0 140
0 0 140
0 0 140
0 0 140
0 0 140
0 0 140
0 0 140
0 0 140
0 0 140
0 0 140
0 0 140
0 0 140
0 0 140
0 0 140
0 0 140
0 0 140
0 0 140
0 0 140
0 0 140
0 0 140
0 0 140
0 0 140
0 0 140
0 0 140
0 0 140
0 0 140
0 0 140
0 0 140
0 0 140
0 0 140
0 0 140
0 0 140
0 0 140
0 0 140
0 0 140
0 0 140
0 0 140
0 0 140
0 0 140
0 0 140
0 0 140
0 0 140
0 0 140
0 0 140
0 0 140
0 0 140
0 0 140
0 0 140
0 0 140
0 0 140
0 0 135
0 0 128
0 0 115
0 0 104
0 0 95
0 0 94
0 0 87
0 0 48
0 0 31
0 0 0
0 0 0
0 0 0
0 0 0
0 0 0
0 0 0
0 0 0
0 0 0
0 0 0
0 0 0
0 0 0
0 0 0
0 0 0
0 0 0
0 0 0
0 0 0
0 0 0
0 0 0
0 0 0
0 0 0
0 0 0
0 0 0
0 0 0
0 0 0
0 0 0
0 0 0
0 0 0
0 0 0
0 0 0
0 0 0
0 0 0
0 0 0
0 0 0
0 0 0
0 0 0
0 0 0
0 0 0
0 0 0
0 0 0
0 0 0
0 0 0
0 0 0
0 0 0
0 0 0
0 0 0
0 0 0
0 0 0
0 0 0
0 0 0
0 0 0
0 0 0
0 0 0
0 0 0
0 0 0
0 0 0
0 0 0
0 0 0
0 0 0
0 0 0
0 0 0
0 0 0
0 0 0
0 0 24
0 0 61
0 0 68
0 0 87
0 0 100
0 0 113
0 0 118
0 0 126
0 0 137
0 0 140
0 0 140
0 0 140
0 0 140
0 0 140
0 0 140
0 0 140
0 0 140
0 0 140
0 0 140
0 0 140
0 0 140
0 0 140
0 0 140
0 0 140
0 0 140
0 0 140
0 0 140
0 0 140
0 0 140
0 0 140
0 0 140
0 0 140
0 0 140
0 0 140
0 0 140
0 0 140
0 0 140
0 0 140
0 0 140
0 0 140
0 0 140
0 0 140
0 0 140
0 0 140
0 0 140
0 0 140
0 0 140
0 0 140
0 0 140
0 0 140
0 0 140
0 0 140
0 0 140
0 0 140
0 0 140
0 0 140
0 0 140
0 0 140
0 0 140
0 0 140
0 0 140
0 0 140
0 0 140
0 0 140
0 0 140
0 0 140
0 0 140
0 0 140
0 0 140
0 0 140
0 0 140
0 0 140
0 0 140
0 0 140
0 0 140
0 0 140
0 0 140
0 0 140
0 0 140
0 0 140
0 0 140
0 0 140
0 0 140
0 0 140
0 0 140
0 0 140
0 0 140
0 0 140
0 0 140
0 0 140
0 0 140
0 0 140
0 0 140
0 0 140
0 0 140
0 0 140
0 0 140
0 0 140
0 0 140
0 0 140
0 0 140
0 0 140
0 0 140
0 0 140
0 0 140
0 0 140
0 0 140
0 0 140
0 0 140
0 0 140
0 0 140
0 0 140
0 0 140
0 0 140
0 0 140
0 0 140
0 0 140
0 0 140
0 0 140
0 0 140
0 0 140
0 0 140
0 0 140
0 0 140
0 0 140
0 0 140
0 0 140
0 0 140
0 0 140
0 0 140
0 0 140
0 0 140
0 0 140
0 0 140
0 0 140
0 0 140
0 0 140
0 0 140
0 0 140
0 0 140
0 0 140
0 0 140
0 0 140
0 0 140
0 0 140
0 0 140
0 0 140
0 0 140
0 0 140
0 0 140
0 0 140
0 0 140
0 0 140
0 0 140
0 0 140
0 0 140
0 0 140
0 0 140
0 0 140
0 0 140
0 0 140
0 0 140
0 0 140
0 0 140
0 0 140
0 0 140
0 0 140
0 0 140
0 0 140
0 0 140
0 0 140
0 0 140
0 0 140
0 0 140
0 0 140
0 0 140
0 0 140
0 0 140
0 0 140
0 0 140
0 0 140
0 0 140
0 0 140
0 0 140
0 0 140
0 0 140
0 0 140
0 0 140
0 0 140
0 0 140
0 0 140
0 0 140
0 0 140
0 0 140
0 0 140
0 0 140
0 0 140
0 0 140
0 0 140
0 0 140
0 0 140
0 0 140
0 0 140
0 0 140
0 0 140
0 0 140
0 0 140
0 0 140
0 0 140
0 0 140
0 0 140
0 0 140
0 0 140
0 0 140
0 0 140
0 0 140
0 0 140
0 0 140
0 0 140
0 0 140
0 0 140
0 0 140
0 0 140
0 0 140
0 0 140
0 0 140
0 0 140
0 0 140
0 0 140
0 0 140
0 0 140
0 0 140
0 0 140
0 0 140
0 0 140
0 0 140
0 0 140
0 0 140
0 0 140
0 0 140
0 0 140
0 0 140
0 0 140
0 0 140
0 0 140
0 0 140
0 0 140
0 0 140
0 0 140
0 0 140
0 0 140
0 0 140
0 0 140
0 0 140
0 0 140
0 0 140
0 0 140
0 0 140
0 0 140
0 0 140
0 0 140
0 0 140
0 0 140
0 0 140
0 0 140
0 0 140
0 0 140
0 0 140
0 0 140
0 0 140
0 0 140
0 0 140
0 0 140
0 0 140
0 0 140
0 0 140
0 0 140
0 0 140
0 0 140
0 0 140
0 0 140
0 0 140
0 0 140
0 0 140
0 0 140
0 0 140
0 0 140
0 0 140
0 0 140
0 0 140
0 0 140
0 0 140
0 0 140
0 0 140
0 0 140
0 0 140
0 0 140
0 0 140
0 0 140
0 0 140
0 0 140
0 0 140
0 0 140
0 0 140
0 0 140
0 0 140
0 0 140
0 0 140
0 0 140
0 0 140
0 0 140
0 0 140
0 0 140
0 0 140
0 0 140
0 0 140
0 0 140
0 0 140
0 0 140
0 0 140
0 0 140
0 0 140
0 0 140
0 0 140
0 0 140
0 0 140
0 0 140
0 0 140
0 0 134
0 0 129
0 0 118
0 0 104
0 0 95
0 0 90
0 0 84
0 0 59
0 0 44
0 0 14
0 0 0
0 0 0
0 0 0
0 0 0
0 0 0
0 0 0
0 0 0
0 0 0
0 0 0
0 0 0
0 0 0
0 0 0
0 0 0
0 0 0
0 0 0
0 0 0
0 0 0
0 0 0
0 0 0
0 0 0
0 0 0
0 0 0
0 0 0
0 0 0
0 0 0
0 0 0
0 0 0
0 0 0
0 0 0
0 0 0
0 0 0
0 0 0
0 0 0
0 0 0
0 0 0
0 0 0
0 0 0
0 0 0
0 0 0
0 0 0
0 0 0
0 0 0
0 0 0
0 0 0
0 0 0
0 0 0
0 0 0
0 0 0
0 0 0
0 0 0
0 0 0
0 0 0
0 0 0
0 0 0
0 0 0
0 0 0
0 0 0
0 0 0
0 0 0
0 0 0
0 0 0
0 0 0
0 0 0
0 0 28
0 0 57
0 0 76
0 0 79
0 0 96
0 0 116
0 0 117
0 0 126
0 0 137
0 0 139
0 0 140
0 0 140
0 0 140
0 0 140
0 0 140
0 0 140
0 0 140
0 0 140
0 0 140
0 0 140
0 0 140
0 0 140
0 0 140
0 0 140
0 0 140
0 0 140
0 0 140
0 0 140
0 0 140
0 0 140
0 0 140
0 0 140
0 0 140
0 0 140
0 0 140
0 0 140
0 0 140
0 0 140
0 0 140
0 0 140
0 0 140
0 0 140
0 0 140
0 0 140
0 0 140
0 0 140
0 0 140
0 0 140
0 0 140
0 0 140
0 0 140
0 0 140
0 0 140
0 0 140
0 0 140
0 0 140
0 0 140
0 0 140
0 0 140
0 0 140
0 0 140
0 0 140
0 0 140
0 0 140
0 0 140
0 0 140
0 0 140
0 0 140
0 0 140
0 0 140
0 0 140
0 0 140
0 0 140
0 0 140
0 0 140
0 0 140
0 0 140
0 0 140
0 0 140
0 0 140
0 0 140
0 0 140
0 0 140
0 0 140
0 0 140
0 0 140
0 0 140
0 0 140
0 0 140
0 0 140
0 0 140
0 0 140
0 0 140
0 0 140
0 0 140
0 0 140
0 0 140
0 0 140
0 0 140
0 0 140
0 0 140
0 0 140
0 0 140
0 0 140
0 0 140
0 0 140
0 0 140
0 0 140
0 0 140
0 0 140
0 0 140
0 0 140
0 0 140
0 0 140
0 0 140
0 0 140
0 0 140
0 0 140
0 0 140
0 0 140
0 0 140
0 0 140
0 0 140
0 0 140
0 0 140
0 0 140
0 0 140
0 0 140
0 0 140
0 0 140
0 0 140
0 0 140
0 0 140
0 0 140
0 0 140
0 0 140
0 0 140
0 0 140
0 0 140
0 0 140
0 0 140
0 0 140
0 0 140
0 0 140
0 0 140
0 0 140
0 0 140
0 0 140
0 0 140
0 0 140
0 0 140
0 0 140
0 0 140
0 0 140
0 0 140
0 0 140
0 0 140
0 0 140
0 0 140
0 0 140
0 0 140
0 0 140
0 0 140
0 0 140
0 0 140
0 0 140
0 0 140
0 0 140
0 0 140
0 0 140
0 0 140
0 0 140
0 0 140
0 0 140
0 0 140
0 0 140
0 0 140
0 0 140
0 0 140
0 0 140
0 0 140
0 0 140
0 0 140
0 0 140
0 0 140
0 0 140
0 0 140
0 0 140
0 0 140
0 0 140
0 0 140
0 0 140
0 0 140
0 0 140
0 0 140
0 0 140
0 0 140
0 0 140
0 0 140
0 0 140
0 0 140
0 0 140
0 0 140
0 0 140
0 0 140
0 0 140
0 0 140
0 0 140
0 0 140
0 0 140
0 0 140
0 0 140
0 0 140
0 0 140
0 0 140
0 0 140
0 0 140
0 0 140
0 0 140
0 0 140
0 0 140
0 0 140
0 0 140
0 0 140
0 0 140
0 0 140
0 0 140
0 0 140
0 0 140
0 0 140
0 0 140
0 0 140
0 0 140
0 0 140
0 0 140
0 0 140
0 0 140
0 0 140
0 0 140
0 0 140
0 0 140
0 0 140
0 0 140
0 0 140
0 0 140
0 0 140
0 0 140
0 0 140
0 0 140
0 0 140
0 0 140
0 0 140
0 0 140
0 0 140
0 0 140
0 0 140
0 0 140
0 0 140
0 0 140
0 0 140
0 0 140
0 0 140
0 0 140
0 0 140
0 0 140
0 0 140
0 0 140
0 0 140
0 0 140
0 0 140
0 0 140
0 0 140
0 0 140
0 0 140
0 0 140
0 0 140
0 0 140
0 0 140
0 0 140
0 0 140
0 0 140
0 0 140
0 0 140
0 0 140
0 0 140
0 0 140
0 0 140
0 0 140
0 0 140
0 0 140
0 0 140
0 0 140
0 0 140
0 0 140
0 0 140
0 0 140
0 0 140
0 0 140
0 0 140
0 0 140
0 0 140
0 0 140
0 0 140
0 0 140
0 0 140
0 0 140
0 0 140
0 0 140
0 0 140
0 0 140
0 0 140
0 0 140
0 0 140
0 0 140
0 0 140
0 0 140
0 0 140
0 0 140
0 0 140
0 0 140
0 0 140
0 0 140
0 0 140
0 0 140
0 0 140
0 0 140
0 0 135
0 0 134
0 0 124
0 0 106
0 0 103
0 0 85
0 0 71
0 0 57
0 0 44
0 0 14
0 0 0
0 0 0
0 0 0
0 0 0
0 0 0
0 0 0
0 0 0
0 0 0
0 0 0
0 0 0
0 0 0
0 0 0
0 0 0
0 0 0
0 0 0
0 0 0
0 0 0
0 0 0
0 0 0
0 0 0
0 0 0
0 0 0
0 0 0
0 0 0
0 0 0
0 0 0
0 0 0
0 0 0
0 0 0
0 0 0
0 0 0
0 0 0
0 0 0
0 0 0
0 0 0
0 0 0
0 0 0
0 0 0
0 0 0
0 0 0
0 0 0
0 0 0
0 0 0
0 0 0
0 0 0
0 0 0
0 0 0
0 0 0
0 0 0
0 0 0
0 0 0
0 0 0
0 0 0
0 0 0
0 0 0
0 0 0
0 0 0
0 0 0
0 0 0
0 0 0
0 0 0
0 0 0
0 0 0
0 0 0
0 0 24
0 0 44
0 0 72
0 0 61
0 0 97
0 0 100
0 0 120
0 0 118
0 0 123
0 0 136
0 0 140
0 0 140
0 0 140
0 0 140
0 0 140
0 0 140
0 0 140
0 0 140
0 0 140
0 0 140
0 0 140
0 0 140
0 0 140
0 0 140
0 0 140
0 0 140
0 0 140
0 0 140
0 0 140
0 0 140
0 0 140
0 0 140
0 0 140
0 0 140
0 0 140
0 0 140
0 0 140
0 0 140
0 0 140
0 0 140
0 0 140
0 0 140
0 0 140
0 0 140
0 0 140
0 0 140
0 0 140
0 0 140
0 0 140
0 0 140
0 0 140
0 0 140
0 0 140
0 0 140
0 0 140
0 0 140
0 0 140
0 0 140
0 0 140
0 0 140
0 0 140
0 0 140
0 0 140
0 0 140
0 0 140
0 0 140
0 0 140
0 0 140
0 0 140
0 0 140
0 0 140
0 0 140
0 0 140
0 0 140
0 0 140
0 0 140
0 0 140
0 0 140
0 0 140
0 0 140
0 0 140
0 0 140
0 0 140
0 0 140
0 0 140
0 0 140
0 0 140
0 0 140
0 0 140
0 0 140
0 0 140
0 0 140
0 0 140
0 0 140
0 0 140
0 0 140
0 0 140
0 0 140
0 0 140
0 0 140
0 0 140
0 0 140
0 0 140
0 0 140
0 0 140
0 0 140
0 0 140
0 0 140
0 0 140
0 0 140
0 0 140
0 0 140
0 0 140
0 0 140
0 0 140
0 0 140
0 0 140
0 0 140
0 0 140
0 0 140
0 0 140
0 0 140
0 0 140
0 0 140
0 0 140
0 0 140
0 0 140
0 0 140
0 0 140
0 0 140
0 0 140
0 0 140
0 0 140
0 0 140
0 0 140
0 0 140
0 0 140
0 0 140
0 0 140
0 0 140
0 0 140
0 0 140
0 0 140
0 0 140
0 0 140
0 0 140
0 0 140
0 0 140
0 0 140
0 0 140
0 0 140
0 0 140
0 0 140
0 0 140
0 0 140
0 0 140
0 0 140
0 0 140
0 0 140
0 0 140
0 0 140
0 0 140
0 0 140
0 0 140
0 0 140
0 0 140
0 0 140
0 0 140
0 0 140
0 0 140
0 0 140
0 0 140
0 0 140
0 0 140
0 0 140
0 0 140
0 0 140
0 0 140
0 0 140
0 0 140
0 0 140
0 0 140
0 0 140
0 0 140
0 0 140
0 0 140
0 0 140
0 0 140
0 0 140
0 0 140
0 0 140
0 0 140
0 0 140
0 0 140
0 0 140
0 0 140
0 0 140
0 0 140
0 0 140
0 0 140
0 0 140
0 0 140
0 0 140
0 0 140
0 0 140
0 0 140
0 0 140
0 0 140
0 0 140
0 0 140
0 0 140
0 0 140
0 0 140
0 0 140
0 0 140
0 0 140
0 0 140
0 0 140
0 0 140
0 0 140
0 0 140
0 0 140
0 0 140
0 0 140
0 0 140
0 0 140
0 0 140
0 0 140
0 0 140
0 0 140
0 0 140
0 0 140
0 0 140
0 0 140
0 0 140
0 0 140
0 0 140
0 0 140
0 0 140
0 0 140
0 0 140
0 0 140
0 0 140
0 0 140
0 0 140
0 0 140
0 0 140
0 0 140
0 0 140
0 0 140
0 0 140
0 0 140
0 0 140
0 0 140
0 0 140
0 0 140
0 0 140
0 0 140
0 0 140
0 0 140
0 0 140
0 0 140
0 0 140
0 0 140
0 0 140
0 0 140
0 0 140
0 0 140
0 0 140
0 0 140
0 0 140
0 0 140
0 0 140
0 0 140
0 0 140
0 0 140
0 0 140
0 0 140
0 0 140
0 0 140
0 0 140
0 0 140
0 0 140
0 0 140
0 0 140
0 0 140
0 0 140
0 0 140
0 0 140
0 0 140
0 0 140
0 0 140
0 0 140
0 0 140
0 0 140
0 0 140
0 0 140
0 0 140
0 0 140
0 0 140
0 0 140
0 0 140
0 0 140
0 0 140
0 0 140
0 0 140
0 0 140
0 0 140
0 0 140
0 0 140
0 0 140
0 0 140
0 0 140
0 0 140
0 0 140
0 0 140
0 0 140
0 0 140
0 0 140
0 0 140
0 0 140
0 0 140
0 0 140
0 0 140
0 0 140
0 0 137
0 0 128
0 0 122
0 0 114
0 0 101
0 0 99
0 0 87
0 0 50
0 0 31
0 0 19
0 0 0
0 0 0
0 0 0
0 0 0
0 0 0
0 0 0
0 0 0
0 0 0
0 0 0
0 0 0
0 0 0
0 0 0
0 0 0
0 0 0
0 0 0
0 0 0
0 0 0
0 0 0
0 0 0
0 0 0
0 0 0
0 0 0
0 0 0
0 0 0
0 0 0
0 0 0
0 0 0
0 0 0
0 0 0
0 0 0
0 0 0
0 0 0
0 0 0
0 0 0
0 0 0
0 0 0
0 0 0
0 0 0
0 0 0
0 0 0
0 0 0
0 0 0
0 0 0
0 0 0
0 0 0
0 0 0
0 0 0
0 0 0
0 0 0
0 0 0
0 0 0
0 0 0
0 0 0
0 0 0
0 0 0
0 0 0
0 0 0
0 0 0
0 0 0
0 0 0
0 0 0
0 0 0
0 0 0
0 0 0
0 0 0
0 0 0
0 0 19
0 0 39
0 0 68
0 0 78
0 0 86
0 0 99
0 0 107
0 0 125
0 0 130
0 0 133
0 0 140
0 0 140
0 0 140
0 0 140
0 0 140
0 0 140
0 0 140
0 0 140
0 0 140
0 0 140
0 0 140
0 0 140
0 0 140
0 0 140
0 0 140
0 0 140
0 0 140
0 0 140
0 0 140
0 0 140
0 0 140
0 0 140
0 0 140
0 0 140
0 0 140
0 0 140
0 0 140
0 0 140
0 0 140
0 0 140
0 0 140
0 0 140
0 0 140
0 0 140
0 0 140
0 0 140
0 0 140
0 0 140
0 0 140
0 0 140
0 0 140
0 0 140
0 0 140
0 0 140
0 0 140
0 0 140
0 0 140
0 0 140
0 0 140
0 0 140
0 0 140
0 0 140
0 0 140
0 0 140
0 0 140
0 0 140
0 0 140
0 0 140
0 0 140
0 0 140
0 0 140
0 0 140
0 0 140
0 0 140
0 0 140
0 0 140
0 0 140
0 0 140
0 0 140
0 0 140
0 0 140
0 0 140
0 0 140
0 0 140
0 0 140
0 0 140
0 0 140
0 0 140
0 0 140
0 0 140
0 0 140
0 0 140
0 0 140
0 0 140
0 0 140
0 0 140
0 0 140
0 0 140
0 0 140
0 0 140
0 0 140
0 0 140
0 0 140
0 0 140
0 0 140
0 0 140
0 0 140
0 0 140
0 0 140
0 0 140
0 0 140
0 0 140
0 0 140
0 0 140
0 0 140
0 0 140
0 0 140
0 0 140
0 0 140
0 0 140
0 0 140
0 0 140
0 0 140
0 0 140
0 0 140
0 0 140
0 0 140
0 0 140
0 0 140
0 0 140
0 0 140
0 0 140
0 0 140
0 0 140
0 0 140
0 0 140
0 0 140
0 0 140
0 0 140
0 0 140
0 0 140
0 0 140
0 0 140
0 0 140
0 0 140
0 0 140
0 0 140
0 0 140
0 0 140
0 0 140
0 0 140
0 0 140
0 0 140
0 0 140
0 0 140
0 0 140
0 0 140
0 0 140
0 0 140
0 0 140
0 0 140
0 0 140
0 0 140
0 0 140
0 0 140
0 0 140
0 0 140
0 0 140
0 0 140
0 0 140
0 0 140
0 0 140
0 0 140
0 0 140
0 0 140
0 0 140
0 0 140
0 0 140
0 0 140
0 0 140
0 0 140
0 0 140
0 0 140
0 0 140
0 0 140
0 0 140
0 0 140
0 0 140
0 0 140
0 0 140
0 0 140
0 0 140
0 0 140
0 0 140
0 0 140
0 0 140
0 0 140
0 0 140
0 0 140
0 0 140
0 0 140
0 0 140
0 0 140
0 0 140
0 0 140
0 0 140
0 0 140
0 0 140
0 0 140
0 0 140
0 0 140
0 0 140
0 0 140
0 0 140
0 0 140
0 0 140
0 0 140
0 0 140
0 0 140
0 0 140
0 0 140
0 0 140
0 0 140
0 0 140
0 0 140
0 0 140
0 0 140
0 0 140
0 0 140
0 0 140
0 0 140
0 0 140
0 0 140
0 0 140
0 0 140
0 0 140
0 0 140
0 0 140
0 0 140
0 0 140
0 0 140
0 0 140
0 0 140
0 0 140
0 0 140
0 0 140
0 0 140
0 0 140
0 0 140
0 0 140
0 0 140
0 0 140
0 0 140
0 0 140
0 0 140
0 0 140
0 0 140
0 0 140
0 0 140
0 0 140
0 0 140
0 0 140
0 0 140
0 0 140
0 0 140
0 0 140
0 0 140
0 0 140
0 0 140
0 0 140
0 0 140
0 0 140
0 0 140
0 0 140
0 0 140
0 0 140
0 0 140
0 0 140
0 0 140
0 0 140
0 0 140
0 0 140
0 0 140
0 0 140
0 0 140
0 0 140
0 0 140
0 0 140
0 0 140
0 0 140
0 0 140
0 0 140
0 0 140
0 0 140
0 0 140
0 0 140
0 0 140
0 0 140
0 0 140
0 0 140
0 0 140
0 0 140
0 0 140
0 0 140
0 0 140
0 0 140
0 0 140
0 0 140
0 0 140
0 0 140
0 0 140
0 0 140
0 0 140
0 0 140
0 0 140
0 0 140
0 0 140
0 0 140
0 0 140
0 0 140
0 0 140
0 0 140
0 0 140
0 0 138
0 0 126
0 0 123
0 0 110
0 0 100
0 0 89
0 0 79
0 0 46
0 0 48
0 0 19
0 0 0
0 0 0
0 0 0
0 0 0
0 0 0
0 0 0
0 0 0
0 0 0
0 0 0
0 0 0
0 0 0
0 0 0
0 0 0
0 0 0
0 0 0
0 0 0
0 0 0
0 0 0
0 0 0
0 0 0
0 0 0
0 0 0
0 0 0
0 0 0
0 0 0
0 0 0
0 0 0
0 0 0
0 0 0
0 0 0
0 0 0
0 0 0
0 0 0
0 0 0
0 0 0
0 0 0
0 0 0
0 0 0
0 0 0
0 0 0
0 0 0
0 0 0
0 0 0
0 0 0
0 0 0
0 0 0
0 0 0
0 0 0
0 0 0
0 0 0
0 0 0
0 0 0
0 0 0
0 0 0
0 0 0
0 0 0
0 0 0
0 0 0
0 0 0
0 0 0
0 0 0
0 0 0
0 0 0
0 0 0
0 0 0
0 0 0
0 0 0
0 0 0
0 0 19
0 0 52
0 0 64
0 0 81
0 0 97
0 0 106
0 0 126
0 0 121
0 0 129
0 0 133
0 0 140
0 0 140
0 0 140
0 0 140
0 0 140
0 0 140
0 0 140
0 0 140
0 0 140
0 0 140
0 0 140
0 0 140
0 0 140
0 0 140
0 0 140
0 0 140
0 0 140
0 0 140
0 0 140
0 0 140
0 0 140
0 0 140
0 0 140
0 0 140
0 0 140
0 0 140
0 0 140
0 0 140
0 0 140
0 0 140
0 0 140
0 0 140
0 0 140
0 0 140
0 0 140
0 0 140
0 0 140
0 0 140
0 0 140
0 0 140
0 0 140
0 0 140
0 0 140
0 0 140
0 0 140
0 0 140
0 0 140
0 0 140
0 0 140
0 0 140
0 0 140
0 0 140
0 0 140
0 0 140
0 0 140
0 0 140
0 0 140
0 0 140
0 0 140
0 0 140
0 0 140
0 0 140
0 0 140
0 0 140
0 0 140
0 0 140
0 0 140
0 0 140
0 0 140
0 0 140
0 0 140
0 0 140
0 0 140
0 0 140
0 0 140
0 0 140
0 0 140
0 0 140
0 0 140
0 0 140
0 0 140
0 0 140
0 0 140
0 0 140
0 0 140
0 0 140
0 0 140
0 0 140
0 0 140
0 0 140
0 0 140
0 0 140
0 0 140
0 0 140
0 0 140
0 0 140
0 0 140
0 0 140
0 0 140
0 0 140
0 0 140
0 0 140
0 0 140
0 0 140
0 0 140
0 0 140
0 0 140
0 0 140
0 0 140
0 0 140
0 0 140
0 0 140
0 0 140
0 0 140
0 0 140
0 0 140
0 0 140
0 0 140
0 0 140
0 0 140
0 0 140
0 0 140
0 0 140
0 0 140
0 0 140
0 0 140
0 0 140
0 0 140
0 0 140
0 0 140
0 0 140
0 0 140
0 0 140
0 0 140
0 0 140
0 0 140
0 0 140
0 0 140
0 0 140
0 0 140
0 0 140
0 0 140
0 0 140
0 0 140
0 0 140
0 0 140
0 0 140
0 0 140
0 0 140
0 0 140
0 0 140
0 0 140
0 0 140
0 0 140
0 0 140
0 0 140
0 0 140
0 0 140
0 0 140
0 0 140
0 0 140
0 0 140
0 0 140
0 0 140
0 0 140
0 0 140
0 0 140
0 0 140
0 0 140
0 0 140
0 0 140
0 0 140
0 0 140
0 0 140
0 0 140
0 0 140
0 0 140
0 0 140
0 0 140
0 0 140
0 0 140
0 0 140
0 0 140
0 0 140
0 0 140
0 0 140
0 0 140
0 0 140
0 0 140
0 0 140
0 0 140
0 0 140
0 0 140
0 0 140
0 0 140
0 0 140
0 0 140
0 0 140
0 0 140
0 0 140
0 0 140
0 0 140
0 0 140
0 0 140
0 0 140
0 0 140
0 0 140
0 0 140
0 0 140
0 0 140
0 0 140
0 0 140
0 0 140
0 0 140
0 0 140
0 0 140
0 0 140
0 0 140
0 0 140
0 0 140
0 0 140
0 0 140
0 0 140
0 0 140
0 0 140
0 0 140
0 0 140
0 0 140
0 0 140
0 0 140
0 0 140
0 0 140
0 0 140
0 0 140
0 0 140
0 0 140
0 0 140
0 0 140
0 0 140
0 0 140
0 0 140
0 0 140
0 0 140
0 0 140
0 0 140
0 0 140
0 0 140
0 0 140
0 0 140
0 0 140
0 0 140
0 0 140
0 0 140
0 0 140
0 0 140
0 0 140
0 0 140
0 0 140
0 0 140
0 0 140
0 0 140
0 0 140
0 0 140
0 0 140
0 0 140
0 0 140
0 0 140
0 0 140
0 0 140
0 0 140
0 0 140
0 0 140
0 0 140
0 0 140
0 0 140
0 0 140
0 0 140
0 0 140
0 0 140
0 0 140
0 0 140
0 0 140
0 0 140
0 0 140
0 0 140
0 0 140
0 0 140
0 0 140
0 0 140
0 0 140
0 0 140
0 0 140
0 0 140
0 0 140
0 0 140
0 0 140
0 0 140
0 0 140
0 0 140
0 0 140
0 0 140
0 0 140
0 0 140
0 0 140
0 0 140
0 0 140
0 0 140
0 0 140
0 0 140
0 0 140
0 0 139
0 0 138
0 0 133
0 0 123
0 0 121
0 0 90
0 0 100
0 0 82
0 0 64
0 0 48
0 0 31
0 0 0
0 0 0
0 0 0
0 0 0
0 0 0
0 0 0
0 0 0
0 0 0
0 0 0
0 0 0
0 0 0
0 0 0
0 0 0
0 0 0
0 0 0
0 0 0
0 0 0
0 0 0
0 0 0
0 0 0
0 0 0
0 0 0
0 0 0
0 0 0
0 0 0
0 0 0
0 0 0
0 0 0
0 0 0
0 0 0
0 0 0
0 0 0
0 0 0
0 0 0
0 0 0
0 0 0
0 0 0
0 0 0
0 0 0
0 0 0
0 0 0
0 0 0
0 0 0
0 0 0
0 0 0
0 0 0
0 0 0
0 0 0
0 0 0
0 0 0
0 0 0
0 0 0
0 0 0
0 0 0
0 0 0
0 0 0
0 0 0
0 0 0
0 0 0
0 0 0
0 0 0
0 0 0
0 0 0
0 0 0
0 0 0
0 0 0
0 0 0
0 0 0
0 0 0
0 0 0
0 0 31
0 0 56
0 0 74
0 0 75
0 0 84
0 0 109
0 0 118
0 0 123
0 0 132
0 0 138
0 0 140
0 0 140
0 0 140
0 0 140
0 0 140
0 0 140
0 0 140
0 0 140
0 0 140
0 0 140
0 0 140
0 0 140
0 0 140
0 0 140
0 0 140
0 0 140
0 0 140
0 0 140
0 0 140
0 0 140
0 0 140
0 0 140
0 0 140
0 0 140
0 0 140
0 0 140
0 0 140
0 0 140
0 0 140
0 0 140
0 0 140
0 0 140
0 0 140
0 0 140
0 0 140
0 0 140
0 0 140
0 0 140
0 0 140
0 0 140
0 0 140
0 0 140
0 0 140
0 0 140
0 0 140
0 0 140
0 0 140
0 0 140
0 0 140
0 0 140
0 0 140
0 0 140
0 0 140
0 0 140
0 0 140
0 0 140
0 0 140
0 0 140
0 0 140
0 0 140
0 0 140
0 0 140
0 0 140
0 0 140
0 0 140
0 0 140
0 0 140
0 0 140
0 0 140
0 0 140
0 0 140
0 0 140
0 0 140
0 0 140
0 0 140
0 0 140
0 0 140
0 0 140
0 0 140
0 0 140
0 0 140
0 0 140
0 0 140
0 0 140
0 0 140
0 0 140
0 0 140
0 0 140
0 0 140
0 0 140
0 0 140
0 0 140
0 0 140
0 0 140
0 0 140
0 0 140
0 0 140
0 0 140
0 0 140
0 0 140
0 0 140
0 0 140
0 0 140
0 0 140
0 0 140
0 0 140
0 0 140
0 0 140
0 0 140
0 0 140
0 0 140
0 0 140
0 0 140
0 0 140
0 0 140
0 0 140
0 0 140
0 0 140
0 0 140
0 0 140
0 0 140
0 0 140
0 0 140
0 0 140
0 0 140
0 0 140
0 0 140
0 0 140
0 0 140
0 0 140
0 0 140
0 0 140
0 0 140
0 0 140
0 0 140
0 0 140
0 0 140
0 0 140
0 0 140
0 0 140
0 0 140
0 0 140
0 0 140
0 0 140
0 0 140
0 0 140
0 0 140
0 0 140
0 0 140
0 0 140
0 0 140
0 0 140
0 0 140
0 0 140
0 0 140
0 0 140
0 0 140
0 0 140
0 0 140
0 0 140
0 0 140
0 0 140
0 0 140
0 0 140
0 0 140
0 0 140
0 0 140
0 0 140
0 0 140
0 0 140
0 0 140
0 0 140
0 0 140
0 0 140
0 0 140
0 0 140
0 0 140
0 0 140
0 0 140
0 0 140
0 0 140
0 0 140
0 0 140
0 0 140
0 0 140
0 0 140
0 0 140
0 0 140
0 0 140
0 0 140
0 0 140
0 0 140
0 0 140
0 0 140
0 0 140
0 0 140
0 0 140
0 0 140
0 0 140
0 0 140
0 0 140
0 0 140
0 0 140
0 0 140
0 0 140
0 0 140
0 0 140
0 0 140
0 0 140
0 0 140
0 0 140
0 0 140
0 0 140
0 0 140
0 0 140
0 0 140
0 0 140
0 0 140
0 0 140
0 0 140
0 0 140
0 0 140
0 0 140
0 0 140
0 0 140
0 0 140
0 0 140
0 0 140
0 0 140
0 0 140
0 0 140
0 0 140
0 0 140
0 0 140
0 0 140
0 0 140
0 0 140
0 0 140
0 0 140
0 0 140
0 0 140
0 0 140
0 0 140
0 0 140
0 0 140
0 0 140
0 0 140
0 0 140
0 0 140
0 0 140
0 0 140
0 0 140
0 0 140
0 0 140
0 0 140
0 0 140
0 0 140
0 0 140
0 0 140
0 0 140
0 0 140
0 0 140
0 0 140
0 0 140
0 0 140
0 0 140
0 0 140
0 0 140
0 0 140
0 0 140
0 0 140
0 0 140
0 0 140
0 0 140
0 0 140
0 0 140
0 0 140
0 0 140
0 0 140
0 0 140
0 0 140
0 0 140
0 0 140
0 0 140
0 0 140
0 0 140
0 0 140
0 0 140
0 0 140
0 0 140
0 0 140
0 0 140
0 0 140
0 0 140
0 0 140
0 0 140
0 0 140
0 0 140
0 0 140
0 0 140
0 0 140
0 0 140
0 0 140
0 0 140
0 0 140
0 0 140
0 0 140
0 0 140
0 0 140
0 0 136
0 0 131
0 0 123
0 0 103
0 0 107
0 0 94
0 0 90
0 0 74
0 0 52
0 0 42
0 0 0
0 0 0
0 0 0
0 0 0
0 0 0
0 0 0
0 0 0
0 0 0
0 0 0
0 0 0
0 0 0
0 0 0
0 0 0
0 0 0
0 0 0
0 0 0
0 0 0
0 0 0
0 0 0
0 0 0
0 0 0
0 0 0
0 0 0
0 0 0
0 0 0
0 0 0
0 0 0
0 0 0
0 0 0
0 0 0
0 0 0
0 0 0
0 0 0
0 0 0
0 0 0
0 0 0
0 0 0
0 0 0
0 0 0
0 0 0
0 0 0
0 0 0
0 0 0
0 0 0
0 0 0
0 0 0
0 0 0
0 0 0
0 0 0
0 0 0
0 0 0
0 0 0
0 0 0
0 0 0
0 0 0
0 0 0
0 0 0
0 0 0
0 0 0
0 0 0
0 0 0
0 0 0
0 0 0
0 0 0
0 0 0
0 0 0
0 0 0
0 0 0
0 0 0
0 0 0
0 0 0
0 0 0
0 0 34
0 0 54
0 0 75
0 0 91
0 0 94
0 0 103
0 0 114
0 0 126
0 0 130
0 0 137
0 0 140
0 0 140
0 0 140
0 0 140
0 0 140
0 0 140
0 0 140
0 0 140
0 0 140
0 0 140
0 0 140
0 0 140
0 0 140
0 0 140
0 0 140
0 0 140
0 0 140
0 0 140
0 0 140
0 0 140
0 0 140
0 0 140
0 0 140
0 0 140
0 0 140
0 0 140
0 0 140
0 0 140
0 0 140
0 0 140
0 0 140
0 0 140
0 0 140
0 0 140
0 0 140
0 0 140
0 0 140
0 0 140
0 0 140
0 0 140
0 0 140
0 0 140
0 0 140
0 0 140
0 0 140
0 0 140
0 0 140
0 0 140
0 0 140
0 0 140
0 0 140
0 0 140
0 0 140
0 0 140
0 0 140
0 0 140
0 0 140
0 0 140
0 0 140
0 0 140
0 0 140
0 0 140
0 0 140
0 0 140
0 0 140
0 0 140
0 0 140
0 0 140
0 0 140
0 0 140
0 0 140
0 0 140
0 0 140
0 0 140
0 0 140
0 0 140
0 0 140
0 0 140
0 0 140
0 0 140
0 0 140
0 0 140
0 0 140
0 0 140
0 0 140
0 0 140
0 0 140
0 0 140
0 0 140
0 0 140
0 0 140
0 0 140
0 0 140
0 0 140
0 0 140
0 0 140
0 0 140
0 0 140
0 0 140
0 0 140
0 0 140
0 0 140
0 0 140
0 0 140
0 0 140
0 0 140
0 0 140
0 0 140
0 0 140
0 0 140
0 0 140
0 0 140
0 0 140
0 0 140
0 0 140
0 0 140
0 0 140
0 0 140
0 0 140
0 0 140
0 0 140
0 0 140
0 0 140
0 0 140
0 0 140
0 0 140
0 0 140
0 0 140
0 0 140
0 0 140
0 0 140
0 0 140
0 0 140
0 0 140
0 0 140
0 0 140
0 0 140
0 0 140
0 0 140
0 0 140
0 0 140
0 0 140
0 0 140
0 0 140
0 0 140
0 0 140
0 0 140
0 0 140
0 0 140
0 0 140
0 0 140
0 0 140
0 0 140
0 0 140
0 0 140
0 0 140
0 0 140
0 0 140
0 0 140
0 0 140
0 0 140
0 0 140
0 0 140
0 0 140
0 0 140
0 0 140
0 0 140
0 0 140
0 0 140
0 0 140
0 0 140
0 0 140
0 0 140
0 0 140
0 0 140
0 0 140
0 0 140
0 0 140
0 0 140
0 0 140
0 0 140
0 0 140
0 0 140
0 0 140
0 0 140
0 0 140
0 0 140
0 0 140
0 0 140
0 0 140
0 0 140
0 0 140
0 0 140
0 0 140
0 0 140
0 0 140
0 0 140
0 0 140
0 0 140
0 0 140
0 0 140
0 0 140
0 0 140
0 0 140
0 0 140
0 0 140
0 0 140
0 0 140
0 0 140
0 0 140
0 0 140
0 0 140
0 0 140
0 0 140
0 0 140
0 0 140
0 0 140
0 0 140
0 0 140
0 0 140
0 0 140
0 0 140
0 0 140
0 0 140
0 0 140
0 0 140
0 0 140
0 0 140
0 0 140
0 0 140
0 0 140
0 0 140
0 0 140
0 0 140
0 0 140
0 0 140
0 0 140
0 0 140
0 0 140
0 0 140
0 0 140
0 0 140
0 0 140
0 0 140
0 0 140
0 0 140
0 0 140
0 0 140
0 0 140
0 0 140
0 0 140
0 0 140
0 0 140
0 0 140
0 0 140
0 0 140
0 0 140
0 0 140
0 0 140
0 0 140
0 0 140
0 0 140
0 0 140
0 0 140
0 0 140
0 0 140
0 0 140
0 0 140
0 0 140
0 0 140
0 0 140
0 0 140
0 0 140
0 0 140
0 0 140
0 0 140
0 0 140
0 0 140
0 0 140
0 0 140
0 0 140
0 0 140
0 0 140
0 0 140
0 0 140
0 0 140
0 0 140
0 0 140
0 0 140
0 0 140
0 0 140
0 0 140
0 0 140
0 0 140
0 0 140
0 0 140
0 0 140
0 0 140
0 0 140
0 0 140
0 0 140
0 0 140
0 0 140
0 0 140
0 0 140
0 0 140
0 0 140
0 0 135
0 0 133
0 0 118
0 0 115
0 0 109
0 0 99
0 0 91
0 0 74
0 0 64
0 0 46
0 0 0
0 0 0
0 0 0
0 0 0
0 0 0
0 0 0
0 0 0
0 0 0
0 0 0
0 0 0
0 0 0
0 0 0
0 0 0
0 0 0
0 0 0
0 0 0
0 0 0
0 0 0
0 0 0
0 0 0
0 0 0
0 0 0
0 0 0
0 0 0
0 0 0
0 0 0
0 0 0
0 0 0
0 0 0
0 0 0
0 0 0
0 0 0
0 0 0
0 0 0
0 0 0
0 0 0
0 0 0
0 0 0
0 0 0
0 0 0
0 0 0
0 0 0
0 0 0
0 0 0
0 0 0
0 0 0
0 0 0
0 0 0
0 0 0
0 0 0
0 0 0
0 0 0
0 0 0
0 0 0
0 0 0
0 0 0
0 0 0
0 0 0
0 0 0
0 0 0
0 0 0
0 0 0
0 0 0
0 0 0
0 0 0
0 0 0
0 0 0
0 0 0
0 0 0
0 0 0
0 0 0
0 0 0
0 0 0
0 0 0
0 0 31
0 0 67
0 0 74
0 0 95
0 0 97
0 0 103
0 0 118
0 0 119
0 0 133
0 0 139
0 0 140
0 0 140
0 0 140
0 0 140
0 0 140
0 0 140
0 0 140
0 0 140
0 0 140
0 0 140
0 0 140
0 0 140
0 0 140
0 0 140
0 0 140
0 0 140
0 0 140
0 0 140
0 0 140
0 0 140
0 0 140
0 0 140
0 0 140
0 0 140
0 0 140
0 0 140
0 0 140
0 0 140
0 0 140
0 0 140
0 0 140
0 0 140
0 0 140
0 0 140
0 0 140
0 0 140
0 0 140
0 0 140
0 0 140
0 0 140
0 0 140
0 0 140
0 0 140
0 0 140
0 0 140
0 0 140
0 0 140
0 0 140
0 0 140
0 0 140
0 0 140
0 0 140
0 0 140
0 0 140
0 0 140
0 0 140
0 0 140
0 0 140
0 0 140
0 0 140
0 0 140
0 0 140
0 0 140
0 0 140
0 0 140
0 0 140
0 0 140
0 0 140
0 0 140
0 0 140
0 0 140
0 0 140
0 0 140
0 0 140
0 0 140
0 0 140
0 0 140
0 0 140
0 0 140
0 0 140
0 0 140
0 0 140
0 0 140
0 0 140
0 0 140
0 0 140
0 0 140
0 0 140
0 0 140
0 0 140
0 0 140
0 0 140
0 0 140
0 0 140
0 0 140
0 0 140
0 0 140
0 0 140
0 0 140
0 0 140
0 0 140
0 0 140
0 0 140
0 0 140
0 0 140
0 0 140
0 0 140
0 0 140
0 0 140
0 0 140
0 0 140
0 0 140
0 0 140
0 0 140
0 0 140
0 0 140
0 0 140
0 0 140
0 0 140
0 0 140
0 0 140
0 0 140
0 0 140
0 0 140
0 0 140
0 0 140
0 0 140
0 0 140
0 0 140
0 0 140
0 0 140
0 0 140
0 0 140
0 0 140
0 0 140
0 0 140
0 0 140
0 0 140
0 0 140
0 0 140
0 0 140
0 0 140
0 0 140
0 0 140
0 0 140
0 0 140
0 0 140
0 0 140
0 0 140
0 0 140
0 0 140
0 0 140
0 0 140
0 0 140
0 0 140
0 0 140
0 0 140
0 0 140
0 0 140
0 0 140
0 0 140
0 0 140
0 0 140
0 0 140
0 0 140
0 0 140
0 0 140
0 0 140
0 0 140
0 0 140
0 0 140
0 0 140
0 0 140
0 0 140
0 0 140
0 0 140
0 0 140
0 0 140
0 0 140
0 0 140
0 0 140
0 0 140
0 0 140
0 0 140
0 0 140
0 0 140
0 0 140
0 0 140
0 0 140
0 0 140
0 0 140
0 0 140
0 0 140
0 0 140
0 0 140
0 0 140
0 0 140
0 0 140
0 0 140
0 0 140
0 0 140
0 0 140
0 0 140
0 0 140
0 0 140
0 0 140
0 0 140
0 0 140
0 0 140
0 0 140
0 0 140
0 0 140
0 0 140
0 0 140
0 0 140
0 0 140
0 0 140
0 0 140
0 0 140
0 0 140
0 0 140
0 0 140
0 0 140
0 0 140
0 0 140
0 0 140
0 0 140
0 0 140
0 0 140
0 0 140
0 0 140
0 0 140
0 0 140
0 0 140
0 0 140
0 0 140
0 0 140
0 0 140
0 0 140
0 0 140
0 0 140
0 0 140
0 0 140
0 0 140
0 0 140
0 0 140
0 0 140
0 0 140
0 0 140
0 0 140
0 0 140
0 0 140
0 0 140
0 0 140
0 0 140
0 0 140
0 0 140
0 0 140
0 0 140
0 0 140
0 0 140
0 0 140
0 0 140
0 0 140
0 0 140
0 0 140
0 0 140
0 0 140
0 0 140
0 0 140
0 0 140
0 0 140
0 0 140
0 0 140
0 0 140
0 0 140
0 0 140
0 0 140
0 0 140
0 0 140
0 0 140
0 0 140
0 0 140
0 0 140
0 0 140
0 0 140
0 0 140
0 0 140
0 0 140
0 0 140
0 0 140
0 0 140
0 0 140
0 0 140
0 0 140
0 0 140
0 0 140
0 0 140
0 0 140
0 0 140
0 0 140
0 0 140
0 0 140
0 0 140
0 0 140
0 0 137
0 0 135
0 0 127
0 0 116
0 0 106
0 0 94
0 0 94
0 0 80
0 0 70
0 0 50
0 0 0
0 0 0
0 0 0
0 0 0
0 0 0
0 0 0
0 0 0
0 0 0
0 0 0
0 0 0
0 0 0
0 0 0
0 0 0
0 0 0
0 0 0
0 0 0
0 0 0
0 0 0
0 0 0
0 0 0
0 0 0
0 0 0
0 0 0
0 0 0
0 0 0
0 0 0
0 0 0
0 0 0
0 0 0
0 0 0
0 0 0
0 0 0
0 0 0
0 0 0
0 0 0
0 0 0
0 0 0
0 0 0
0 0 0
0 0 0
0 0 0
0 0 0
0 0 0
0 0 0
0 0 0
0 0 0
0 0 0
0 0 0
0 0 0
0 0 0
0 0 0
0 0 0
0 0 0
0 0 0
0 0 0
0 0 0
0 0 0
0 0 0
0 0 0
0 0 0
0 0 0
0 0 0
0 0 0
0 0 0
0 0 0
0 0 0
0 0 0
0 0 0
0 0 0
0 0 0
0 0 0
0 0 0
0 0 0
0 0 0
0 0 0
0 0 19
0 0 46
0 0 65
0 0 79
0 0 93
0 0 102
0 0 103
0 0 119
0 0 131
0 0 136
0 0 134
0 0 140
0 0 140
0 0 140
0 0 140
0 0 140
0 0 140
0 0 140
0 0 140
0 0 140
0 0 140
0 0 140
0 0 140
0 0 140
0 0 140
0 0 140
0 0 140
0 0 140
0 0 140
0 0 140
0 0 140
0 0 140
0 0 140
0 0 140
0 0 140
0 0 140
0 0 140
0 0 140
0 0 140
0 0 140
0 0 140
0 0 140
0 0 140
0 0 140
0 0 140
0 0 140
0 0 140
0 0 140
0 0 140
0 0 140
0 0 140
0 0 140
0 0 140
0 0 140
0 0 140
0 0 140
0 0 140
0 0 140
0 0 140
0 0 140
0 0 140
0 0 140
0 0 140
0 0 140
0 0 140
0 0 140
0 0 140
0 0 140
0 0 140
0 0 140
0 0 140
0 0 140
0 0 140
0 0 140
0 0 140
0 0 140
0 0 140
0 0 140
0 0 140
0 0 140
0 0 140
0 0 140
0 0 140
0 0 140
0 0 140
0 0 140
0 0 140
0 0 140
0 0 140
0 0 140
0 0 140
0 0 140
0 0 140
0 0 140
0 0 140
0 0 140
0 0 140
0 0 140
0 0 140
0 0 140
0 0 140
0 0 140
0 0 140
0 0 140
0 0 140
0 0 140
0 0 140
0 0 140
0 0 140
0 0 140
0 0 140
0 0 140
0 0 140
0 0 140
0 0 140
0 0 140
0 0 140
0 0 140
0 0 140
0 0 140
0 0 140
0 0 140
0 0 140
0 0 140
0 0 140
0 0 140
0 0 140
0 0 140
0 0 140
0 0 140
0 0 140
0 0 140
0 0 140
0 0 140
0 0 140
0 0 140
0 0 140
0 0 140
0 0 140
0 0 140
0 0 140
0 0 140
0 0 140
0 0 140
0 0 140
0 0 140
0 0 140
0 0 140
0 0 140
0 0 140
0 0 140
0 0 140
0 0 140
0 0 140
0 0 140
0 0 140
0 0 140
0 0 140
0 0 140
0 0 140
0 0 140
0 0 140
0 0 140
0 0 140
0 0 140
0 0 140
0 0 140
0 0 140
0 0 140
0 0 140
0 0 140
0 0 140
0 0 140
0 0 140
0 0 140
0 0 140
0 0 140
0 0 140
0 0 140
0 0 140
0 0 140
0 0 140
0 0 140
0 0 140
0 0 140
0 0 140
0 0 140
0 0 140
0 0 140
0 0 140
0 0 140
0 0 140
0 0 140
0 0 140
0 0 140
0 0 140
0 0 140
0 0 140
0 0 140
0 0 140
0 0 140
0 0 140
0 0 140
0 0 140
0 0 140
0 0 140
0 0 140
0 0 140
0 0 140
0 0 140
0 0 140
0 0 140
0 0 140
0 0 140
0 0 140
0 0 140
0 0 140
0 0 140
0 0 140
0 0 140
0 0 140
0 0 140
0 0 140
0 0 140
0 0 140
0 0 140
0 0 140
0 0 140
0 0 140
0 0 140
0 0 140
0 0 140
0 0 140
0 0 140
0 0 140
0 0 140
0 0 140
0 0 140
0 0 140
0 0 140
0 0 140
0 0 140
0 0 140
0 0 140
0 0 140
0 0 140
0 0 140
0 0 140
0 0 140
0 0 140
0 0 140
0 0 140
0 0 140
0 0 140
0 0 140
0 0 140
0 0 140
0 0 140
0 0 140
0 0 140
0 0 140
0 0 140
0 0 140
0 0 140
0 0 140
0 0 140
0 0 140
0 0 140
0 0 140
0 0 140
0 0 140
0 0 140
0 0 140
0 0 140
0 0 140
0 0 140
0 0 140
0 0 140
0 0 140
0 0 140
0 0 140
0 0 140
0 0 140
0 0 140
0 0 140
0 0 140
0 0 140
0 0 140
0 0 140
0 0 140
0 0 140
0 0 140
0 0 140
0 0 140
0 0 140
0 0 140
0 0 140
0 0 140
0 0 140
0 0 140
0 0 140
0 0 140
0 0 140
0 0 140
0 0 140
0 0 140
0 0 140
0 0 140
0 0 140
0 0 140
0 0 140
0 0 140
0 0 140
0 0 140
0 0 140
0 0 133
0 0 129
0 0 126
0 0 105
0 0 109
0 0 100
0 0 71
0 0 76
0 0 65
0 0 24
0 0 0
0 0 0
0 0 0
0 0 0
0 0 0
0 0 0
0 0 0
0 0 0
0 0 0
0 0 0
0 0 0
0 0 0
0 0 0
0 0 0
0 0 0
0 0 0
0 0 0
0 0 0
0 0 0
0 0 0
0 0 0
0 0 0
0 0 0
0 0 0
0 0 0
0 0 0
0 0 0
0 0 0
0 0 0
0 0 0
0 0 0
0 0 0
0 0 0
0 0 0
0 0 0
0 0 0
0 0 0
0 0 0
0 0 0
0 0 0
0 0 0
0 0 0
0 0 0
0 0 0
0 0 0
0 0 0
0 0 0
0 0 0
0 0 0
0 0 0
0 0 0
0 0 0
0 0 0
0 0 0
0 0 0
0 0 0
0 0 0
0 0 0
0 0 0
0 0 0
0 0 0
0 0 0
0 0 0
0 0 0
0 0 0
0 0 0
0 0 0
0 0 0
0 0 0
0 0 0
0 0 0
0 0 0
0 0 0
0 0 0
0 0 0
0 0 0
0 0 31
0 0 54
0 0 72
0 0 82
0 0 88
0 0 109
0 0 116
0 0 117
0 0 130
0 0 135
0 0 140
0 0 140
0 0 140
0 0 140
0 0 140
0 0 140
0 0 140
0 0 140
0 0 140
0 0 140
0 0 140
0 0 140
0 0 140
0 0 140
0 0 140
0 0 140
0 0 140
0 0 140
0 0 140
0 0 140
0 0 140
0 0 140
0 0 140
0 0 140
0 0 140
0 0 140
0 0 140
0 0 140
0 0 140
0 0 140
0 0 140
0 0 140
0 0 140
0 0 140
0 0 140
0 0 140
0 0 140
0 0 140
0 0 140
0 0 140
0 0 140
0 0 140
0 0 140
0 0 140
0 0 140
0 0 140
0 0 140
0 0 140
0 0 140
0 0 140
0 0 140
0 0 140
0 0 140
0 0 140
0 0 140
0 0 140
0 0 140
0 0 140
0 0 140
0 0 140
0 0 140
0 0 140
0 0 140
0 0 140
0 0 140
0 0 140
0 0 140
0 0 140
0 0 140
0 0 140
0 0 140
0 0 140
0 0 140
0 0 140
0 0 140
0 0 140
0 0 140
0 0 140
0 0 140
0 0 140
0 0 140
0 0 140
0 0 140
0 0 140
0 0 140
0 0 140
0 0 140
0 0 140
0 0 140
0 0 140
0 0 140
0 0 140
0 0 140
0 0 140
0 0 140
0 0 140
0 0 140
0 0 140
0 0 140
0 0 140
0 0 140
0 0 140
0 0 140
0 0 140
0 0 140
0 0 140
0 0 140
0 0 140
0 0 140
0 0 140
0 0 140
0 0 140
0 0 140
0 0 140
0 0 140
0 0 140
0 0 140
0 0 140
0 0 140
0 0 140
0 0 140
0 0 140
0 0 140
0 0 140
0 0 140
0 0 140
0 0 140
0 0 140
0 0 140
0 0 140
0 0 140
0 0 140
0 0 140
0 0 140
0 0 140
0 0 140
0 0 140
0 0 140
0 0 140
0 0 140
0 0 140
0 0 140
0 0 140
0 0 140
0 0 140
0 0 140
0 0 140
0 0 140
0 0 140
0 0 140
0 0 140
0 0 140
0 0 140
0 0 140
0 0 140
0 0 140
0 0 140
0 0 140
0 0 140
0 0 140
0 0 140
0 0 140
0 0 140
0 0 140
0 0 140
0 0 140
0 0 140
0 0 140
0 0 140
0 0 140
0 0 140
0 0 140
0 0 140
0 0 140
0 0 140
0 0 140
0 0 140
0 0 140
0 0 140
0 0 140
0 0 140
0 0 140
0 0 140
0 0 140
0 0 140
0 0 140
0 0 140
0 0 140
0 0 140
0 0 140
0 0 140
0 0 140
0 0 140
0 0 140
0 0 140
0 0 140
0 0 140
0 0 140
0 0 140
0 0 140
0 0 140
0 0 140
0 0 140
0 0 140
0 0 140
0 0 140
0 0 140
0 0 140
0 0 140
0 0 140
0 0 140
0 0 140
0 0 140
0 0 140
0 0 140
0 0 140
0 0 140
0 0 140
0 0 140
0 0 140
0 0 140
0 0 140
0 0 140
0 0 140
0 0 140
0 0 140
0 0 140
0 0 140
0 0 140
0 0 140
0 0 140
0 0 140
0 0 140
0 0 140
0 0 140
0 0 140
0 0 140
0 0 140
0 0 140
0 0 140
0 0 140
0 0 140
0 0 140
0 0 140
0 0 140
0 0 140
0 0 140
0 0 140
0 0 140
0 0 140
0 0 140
0 0 140
0 0 140
0 0 140
0 0 140
0 0 140
0 0 140
0 0 140
0 0 140
0 0 140
0 0 140
0 0 140
0 0 140
0 0 140
0 0 140
0 0 140
0 0 140
0 0 140
0 0 140
0 0 140
0 0 140
0 0 140
0 0 140
0 0 140
0 0 140
0 0 140
0 0 140
0 0 140
0 0 140
0 0 140
0 0 140
0 0 140
0 0 140
0 0 140
0 0 140
0 0 140
0 0 140
0 0 140
0 0 140
0 0 140
0 0 140
0 0 140
0 0 140
0 0 140
0 0 140
0 0 140
0 0 140
0 0 140
0 0 140
0 0 140
0 0 140
0 0 140
0 0 140
0 0 135
0 0 130
0 0 124
0 0 116
0 0 106
0 0 95
0 0 90
0 0 79
0 0 59
0 0 28
0 0 0
0 0 0
0 0 0
0 0 0
0 0 0
0 0 0
0 0 0
0 0 0
0 0 0
0 0 0
0 0 0
0 0 0
0 0 0
0 0 0
0 0 0
0 0 0
0 0 0
0 0 0
0 0 0
0 0 0
0 0 0
0 0 0
0 0 0
0 0 0
0 0 0
0 0 0
0 0 0
0 0 0
0 0 0
0 0 0
0 0 0
0 0 0
0 0 0
0 0 0
0 0 0
0 0 0
0 0 0
0 0 0
0 0 0
0 0 0
0 0 0
0 0 0
0 0 0
0 0 0
0 0 0
0 0 0
0 0 0
0 0 0
0 0 0
0 0 0
0 0 0
0 0 0
0 0 0
0 0 0
0 0 0
0 0 0
0 0 0
0 0 0
0 0 0
0 0 0
0 0 0
0 0 0
0 0 0
0 0 0
0 0 0
0 0 0
0 0 0
0 0 0
0 0 0
0 0 0
0 0 0
0 0 0
0 0 0
0 0 0
0 0 0
0 0 0
0 0 0
0 0 14
0 0 39
0 0 61
0 0 72
0 0 86
0 0 97
0 0 112
0 0 113
0 0 126
0 0 132
0 0 134
0 0 140
0 0 140
0 0 140
0 0 140
0 0 140
0 0 140
0 0 140
0 0 140
0 0 140
0 0 140
0 0 140
0 0 140
0 0 140
0 0 140
0 0 140
0 0 140
0 0 140
0 0 140
0 0 140
0 0 140
0 0 140
0 0 140
0 0 140
0 0 140
0 0 140
0 0 140
0 0 140
0 0 140
0 0 140
0 0 140
0 0 140
0 0 140
0 0 140
0 0 140
0 0 140
0 0 140
0 0 140
0 0 140
0 0 140
0 0 140
0 0 140
0 0 140
0 0 140
0 0 140
0 0 140
0 0 140
0 0 140
0 0 140
0 0 140
0 0 140
0 0 140
0 0 140
0 0 140
0 0 140
0 0 140
0 0 140
0 0 140
0 0 140
0 0 140
0 0 140
0 0 140
0 0 140
0 0 140
0 0 140
0 0 140
0 0 140
0 0 140
0 0 140
0 0 140
0 0 140
0 0 140
0 0 140
0 0 140
0 0 140
0 0 140
0 0 140
0 0 140
0 0 140
0 0 140
0 0 140
0 0 140
0 0 140
0 0 140
0 0 140
0 0 140
0 0 140
0 0 140
0 0 140
0 0 140
0 0 140
0 0 140
0 0 140
0 0 140
0 0 140
0 0 140
0 0 140
0 0 140
0 0 140
0 0 140
0 0 140
0 0 140
0 0 140
0 0 140
0 0 140
0 0 140
0 0 140
0 0 140
0 0 140
0 0 140
0 0 140
0 0 140
0 0 140
0 0 140
0 0 140
0 0 140
0 0 140
0 0 140
0 0 140
0 0 140
0 0 140
0 0 140
0 0 140
0 0 140
0 0 140
0 0 140
0 0 140
0 0 140
0 0 140
0 0 140
0 0 140
0 0 140
0 0 140
0 0 140
0 0 140
0 0 140
0 0 140
0 0 140
0 0 140
0 0 140
0 0 140
0 0 140
0 0 140
0 0 140
0 0 140
0 0 140
0 0 140
0 0 140
0 0 140
0 0 140
0 0 140
0 0 140
0 0 140
0 0 140
0 0 140
0 0 140
0 0 140
0 0 140
0 0 140
0 0 140
0 0 140
0 0 140
0 0 140
0 0 140
0 0 140
0 0 140
0 0 140
0 0 140
0 0 140
0 0 140
0 0 140
0 0 140
0 0 140
0 0 140
0 0 140
0 0 140
0 0 140
0 0 140
0 0 140
0 0 140
0 0 140
0 0 140
0 0 140
0 0 140
0 0 140
0 0 140
0 0 140
0 0 140
0 0 140
0 0 140
0 0 140
0 0 140
0 0 140
0 0 140
0 0 140
0 0 140
0 0 140
0 0 140
0 0 140
0 0 140
0 0 140
0 0 140
0 0 140
0 0 140
0 0 140
0 0 140
0 0 140
0 0 140
0 0 140
0 0 140
0 0 140
0 0 140
0 0 140
0 0 140
0 0 140
0 0 140
0 0 140
0 0 140
0 0 140
0 0 140
0 0 140
0 0 140
0 0 140
0 0 140
0 0 140
0 0 140
0 0 140
0 0 140
0 0 140
0 0 140
0 0 140
0 0 140
0 0 140
0 0 140
0 0 140
0 0 140
0 0 140
0 0 140
0 0 140
0 0 140
0 0 140
0 0 140
0 0 140
0 0 140
0 0 140
0 0 140
0 0 140
0 0 140
0 0 140
0 0 140
0 0 140
0 0 140
0 0 140
0 0 140
0 0 140
0 0 140
0 0 140
0 0 140
0 0 140
0 0 140
0 0 140
0 0 140
0 0 140
0 0 140
0 0 140
0 0 140
0 0 140
0 0 140
0 0 140
0 0 140
0 0 140
0 0 140
0 0 140
0 0 140
0 0 140
0 0 140
0 0 140
0 0 140
0 0 140
0 0 140
0 0 140
0 0 140
0 0 140
0 0 140
0 0 140
0 0 140
0 0 140
0 0 140
0 0 140
0 0 140
0 0 140
0 0 140
0 0 140
0 0 140
0 0 140
0 0 140
0 0 140
0 0 140
0 0 140
0 0 140
0 0 140
0 0 140
0 0 138
0 0 131
0 0 123
0 0 117
0 0 102
0 0 97
0 0 90
0 0 76
0 0 65
0 0 39
0 0 19
0 0 0
0 0 0
0 0 0
0 0 0
0 0 0
0 0 0
0 0 0
0 0 0
0 0 0
0 0 0
0 0 0
0 0 0
0 0 0
0 0 0
0 0 0
0 0 0
0 0 0
0 0 0
0 0 0
0 0 0
0 0 0
0 0 0
0 0 0
0 0 0
0 0 0
0 0 0
0 0 0
0 0 0
0 0 0
0 0 0
0 0 0
0 0 0
0 0 0
0 0 0
0 0 0
0 0 0
0 0 0
0 0 0
0 0 0
0 0 0
0 0 0
0 0 0
0 0 0
0 0 0
0 0 0
0 0 0
0 0 0
0 0 0
0 0 0
0 0 0
0 0 0
0 0 0
0 0 0
0 0 0
0 0 0
0 0 0
0 0 0
0 0 0
0 0 0
0 0 0
0 0 0
0 0 0
0 0 0
0 0 0
0 0 0
0 0 0
0 0 0
0 0 0
0 0 0
0 0 0
0 0 0
0 0 0
0 0 0
0 0 0
0 0 0
0 0 0
0 0 0
0 0 0
0 0 14
0 0 54
0 0 64
0 0 82
0 0 82
0 0 99
0 0 113
0 0 117
0 0 123
0 0 132
0 0 139
0 0 140
0 0 140
0 0 140
0 0 140
0 0 140
0 0 140
0 0 140
0 0 140
0 0 140
0 0 140
0 0 140
0 0 140
0 0 140
0 0 140
0 0 140
0 0 140
0 0 140
0 0 140
0 0 140
0 0 140
0 0 140
0 0 140
0 0 140
0 0 140
0 0 140
0 0 140
0 0 140
0 0 140
0 0 140
0 0 140
0 0 140
0 0 140
0 0 140
0 0 140
0 0 140
0 0 140
0 0 140
0 0 140
0 0 140
0 0 140
0 0 140
0 0 140
0 0 140
0 0 140
0 0 140
0 0 140
0 0 140
0 0 140
0 0 140
0 0 140
0 0 140
0 0 140
0 0 140
0 0 140
0 0 140
0 0 140
0 0 140
0 0 140
0 0 140
0 0 140
0 0 140
0 0 140
0 0 140
0 0 140
0 0 140
0 0 140
0 0 140
0 0 140
0 0 140
0 0 140
0 0 140
0 0 140
0 0 140
0 0 140
0 0 140
0 0 140
0 0 140
0 0 140
0 0 140
0 0 140
0 0 140
0 0 140
0 0 140
0 0 140
0 0 140
0 0 140
0 0 140
0 0 140
0 0 140
0 0 140
0 0 140
0 0 140
0 0 140
0 0 140
0 0 140
0 0 140
0 0 140
0 0 140
0 0 140
0 0 140
0 0 140
0 0 140
0 0 140
0 0 140
0 0 140
0 0 140
0 0 140
0 0 140
0 0 140
0 0 140
0 0 140
0 0 140
0 0 140
0 0 140
0 0 140
0 0 140
0 0 140
0 0 140
0 0 140
0 0 140
0 0 140
0 0 140
0 0 140
0 0 140
0 0 140
0 0 140
0 0 140
0 0 140
0 0 140
0 0 140
0 0 140
0 0 140
0 0 140
0 0 140
0 0 140
0 0 140
0 0 140
0 0 140
0 0 140
0 0 140
0 0 140
0 0 140
0 0 140
0 0 140
0 0 140
0 0 140
0 0 140
0 0 140
0 0 140
0 0 140
0 0 140
0 0 140
0 0 140
0 0 140
0 0 140
0 0 140
0 0 140
0 0 140
0 0 140
0 0 140
0 0 140
0 0 140
0 0 140
0 0 140
0 0 140
0 0 140
0 0 140
0 0 140
0 0 140
0 0 140
0 0 140
0 0 140
0 0 140
0 0 140
0 0 140
0 0 140
0 0 140
0 0 140
0 0 140
0 0 140
0 0 140
0 0 140
0 0 140
0 0 140
0 0 140
0 0 140
0 0 140
0 0 140
0 0 140
0 0 140
0 0 140
0 0 140
0 0 140
0 0 140
0 0 140
0 0 140
0 0 140
0 0 140
0 0 140
0 0 140
0 0 140
0 0 140
0 0 140
0 0 140
0 0 140
0 0 140
0 0 140
0 0 140
0 0 140
0 0 140
0 0 140
0 0 140
0 0 140
0 0 140
0 0 140
0 0 140
0 0 140
0 0 140
0 0 140
0 0 140
0 0 140
0 0 140
0 0 140
0 0 140
0 0 140
0 0 140
0 0 140
0 0 140
0 0 140
0 0 140
0 0 140
0 0 140
0 0 140
0 0 140
0 0 140
0 0 140
0 0 140
0 0 140
0 0 140
0 0 140
0 0 140
0 0 140
0 0 140
0 0 140
0 0 140
0 0 140
0 0 140
0 0 140
0 0 140
0 0 140
0 0 140
0 0 140
0 0 140
0 0 140
0 0 140
0 0 140
0 0 140
0 0 140
0 0 140
0 0 140
0 0 140
0 0 140
0 0 140
0 0 140
0 0 140
0 0 140
0 0 140
0 0 140
0 0 140
0 0 140
0 0 140
0 0 140
0 0 140
0 0 140
0 0 140
0 0 140
0 0 140
0 0 140
0 0 140
0 0 140
0 0 140
0 0 140
0 0 140
0 0 140
0 0 140
0 0 140
0 0 140
0 0 140
0 0 140
0 0 140
0 0 140
0 0 140
0 0 140
0 0 140
0 0 140
0 0 140
0 0 140
0 0 140
0 0 140
0 0 138
0 0 134
0 0 127
0 0 119
0 0 118
0 0 102
0 0 82
0 0 90
0 0 67
0 0 52
0 0 31
0 0 0
0 0 0
0 0 0
0 0 0
0 0 0
0 0 0
0 0 0
0 0 0
0 0 0
0 0 0
0 0 0
0 0 0
0 0 0
0 0 0
0 0 0
0 0 0
0 0 0
0 0 0
0 0 0
0 0 0
0 0 0
0 0 0
0 0 0
0 0 0
0 0 0
0 0 0
0 0 0
0 0 0
0 0 0
0 0 0
0 0 0
0 0 0
0 0 0
0 0 0
0 0 0
0 0 0
0 0 0
0 0 0
0 0 0
0 0 0
0 0 0
0 0 0
0 0 0
0 0 0
0 0 0
0 0 0
0 0 0
0 0 0
0 0 0
0 0 0
0 0 0
0 0 0
0 0 0
0 0 0
0 0 0
0 0 0
0 0 0
0 0 0
0 0 0
0 0 0
0 0 0
0 0 0
0 0 0
0 0 0
0 0 0
0 0 0
0 0 0
0 0 0
0 0 0
0 0 0
0 0 0
0 0 0
0 0 0
0 0 0
0 0 0
0 0 0
0 0 0
0 0 0
0 0 0
0 0 0
0 0 31
0 0 57
0 0 64
0 0 79
0 0 94
0 0 105
0 0 108
0 0 120
0 0 122
0 0 130
0 0 135
0 0 140
0 0 140
0 0 140
0 0 140
0 0 140
0 0 140
0 0 140
0 0 140
0 0 140
0 0 140
0 0 140
0 0 140
0 0 140
0 0 140
0 0 140
0 0 140
0 0 140
0 0 140
0 0 140
0 0 140
0 0 140
0 0 140
0 0 140
0 0 140
0 0 140
0 0 140
0 0 140
0 0 140
0 0 140
0 0 140
0 0 140
0 0 140
0 0 140
0 0 140
0 0 140
0 0 140
0 0 140
0 0 140
0 0 140
0 0 140
0 0 140
0 0 140
0 0 140
0 0 140
0 0 140
0 0 140
0 0 140
0 0 140
0 0 140
0 0 140
0 0 140
0 0 140
0 0 140
0 0 140
0 0 140
0 0 140
0 0 140
0 0 140
0 0 140
0 0 140
0 0 140
0 0 140
0 0 140
0 0 140
0 0 140
0 0 140
0 0 140
0 0 140
0 0 140
0 0 140
0 0 140
0 0 140
0 0 140
0 0 140
0 0 140
0 0 140
0 0 140
0 0 140
0 0 140
0 0 140
0 0 140
0 0 140
0 0 140
0 0 140
0 0 140
0 0 140
0 0 140
0 0 140
0 0 140
0 0 140
0 0 140
0 0 140
0 0 140
0 0 140
0 0 140
0 0 140
0 0 140
0 0 140
0 0 140
0 0 140
0 0 140
0 0 140
0 0 140
0 0 140
0 0 140
0 0 140
0 0 140
0 0 140
0 0 140
0 0 140
0 0 140
0 0 140
0 0 140
0 0 140
0 0 140
0 0 140
0 0 140
0 0 140
0 0 140
0 0 140
0 0 140
0 0 140
0 0 140
0 0 140
0 0 140
0 0 140
0 0 140
0 0 140
0 0 140
0 0 140
0 0 140
0 0 140
0 0 140
0 0 140
0 0 140
0 0 140
0 0 140
0 0 140
0 0 140
0 0 140
0 0 140
0 0 140
0 0 140
0 0 140
0 0 140
0 0 140
0 0 140
0 0 140
0 0 140
0 0 140
0 0 140
0 0 140
0 0 140
0 0 140
0 0 140
0 0 140
0 0 140
0 0 140
0 0 140
0 0 140
0 0 140
0 0 140
0 0 140
0 0 140
0 0 140
0 0 140
0 0 140
0 0 140
0 0 140
0 0 140
0 0 140
0 0 140
0 0 140
0 0 140
0 0 140
0 0 140
0 0 140
0 0 140
0 0 140
0 0 140
0 0 140
0 0 140
0 0 140
0 0 140
0 0 140
0 0 140
0 0 140
0 0 140
0 0 140
0 0 140
0 0 140
0 0 140
0 0 140
0 0 140
0 0 140
0 0 140
0 0 140
0 0 140
0 0 140
0 0 140
0 0 140
0 0 140
0 0 140
0 0 140
0 0 140
0 0 140
0 0 140
0 0 140
0 0 140
0 0 140
0 0 140
0 0 140
0 0 140
0 0 140
0 0 140
0 0 140
0 0 140
0 0 140
0 0 140
0 0 140
0 0 140
0 0 140
0 0 140
0 0 140
0 0 140
0 0 140
0 0 140
0 0 140
0 0 140
0 0 140
0 0 140
0 0 140
0 0 140
0 0 140
0 0 140
0 0 140
0 0 140
0 0 140
0 0 140
0 0 140
0 0 140
0 0 140
0 0 140
0 0 140
0 0 140
0 0 140
0 0 140
0 0 140
0 0 140
0 0 140
0 0 140
0 0 140
0 0 140
0 0 140
0 0 140
0 0 140
0 0 140
0 0 140
0 0 140
0 0 140
0 0 140
0 0 140
0 0 140
0 0 140
0 0 140
0 0 140
0 0 140
0 0 140
0 0 140
0 0 140
0 0 140
0 0 140
0 0 140
0 0 140
0 0 140
0 0 140
0 0 140
0 0 140
0 0 140
0 0 140
0 0 140
0 0 140
0 0 140
0 0 140
0 0 140
0 0 140
0 0 140
0 0 140
0 0 140
0 0 140
0 0 140
0 0 140
0 0 140
0 0 140
0 0 140
0 0 140
0 0 140
0 0 140
0 0 135
0 0 123
0 0 121
0 0 115
0 0 106
0 0 95
0 0 79
0 0 75
0 0 65
0 0 44
0 0 19
0 0 0
0 0 0
0 0 0
0 0 0
0 0 0
0 0 0
0 0 0
0 0 0
0 0 0
0 0 0
0 0 0
0 0 0
0 0 0
0 0 0
0 0 0
0 0 0
0 0 0
0 0 0
0 0 0
0 0 0
0 0 0
0 0 0
0 0 0
0 0 0
0 0 0
0 0 0
0 0 0
0 0 0
0 0 0
0 0 0
0 0 0
0 0 0
0 0 0
0 0 0
0 0 0
0 0 0
0 0 0
0 0 0
0 0 0
0 0 0
0 0 0
0 0 0
0 0 0
0 0 0
0 0 0
0 0 0
0 0 0
0 0 0
0 0 0
0 0 0
0 0 0
0 0 0
0 0 0
0 0 0
0 0 0
0 0 0
0 0 0
0 0 0
0 0 0
0 0 0
0 0 0
0 0 0
0 0 0
0 0 0
0 0 0
0 0 0
0 0 0
0 0 0
0 0 0
0 0 0
0 0 0
0 0 0
0 0 0
0 0 0
0 0 0
0 0 0
0 0 0
0 0 0
0 0 0
0 0 0
0 0 0
0 0 52
0 0 57
0 0 75
0 0 82
0 0 103
0 0 114
0 0 110
0 0 126
0 0 128
0 0 133
0 0 139
0 0 140
0 0 140
0 0 140
0 0 140
0 0 140
0 0 140
0 0 140
0 0 140
0 0 140
0 0 140
0 0 140
0 0 140
0 0 140
0 0 140
0 0 140
0 0 140
0 0 140
0 0 140
0 0 140
0 0 140
0 0 140
0 0 140
0 0 140
0 0 140
0 0 140
0 0 140
0 0 140
0 0 140
0 0 140
0 0 140
0 0 140
0 0 140
0 0 140
0 0 140
0 0 140
0 0 140
0 0 140
0 0 140
0 0 140
0 0 140
0 0 140
0 0 140
0 0 140
0 0 140
0 0 140
0 0 140
0 0 140
0 0 140
0 0 140
0 0 140
0 0 140
0 0 140
0 0 140
0 0 140
0 0 140
0 0 140
0 0 140
0 0 140
0 0 140
0 0 140
0 0 140
0 0 140
0 0 140
0 0 140
0 0 140
0 0 140
0 0 140
0 0 140
0 0 140
0 0 140
0 0 140
0 0 140
0 0 140
0 0 140
0 0 140
0 0 140
0 0 140
0 0 140
0 0 140
0 0 140
0 0 140
0 0 140
0 0 140
0 0 140
0 0 140
0 0 140
0 0 140
0 0 140
0 0 140
0 0 140
0 0 140
0 0 140
0 0 140
0 0 140
0 0 140
0 0 140
0 0 140
0 0 140
0 0 140
0 0 140
0 0 140
0 0 140
0 0 140
0 0 140
0 0 140
0 0 140
0 0 140
0 0 140
0 0 140
0 0 140
0 0 140
0 0 140
0 0 140
0 0 140
0 0 140
0 0 140
0 0 140
0 0 140
0 0 140
0 0 140
0 0 140
0 0 140
0 0 140
0 0 140
0 0 140
0 0 140
0 0 140
0 0 140
0 0 140
0 0 140
0 0 140
0 0 140
0 0 140
0 0 140
0 0 140
0 0 140
0 0 140
0 0 140
0 0 140
0 0 140
0 0 140
0 0 140
0 0 140
0 0 140
0 0 140
0 0 140
0 0 140
0 0 140
0 0 140
0 0 140
0 0 140
0 0 140
0 0 140
0 0 140
0 0 140
0 0 140
0 0 140
0 0 140
0 0 140
0 0 140
0 0 140
0 0 140
0 0 140
0 0 140
0 0 140
0 0 140
0 0 140
0 0 140
0 0 140
0 0 140
0 0 140
0 0 140
0 0 140
0 0 140
0 0 140
0 0 140
0 0 140
0 0 140
0 0 140
0 0 140
0 0 140
0 0 140
0 0 140
0 0 140
0 0 140
0 0 140
0 0 140
0 0 140
0 0 140
0 0 140
0 0 140
0 0 140
0 0 140
0 0 140
0 0 140
0 0 140
0 0 140
0 0 140
0 0 140
0 0 140
0 0 140
0 0 140
0 0 140
0 0 140
0 0 140
0 0 140
0 0 140
0 0 140
0 0 140
0 0 140
0 0 140
0 0 140
0 0 140
0 0 140
0 0 140
0 0 140
0 0 140
0 0 140
0 0 140
0 0 140
0 0 140
0 0 140
0 0 140
0 0 140
0 0 140
0 0 140
0 0 140
0 0 140
0 0 140
0 0 140
0 0 140
0 0 140
0 0 140
0 0 140
0 0 140
0 0 140
0 0 140
0 0 140
0 0 140
0 0 140
0 0 140
0 0 140
0 0 140
0 0 140
0 0 140
0 0 140
0 0 140
0 0 140
0 0 140
0 0 140
0 0 140
0 0 140
0 0 140
0 0 140
0 0 140
0 0 140
0 0 140
0 0 140
0 0 140
0 0 140
0 0 140
0 0 140
0 0 140
0 0 140
0 0 140
0 0 140
0 0 140
0 0 140
0 0 140
0 0 140
0 0 140
0 0 140
0 0 140
0 0 140
0 0 140
0 0 140
0 0 140
0 0 140
0 0 140
0 0 140
0 0 140
0 0 140
0 0 140
0 0 140
0 0 140
0 0 140
0 0 140
0 0 140
0 0 140
0 0 140
0 0 140
0 0 140
0 0 140
0 0 140
0 0 140
0 0 140
0 0 134
0 0 127
0 0 128
0 0 120
0 0 113
0 0 103
0 0 86
0 0 84
0 0 68
0 0 54
0 0 24
0 0 0
0 0 0
0 0 0
0 0 0
0 0 0
0 0 0
0 0 0
0 0 0
0 0 0
0 0 0
0 0 0
0 0 0
0 0 0
0 0 0
0 0 0
0 0 0
0 0 0
0 0 0
0 0 0
0 0 0
0 0 0
0 0 0
0 0 0
0 0 0
0 0 0
0 0 0
0 0 0
0 0 0
0 0 0
0 0 0
0 0 0
0 0 0
0 0 0
0 0 0
0 0 0
0 0 0
0 0 0
0 0 0
0 0 0
0 0 0
0 0 0
0 0 0
0 0 0
0 0 0
0 0 0
0 0 0
0 0 0
0 0 0
0 0 0
0 0 0
0 0 0
0 0 0
0 0 0
0 0 0
0 0 0
0 0 0
0 0 0
0 0 0
0 0 0
0 0 0
0 0 0
0 0 0
0 0 0
0 0 0
0 0 0
0 0 0
0 0 0
0 0 0
0 0 0
0 0 0
0 0 0
0 0 0
0 0 0
0 0 0
0 0 0
0 0 0
0 0 0
0 0 0
0 0 0
0 0 0
0 0 0
0 0 0
0 0 34
0 0 48
0 0 71
0 0 81
0 0 86
0 0 103
0 0 101
0 0 112
0 0 122
0 0 131
0 0 138
0 0 140
0 0 140
0 0 140
0 0 140
0 0 140
0 0 140
0 0 140
0 0 140
0 0 140
0 0 140
0 0 140
0 0 140
0 0 140
0 0 140
0 0 140
0 0 140
0 0 140
0 0 140
0 0 140
0 0 140
0 0 140
0 0 140
0 0 140
0 0 140
0 0 140
0 0 140
0 0 140
0 0 140
0 0 140
0 0 140
0 0 140
0 0 140
0 0 140
0 0 140
0 0 140
0 0 140
0 0 140
0 0 140
0 0 140
0 0 140
0 0 140
0 0 140
0 0 140
0 0 140
0 0 140
0 0 140
0 0 140
0 0 140
0 0 140
0 0 140
0 0 140
0 0 140
0 0 140
0 0 140
0 0 140
0 0 140
0 0 140
0 0 140
0 0 140
0 0 140
0 0 140
0 0 140
0 0 140
0 0 140
0 0 140
0 0 140
0 0 140
0 0 140
0 0 140
0 0 140
0 0 140
0 0 140
0 0 140
0 0 140
0 0 140
0 0 140
0 0 140
0 0 140
0 0 140
0 0 140
0 0 140
0 0 140
0 0 140
0 0 140
0 0 140
0 0 140
0 0 140
0 0 140
0 0 140
0 0 140
0 0 140
0 0 140
0 0 140
0 0 140
0 0 140
0 0 140
0 0 140
0 0 140
0 0 140
0 0 140
0 0 140
0 0 140
0 0 140
0 0 140
0 0 140
0 0 140
0 0 140
0 0 140
0 0 140
0 0 140
0 0 140
0 0 140
0 0 140
0 0 140
0 0 140
0 0 140
0 0 140
0 0 140
0 0 140
0 0 140
0 0 140
0 0 140
0 0 140
0 0 140
0 0 140
0 0 140
0 0 140
0 0 140
0 0 140
0 0 140
0 0 140
0 0 140
0 0 140
0 0 140
0 0 140
0 0 140
0 0 140
0 0 140
0 0 140
0 0 140
0 0 140
0 0 140
0 0 140
0 0 140
0 0 140
0 0 140
0 0 140
0 0 140
0 0 140
0 0 140
0 0 140
0 0 140
0 0 140
0 0 140
0 0 140
0 0 140
0 0 140
0 0 140
0 0 140
0 0 140
0 0 140
0 0 140
0 0 140
0 0 140
0 0 140
0 0 140
0 0 140
0 0 140
0 0 140
0 0 140
0 0 140
0 0 140
0 0 140
0 0 140
0 0 140
0 0 140
0 0 140
0 0 140
0 0 140
0 0 140
0 0 140
0 0 140
0 0 140
0 0 140
0 0 140
0 0 140
0 0 140
0 0 140
0 0 140
0 0 140
0 0 140
0 0 140
0 0 140
0 0 140
0 0 140
0 0 140
0 0 140
0 0 140
0 0 140
0 0 140
0 0 140
0 0 140
0 0 140
0 0 140
0 0 140
0 0 140
0 0 140
0 0 140
0 0 140
0 0 140
0 0 140
0 0 140
0 0 140
0 0 140
0 0 140
0 0 140
0 0 140
0 0 140
0 0 140
0 0 140
0 0 140
0 0 140
0 0 140
0 0 140
0 0 140
0 0 140
0 0 140
0 0 140
0 0 140
0 0 140
0 0 140
0 0 140
0 0 140
0 0 140
0 0 140
0 0 140
0 0 140
0 0 140
0 0 140
0 0 140
0 0 140
0 0 140
0 0 140
0 0 140
0 0 140
0 0 140
0 0 140
0 0 140
0 0 140
0 0 140
0 0 140
0 0 140
0 0 140
0 0 140
0 0 140
0 0 140
0 0 140
0 0 140
0 0 140
0 0 140
0 0 140
0 0 140
0 0 140
0 0 140
0 0 140
0 0 140
0 0 140
0 0 140
0 0 140
0 0 140
0 0 140
0 0 140
0 0 140
0 0 140
0 0 140
0 0 140
0 0 140
0 0 140
0 0 140
0 0 140
0 0 140
0 0 140
0 0 140
0 0 140
0 0 140
0 0 140
0 0 140
0 0 140
0 0 140
0 0 140
0 0 140
0 0 140
0 0 140
0 0 140
0 0 140
0 0 137
0 0 131
0 0 126
0 0 117
0 0 110
0 0 107
0 0 80
0 0 85
0 0 68
0 0 65
0 0 39
0 0 19
0 0 0
0 0 0
0 0 0
0 0 0
0 0 0
0 0 0
0 0 0
0 0 0
0 0 0
0 0 0
0 0 0
0 0 0
0 0 0
0 0 0
0 0 0
0 0 0
0 0 0
0 0 0
0 0 0
0 0 0
0 0 0
0 0 0
0 0 0
0 0 0
0 0 0
0 0 0
0 0 0
0 0 0
0 0 0
0 0 0
0 0 0
0 0 0
0 0 0
0 0 0
0 0 0
0 0 0
0 0 0
0 0 0
0 0 0
0 0 0
0 0 0
0 0 0
0 0 0
0 0 0
0 0 0
0 0 0
0 0 0
0 0 0
0 0 0
0 0 0
0 0 0
0 0 0
0 0 0
0 0 0
0 0 0
0 0 0
0 0 0
0 0 0
0 0 0
0 0 0
0 0 0
0 0 0
0 0 0
0 0 0
0 0 0
0 0 0
0 0 0
0 0 0
0 0 0
0 0 0
0 0 0
0 0 0
0 0 0
0 0 0
0 0 0
0 0 0
0 0 0
0 0 0
0 0 0
0 0 0
0 0 0
0 0 0
0 0 14
0 0 37
0 0 48
0 0 71
0 0 80
0 0 80
0 0 107
0 0 112
0 0 121
0 0 122
0 0 138
0 0 137
0 0 140
0 0 140
0 0 140
0 0 140
0 0 140
0 0 140
0 0 140
0 0 140
0 0 140
0 0 140
0 0 140
0 0 140
0 0 140
0 0 140
0 0 140
0 0 140
0 0 140
0 0 140
0 0 140
0 0 140
0 0 140
0 0 140
0 0 140
0 0 140
0 0 140
0 0 140
0 0 140
0 0 140
0 0 140
0 0 140
0 0 140
0 0 140
0 0 140
0 0 140
0 0 140
0 0 140
0 0 140
0 0 140
0 0 140
0 0 140
0 0 140
0 0 140
0 0 140
0 0 140
0 0 140
0 0 140
0 0 140
0 0 140
0 0 140
0 0 140
0 0 140
0 0 140
0 0 140
0 0 140
0 0 140
0 0 140
0 0 140
0 0 140
0 0 140
0 0 140
0 0 140
0 0 140
0 0 140
0 0 140
0 0 140
0 0 140
0 0 140
0 0 140
0 0 140
0 0 140
0 0 140
0 0 140
0 0 140
0 0 140
0 0 140
0 0 140
0 0 140
0 0 140
0 0 140
0 0 140
0 0 140
0 0 140
0 0 140
0 0 140
0 0 140
0 0 140
0 0 140
0 0 140
0 0 140
0 0 140
0 0 140
0 0 140
0 0 140
0 0 140
0 0 140
0 0 140
0 0 140
0 0 140
0 0 140
0 0 140
0 0 140
0 0 140
0 0 140
0 0 140
0 0 140
0 0 140
0 0 140
0 0 140
0 0 140
0 0 140
0 0 140
0 0 140
0 0 140
0 0 140
0 0 140
0 0 140
0 0 140
0 0 140
0 0 140
0 0 140
0 0 140
0 0 140
0 0 140
0 0 140
0 0 140
0 0 140
0 0 140
0 0 140
0 0 140
0 0 140
0 0 140
0 0 140
0 0 140
0 0 140
0 0 140
0 0 140
0 0 140
0 0 140
0 0 140
0 0 140
0 0 140
0 0 140
0 0 140
0 0 140
0 0 140
0 0 140
0 0 140
0 0 140
0 0 140
0 0 140
0 0 140
0 0 140
0 0 140
0 0 140
0 0 140
0 0 140
0 0 140
0 0 140
0 0 140
0 0 140
0 0 140
0 0 140
0 0 140
0 0 140
0 0 140
0 0 140
0 0 140
0 0 140
0 0 140
0 0 140
0 0 140
0 0 140
0 0 140
0 0 140
0 0 140
0 0 140
0 0 140
0 0 140
0 0 140
0 0 140
0 0 140
0 0 140
0 0 140
0 0 140
0 0 140
0 0 140
0 0 140
0 0 140
0 0 140
0 0 140
0 0 140
0 0 140
0 0 140
0 0 140
0 0 140
0 0 140
0 0 140
0 0 140
0 0 140
0 0 140
0 0 140
0 0 140
0 0 140
0 0 140
0 0 140
0 0 140
0 0 140
0 0 140
0 0 140
0 0 140
0 0 140
0 0 140
0 0 140
0 0 140
0 0 140
0 0 140
0 0 140
0 0 140
0 0 140
0 0 140
0 0 140
0 0 140
0 0 140
0 0 140
0 0 140
0 0 140
0 0 140
0 0 140
0 0 140
0 0 140
0 0 140
0 0 140
0 0 140
0 0 140
0 0 140
0 0 140
0 0 140
0 0 140
0 0 140
0 0 140
0 0 140
0 0 140
0 0 140
0 0 140
0 0 140
0 0 140
0 0 140
0 0 140
0 0 140
0 0 140
0 0 140
0 0 140
0 0 140
0 0 140
0 0 140
0 0 140
0 0 140
0 0 140
0 0 140
0 0 140
0 0 140
0 0 140
0 0 140
0 0 140
0 0 140
0 0 140
0 0 140
0 0 140
0 0 140
0 0 140
0 0 140
0 0 140
0 0 140
0 0 140
0 0 140
0 0 140
0 0 140
0 0 140
0 0 140
0 0 140
0 0 140
0 0 140
0 0 140
0 0 140
0 0 140
0 0 140
0 0 140
0 0 140
0 0 140
0 0 140
0 0 140
0 0 140
0 0 140
0 0 140
0 0 136
0 0 127
0 0 121
0 0 114
0 0 110
0 0 105
0 0 87
0 0 79
0 0 56
0 0 57
0 0 14
0 0 0
0 0 0
0 0 0
0 0 0
0 0 0
0 0 0
0 0 0
0 0 0
0 0 0
0 0 0
0 0 0
0 0 0
0 0 0
0 0 0
0 0 0
0 0 0
0 0 0
0 0 0
0 0 0
0 0 0
0 0 0
0 0 0
0 0 0
0 0 0
0 0 0
0 0 0
0 0 0
0 0 0
0 0 0
0 0 0
0 0 0
0 0 0
0 0 0
0 0 0
0 0 0
0 0 0
0 0 0
0 0 0
0 0 0
0 0 0
0 0 0
0 0 0
0 0 0
0 0 0
0 0 0
0 0 0
0 0 0
0 0 0
0 0 0
0 0 0
0 0 0
0 0 0
0 0 0
0 0 0
0 0 0
0 0 0
0 0 0
0 0 0
0 0 0
0 0 0
0 0 0
0 0 0
0 0 0
0 0 0
0 0 0
0 0 0
0 0 0
0 0 0
0 0 0
0 0 0
0 0 0
0 0 0
0 0 0
0 0 0
0 0 0
0 0 0
0 0 0
0 0 0
0 0 0
0 0 0
0 0 0
0 0 0
0 0 0
0 0 0
0 0 24
0 0 54
0 0 65
0 0 75
0 0 95
0 0 96
0 0 109
0 0 109
0 0 118
0 0 129
0 0 134
0 0 140
0 0 140
0 0 140
0 0 140
0 0 140
0 0 140
0 0 140
0 0 140
0 0 140
0 0 140
0 0 140
0 0 140
0 0 140
0 0 140
0 0 140
0 0 140
0 0 140
0 0 140
0 0 140
0 0 140
0 0 140
0 0 140
0 0 140
0 0 140
0 0 140
0 0 140
0 0 140
0 0 140
0 0 140
0 0 140
0 0 140
0 0 140
0 0 140
0 0 140
0 0 140
0 0 140
0 0 140
0 0 140
0 0 140
0 0 140
0 0 140
0 0 140
0 0 140
0 0 140
0 0 140
0 0 140
0 0 140
0 0 140
0 0 140
0 0 140
0 0 140
0 0 140
0 0 140
0 0 140
0 0 140
0 0 140
0 0 140
0 0 140
0 0 140
0 0 140
0 0 140
0 0 140
0 0 140
0 0 140
0 0 140
0 0 140
0 0 140
0 0 140
0 0 140
0 0 140
0 0 140
0 0 140
0 0 140
0 0 140
0 0 140
0 0 140
0 0 140
0 0 140
0 0 140
0 0 140
0 0 140
0 0 140
0 0 140
0 0 140
0 0 140
0 0 140
0 0 140
0 0 140
0 0 140
0 0 140
0 0 140
0 0 140
0 0 140
0 0 140
0 0 140
0 0 140
0 0 140
0 0 140
0 0 140
0 0 140
0 0 140
0 0 140
0 0 140
0 0 140
0 0 140
0 0 140
0 0 140
0 0 140
0 0 140
0 0 140
0 0 140
0 0 140
0 0 140
0 0 140
0 0 140
0 0 140
0 0 140
0 0 140
0 0 140
0 0 140
0 0 140
0 0 140
0 0 140
0 0 140
0 0 140
0 0 140
0 0 140
0 0 140
0 0 140
0 0 140
0 0 140
0 0 140
0 0 140
0 0 140
0 0 140
0 0 140
0 0 140
0 0 140
0 0 140
0 0 140
0 0 140
0 0 140
0 0 140
0 0 140
0 0 140
0 0 140
0 0 140
0 0 140
0 0 140
0 0 140
0 0 140
0 0 140
0 0 140
0 0 140
0 0 140
0 0 140
0 0 140
0 0 140
0 0 140
0 0 140
0 0 140
0 0 140
0 0 140
0 0 140
0 0 140
0 0 140
0 0 140
0 0 140
0 0 140
0 0 140
0 0 140
0 0 140
0 0 140
0 0 140
0 0 140
0 0 140
0 0 140
0 0 140
0 0 140
0 0 140
0 0 140
0 0 140
0 0 140
0 0 140
0 0 140
0 0 140
0 0 140
0 0 140
0 0 140
0 0 140
0 0 140
0 0 140
0 0 140
0 0 140
0 0 140
0 0 140
0 0 140
0 0 140
0 0 140
0 0 140
0 0 140
0 0 140
0 0 140
0 0 140
0 0 140
0 0 140
0 0 140
0 0 140
0 0 140
0 0 140
0 0 140
0 0 140
0 0 140
0 0 140
0 0 140
0 0 140
0 0 140
0 0 140
0 0 140
0 0 140
0 0 140
0 0 140
0 0 140
0 0 140
0 0 140
0 0 140
0 0 140
0 0 140
0 0 140
0 0 140
0 0 140
0 0 140
0 0 140
0 0 140
0 0 140
0 0 140
0 0 140
0 0 140
0 0 140
0 0 140
0 0 140
0 0 140
0 0 140
0 0 140
0 0 140
0 0 140
0 0 140
0 0 140
0 0 140
0 0 140
0 0 140
0 0 140
0 0 140
0 0 140
0 0 140
0 0 140
0 0 140
0 0 140
0 0 140
0 0 140
0 0 140
0 0 140
0 0 140
0 0 140
0 0 140
0 0 140
0 0 140
0 0 140
0 0 140
0 0 140
0 0 140
0 0 140
0 0 140
0 0 140
0 0 140
0 0 140
0 0 140
0 0 140
0 0 140
0 0 140
0 0 140
0 0 140
0 0 140
0 0 140
0 0 140
0 0 140
0 0 140
0 0 140
0 0 140
0 0 140
0 0 140
0 0 140
0 0 140
0 0 136
0 0 130
0 0 126
0 0 115
0 0 106
0 0 95
0 0 97
0 0 87
0 0 65
0 0 61
0 0 42
0 0 0
0 0 0
0 0 0
0 0 0
0 0 0
0 0 0
0 0 0
0 0 0
0 0 0
0 0 0
0 0 0
0 0 0
0 0 0
0 0 0
0 0 0
0 0 0
0 0 0
0 0 0
0 0 0
0 0 0
0 0 0
0 0 0
0 0 0
0 0 0
0 0 0
0 0 0
0 0 0
0 0 0
0 0 0
0 0 0
0 0 0
0 0 0
0 0 0
0 0 0
0 0 0
0 0 0
0 0 0
0 0 0
0 0 0
0 0 0
0 0 0
0 0 0
0 0 0
0 0 0
0 0 0
0 0 0
0 0 0
0 0 0
0 0 0
0 0 0
0 0 0
0 0 0
0 0 0
0 0 0
0 0 0
0 0 0
0 0 0
0 0 0
0 0 0
0 0 0
0 0 0
0 0 0
0 0 0
0 0 0
0 0 0
0 0 0
0 0 0
0 0 0
0 0 0
0 0 0
0 0 0
0 0 0
0 0 0
0 0 0
0 0 0
0 0 0
0 0 0
0 0 0
0 0 0
0 0 0
0 0 0
0 0 0
0 0 0
0 0 0
0 0 0
0 0 0
0 0 34
0 0 59
0 0 70
0 0 82
0 0 88
0 0 95
0 0 111
0 0 117
0 0 126
0 0 130
0 0 137
0 0 140
0 0 140
0 0 140
0 0 140
0 0 140
0 0 140
0 0 140
0 0 140
0 0 140
0 0 140
0 0 140
0 0 140
0 0 140
0 0 140
0 0 140
0 0 140
0 0 140
0 0 140
0 0 140
0 0 140
0 0 140
0 0 140
0 0 140
0 0 140
0 0 140
0 0 140
0 0 140
0 0 140
0 0 140
0 0 140
0 0 140
0 0 140
0 0 140
0 0 140
0 0 140
0 0 140
0 0 140
0 0 140
0 0 140
0 0 140
0 0 140
0 0 140
0 0 140
0 0 140
0 0 140
0 0 140
0 0 140
0 0 140
0 0 140
0 0 140
0 0 140
0 0 140
0 0 140
0 0 140
0 0 140
0 0 140
0 0 140
0 0 140
0 0 140
0 0 140
0 0 140
0 0 140
0 0 140
0 0 140
0 0 140
0 0 140
0 0 140
0 0 140
0 0 140
0 0 140
0 0 140
0 0 140
0 0 140
0 0 140
0 0 140
0 0 140
0 0 140
0 0 140
0 0 140
0 0 140
0 0 140
0 0 140
0 0 140
0 0 140
0 0 140
0 0 140
0 0 140
0 0 140
0 0 140
0 0 140
0 0 140
0 0 140
0 0 140
0 0 140
0 0 140
0 0 140
0 0 140
0 0 140
0 0 140
0 0 140
0 0 140
0 0 140
0 0 140
0 0 140
0 0 140
0 0 140
0 0 140
0 0 140
0 0 140
0 0 140
0 0 140
0 0 140
0 0 140
0 0 140
0 0 140
0 0 140
0 0 140
0 0 140
0 0 140
0 0 140
0 0 140
0 0 140
0 0 140
0 0 140
0 0 140
0 0 140
0 0 140
0 0 140
0 0 140
0 0 140
0 0 140
0 0 140
0 0 140
0 0 140
0 0 140
0 0 140
0 0 140
0 0 140
0 0 140
0 0 140
0 0 140
0 0 140
0 0 140
0 0 140
0 0 140
0 0 140
0 0 140
0 0 140
0 0 140
0 0 140
0 0 140
0 0 140
0 0 140
0 0 140
0 0 140
0 0 140
0 0 140
0 0 140
0 0 140
0 0 140
0 0 140
0 0 140
0 0 140
0 0 140
0 0 140
0 0 140
0 0 140
0 0 140
0 0 140
0 0 140
0 0 140
0 0 140
0 0 140
0 0 140
0 0 140
0 0 140
0 0 140
0 0 140
0 0 140
0 0 140
0 0 140
0 0 140
0 0 140
0 0 140
0 0 140
0 0 140
0 0 140
0 0 140
0 0 140
0 0 140
0 0 140
0 0 140
0 0 140
0 0 140
0 0 140
0 0 140
0 0 140
0 0 140
0 0 140
0 0 140
0 0 140
0 0 140
0 0 140
0 0 140
0 0 140
0 0 140
0 0 140
0 0 140
0 0 140
0 0 140
0 0 140
0 0 140
0 0 140
0 0 140
0 0 140
0 0 140
0 0 140
0 0 140
0 0 140
0 0 140
0 0 140
0 0 140
0 0 140
0 0 140
0 0 140
0 0 140
0 0 140
0 0 140
0 0 140
0 0 140
0 0 140
0 0 140
0 0 140
0 0 140
0 0 140
0 0 140
0 0 140
0 0 140
0 0 140
0 0 140
0 0 140
0 0 140
0 0 140
0 0 140
0 0 140
0 0 140
0 0 140
0 0 140
0 0 140
0 0 140
0 0 140
0 0 140
0 0 140
0 0 140
0 0 140
0 0 140
0 0 140
0 0 140
0 0 140
0 0 140
0 0 140
0 0 140
0 0 140
0 0 140
0 0 140
0 0 140
0 0 140
0 0 140
0 0 140
0 0 140
0 0 140
0 0 140
0 0 140
0 0 140
0 0 140
0 0 140
0 0 140
0 0 140
0 0 140
0 0 140
0 0 140
0 0 140
0 0 140
0 0 140
0 0 140
0 0 140
0 0 140
0 0 140
0 0 140
0 0 140
0 0 140
0 0 138
0 0 132
0 0 128
0 0 120
0 0 102
0 0 104
0 0 94
0 0 82
0 0 78
0 0 59
0 0 50
0 0 14
0 0 0
0 0 0
0 0 0
0 0 0
0 0 0
0 0 0
0 0 0
0 0 0
0 0 0
0 0 0
0 0 0
0 0 0
0 0 0
0 0 0
0 0 0
0 0 0
0 0 0
0 0 0
0 0 0
0 0 0
0 0 0
0 0 0
0 0 0
0 0 0
0 0 0
0 0 0
0 0 0
0 0 0
0 0 0
0 0 0
0 0 0
0 0 0
0 0 0
0 0 0
0 0 0
0 0 0
0 0 0
0 0 0
0 0 0
0 0 0
0 0 0
0 0 0
0 0 0
0 0 0
0 0 0
0 0 0
0 0 0
0 0 0
0 0 0
0 0 0
0 0 0
0 0 0
0 0 0
0 0 0
0 0 0
0 0 0
0 0 0
0 0 0
0 0 0
0 0 0
0 0 0
0 0 0
0 0 0
0 0 0
0 0 0
0 0 0
0 0 0
0 0 0
0 0 0
0 0 0
0 0 0
0 0 0
0 0 0
0 0 0
0 0 0
0 0 0
0 0 0
0 0 0
0 0 0
0 0 0
0 0 0
0 0 0
0 0 0
0 0 0
0 0 0
0 0 0
0 0 14
0 0 46
0 0 68
0 0 78
0 0 88
0 0 91
0 0 103
0 0 109
0 0 121
0 0 127
0 0 132
0 0 138
0 0 140
0 0 140
0 0 140
0 0 140
0 0 140
0 0 140
0 0 140
0 0 140
0 0 140
0 0 140
0 0 140
0 0 140
0 0 140
0 0 140
0 0 140
0 0 140
0 0 140
0 0 140
0 0 140
0 0 140
0 0 140
0 0 140
0 0 140
0 0 140
0 0 140
0 0 140
0 0 140
0 0 140
0 0 140
0 0 140
0 0 140
0 0 140
0 0 140
0 0 140
0 0 140
0 0 140
0 0 140
0 0 140
0 0 140
0 0 140
0 0 140
0 0 140
0 0 140
0 0 140
0 0 140
0 0 140
0 0 140
0 0 140
0 0 140
0 0 140
0 0 140
0 0 140
0 0 140
0 0 140
0 0 140
0 0 140
0 0 140
0 0 140
0 0 140
0 0 140
0 0 140
0 0 140
0 0 140
0 0 140
0 0 140
0 0 140
0 0 140
0 0 140
0 0 140
0 0 140
0 0 140
0 0 140
0 0 140
0 0 140
0 0 140
0 0 140
0 0 140
0 0 140
0 0 140
0 0 140
0 0 140
0 0 140
0 0 140
0 0 140
0 0 140
0 0 140
0 0 140
0 0 140
0 0 140
0 0 140
0 0 140
0 0 140
0 0 140
0 0 140
0 0 140
0 0 140
0 0 140
0 0 140
0 0 140
0 0 140
0 0 140
0 0 140
0 0 140
0 0 140
0 0 140
0 0 140
0 0 140
0 0 140
0 0 140
0 0 140
0 0 140
0 0 140
0 0 140
0 0 140
0 0 140
0 0 140
0 0 140
0 0 140
0 0 140
0 0 140
0 0 140
0 0 140
0 0 140
0 0 140
0 0 140
0 0 140
0 0 140
0 0 140
0 0 140
0 0 140
0 0 140
0 0 140
0 0 140
0 0 140
0 0 140
0 0 140
0 0 140
0 0 140
0 0 140
0 0 140
0 0 140
0 0 140
0 0 140
0 0 140
0 0 140
0 0 140
0 0 140
0 0 140
0 0 140
0 0 140
0 0 140
0 0 140
0 0 140
0 0 140
0 0 140
0 0 140
0 0 140
0 0 140
0 0 140
0 0 140
0 0 140
0 0 140
0 0 140
0 0 140
0 0 140
0 0 140
0 0 140
0 0 140
0 0 140
0 0 140
0 0 140
0 0 140
0 0 140
0 0 140
0 0 140
0 0 140
0 0 140
0 0 140
0 0 140
0 0 140
0 0 140
0 0 140
0 0 140
0 0 140
0 0 140
0 0 140
0 0 140
0 0 140
0 0 140
0 0 140
0 0 140
0 0 140
0 0 140
0 0 140
0 0 140
0 0 140
0 0 140
0 0 140
0 0 140
0 0 140
0 0 140
0 0 140
0 0 140
0 0 140
0 0 140
0 0 140
0 0 140
0 0 140
0 0 140
0 0 140
0 0 140
0 0 140
0 0 140
0 0 140
0 0 140
0 0 140
0 0 140
0 0 140
0 0 140
0 0 140
0 0 140
0 0 140
0 0 140
0 0 140
0 0 140
0 0 140
0 0 140
0 0 140
0 0 140
0 0 140
0 0 140
0 0 140
0 0 140
0 0 140
0 0 140
0 0 140
0 0 140
0 0 140
0 0 140
0 0 140
0 0 140
0 0 140
0 0 140
0 0 140
0 0 140
0 0 140
0 0 140
0 0 140
0 0 140
0 0 140
0 0 140
0 0 140
0 0 140
0 0 140
0 0 140
0 0 140
0 0 140
0 0 140
0 0 140
0 0 140
0 0 140
0 0 140
0 0 140
0 0 140
0 0 140
0 0 140
0 0 140
0 0 140
0 0 140
0 0 140
0 0 140
0 0 140
0 0 140
0 0 140
0 0 140
0 0 140
0 0 140
0 0 140
0 0 140
0 0 140
0 0 140
0 0 140
0 0 140
0 0 140
0 0 140
0 0 140
0 0 140
0 0 140
0 0 140
0 0 139
0 0 136
0 0 128
0 0 125
0 0 109
0 0 101
0 0 97
0 0 93
0 0 89
0 0 68
0 0 48
0 0 28
0 0 0
0 0 0
0 0 0
0 0 0
0 0 0
0 0 0
0 0 0
0 0 0
0 0 0
0 0 0
0 0 0
0 0 0
0 0 0
0 0 0
0 0 0
0 0 0
0 0 0
0 0 0
0 0 0
0 0 0
0 0 0
0 0 0
0 0 0
0 0 0
0 0 0
0 0 0
0 0 0
0 0 0
0 0 0
0 0 0
0 0 0
0 0 0
0 0 0
0 0 0
0 0 0
0 0 0
0 0 0
0 0 0
0 0 0
0 0 0
0 0 0
0 0 0
0 0 0
0 0 0
0 0 0
0 0 0
0 0 0
0 0 0
0 0 0
0 0 0
0 0 0
0 0 0
0 0 0
0 0 0
0 0 0
0 0 0
0 0 0
0 0 0
0 0 0
0 0 0
0 0 0
0 0 0
0 0 0
0 0 0
0 0 0
0 0 0
0 0 0
0 0 0
0 0 0
0 0 0
0 0 0
0 0 0
0 0 0
0 0 0
0 0 0
0 0 0
0 0 0
0 0 0
0 0 0
0 0 0
0 0 0
0 0 0
0 0 0
0 0 0
0 0 0
0 0 0
0 0 0
0 0 14
0 0 46
0 0 42
0 0 71
0 0 76
0 0 95
0 0 100
0 0 113
0 0 112
0 0 124
0 0 122
0 0 133
0 0 139
0 0 140
0 0 140
0 0 140
0 0 140
0 0 140
0 0 140
0 0 140
0 0 140
0 0 140
0 0 140
0 0 140
0 0 140
0 0 140
0 0 140
0 0 140
0 0 140
0 0 140
0 0 140
0 0 140
0 0 140
0 0 140
0 0 140
0 0 140
0 0 140
0 0 140
0 0 140
0 0 140
0 0 140
0 0 140
0 0 140
0 0 140
0 0 140
0 0 140
0 0 140
0 0 140
0 0 140
0 0 140
0 0 140
0 0 140
0 0 140
0 0 140
0 0 140
0 0 140
0 0 140
0 0 140
0 0 140
0 0 140
0 0 140
0 0 140
0 0 140
0 0 140
0 0 140
0 0 140
0 0 140
0 0 140
0 0 140
0 0 140
0 0 140
0 0 140
0 0 140
0 0 140
0 0 140
0 0 140
0 0 140
0 0 140
0 0 140
0 0 140
0 0 140
0 0 140
0 0 140
0 0 140
0 0 140
0 0 140
0 0 140
0 0 140
0 0 140
0 0 140
0 0 140
0 0 140
0 0 140
0 0 140
0 0 140
0 0 140
0 0 140
0 0 140
0 0 140
0 0 140
0 0 140
0 0 140
0 0 140
0 0 140
0 0 140
0 0 140
0 0 140
0 0 140
0 0 140
0 0 140
0 0 140
0 0 140
0 0 140
0 0 140
0 0 140
0 0 140
0 0 140
0 0 140
0 0 140
0 0 140
0 0 140
0 0 140
0 0 140
0 0 140
0 0 140
0 0 140
0 0 140
0 0 140
0 0 140
0 0 140
0 0 140
0 0 140
0 0 140
0 0 140
0 0 140
0 0 140
0 0 140
0 0 140
0 0 140
0 0 140
0 0 140
0 0 140
0 0 140
0 0 140
0 0 140
0 0 140
0 0 140
0 0 140
0 0 140
0 0 140
0 0 140
0 0 140
0 0 140
0 0 140
0 0 140
0 0 140
0 0 140
0 0 140
0 0 140
0 0 140
0 0 140
0 0 140
0 0 140
0 0 140
0 0 140
0 0 140
0 0 140
0 0 140
0 0 140
0 0 140
0 0 140
0 0 140
0 0 140
0 0 140
0 0 140
0 0 140
0 0 140
0 0 140
0 0 140
0 0 140
0 0 140
0 0 140
0 0 140
0 0 140
0 0 140
0 0 140
0 0 140
0 0 140
0 0 140
0 0 140
0 0 140
0 0 140
0 0 140
0 0 140
0 0 140
0 0 140
0 0 140
0 0 140
0 0 140
0 0 140
0 0 140
0 0 140
0 0 140
0 0 140
0 0 140
0 0 140
0 0 140
0 0 140
0 0 140
0 0 140
0 0 140
0 0 140
0 0 140
0 0 140
0 0 140
0 0 140
0 0 140
0 0 140
0 0 140
0 0 140
0 0 140
0 0 140
0 0 140
0 0 140
0 0 140
0 0 140
0 0 140
0 0 140
0 0 140
0 0 140
0 0 140
0 0 140
0 0 140
0 0 140
0 0 140
0 0 140
0 0 140
0 0 140
0 0 140
0 0 140
0 0 140
0 0 140
0 0 140
0 0 140
0 0 140
0 0 140
0 0 140
0 0 140
0 0 140
0 0 140
0 0 140
0 0 140
0 0 140
0 0 140
0 0 140
0 0 140
0 0 140
0 0 140
0 0 140
0 0 140
0 0 140
0 0 140
0 0 140
0 0 140
0 0 140
0 0 140
0 0 140
0 0 140
0 0 140
0 0 140
0 0 140
0 0 140
0 0 140
0 0 140
0 0 140
0 0 140
0 0 140
0 0 140
0 0 140
0 0 140
0 0 140
0 0 140
0 0 140
0 0 140
0 0 140
0 0 140
0 0 140
0 0 140
0 0 140
0 0 140
0 0 140
0 0 140
0 0 140
0 0 140
0 0 140
0 0 140
0 0 140
0 0 140
0 0 140
0 0 140
0 0 140
0 0 137
0 0 130
0 0 125
0 0 119
0 0 113
0 0 102
0 0 100
0 0 86
0 0 80
0 0 50
0 0 37
0 0 31
0 0 0
0 0 0
0 0 0
0 0 0
0 0 0
0 0 0
0 0 0
0 0 0
0 0 0
0 0 0
0 0 0
0 0 0
0 0 0
0 0 0
0 0 0
0 0 0
0 0 0
0 0 0
0 0 0
0 0 0
0 0 0
0 0 0
0 0 0
0 0 0
0 0 0
0 0 0
0 0 0
0 0 0
0 0 0
0 0 0
0 0 0
0 0 0
0 0 0
0 0 0
0 0 0
0 0 0
0 0 0
0 0 0
0 0 0
0 0 0
0 0 0
0 0 0
0 0 0
0 0 0
0 0 0
0 0 0
0 0 0
0 0 0
0 0 0
0 0 0
0 0 0
0 0 0
0 0 0
0 0 0
0 0 0
0 0 0
0 0 0
0 0 0
0 0 0
0 0 0
0 0 0
0 0 0
0 0 0
0 0 0
0 0 0
0 0 0
0 0 0
0 0 0
0 0 0
0 0 0
0 0 0
0 0 0
0 0 0
0 0 0
0 0 0
0 0 0
0 0 0
0 0 0
0 0 0
0 0 0
0 0 0
0 0 0
0 0 0
0 0 0
0 0 0
0 0 0
0 0 0
0 0 0
0 0 0
0 0 48
0 0 64
0 0 80
0 0 82
0 0 98
0 0 87
0 0 101
0 0 113
0 0 123
0 0 131
0 0 137
0 0 140
0 0 140
0 0 140
0 0 140
0 0 140
0 0 140
0 0 140
0 0 140
0 0 140
0 0 140
0 0 140
0 0 140
0 0 140
0 0 140
0 0 140
0 0 140
0 0 140
0 0 140
0 0 140
0 0 140
0 0 140
0 0 140
0 0 140
0 0 140
0 0 140
0 0 140
0 0 140
0 0 140
0 0 140
0 0 140
0 0 140
0 0 140
0 0 140
0 0 140
0 0 140
0 0 140
0 0 140
0 0 140
0 0 140
0 0 140
0 0 140
0 0 140
0 0 140
0 0 140
0 0 140
0 0 140
0 0 140
0 0 140
0 0 140
0 0 140
0 0 140
0 0 140
0 0 140
0 0 140
0 0 140
0 0 140
0 0 140
0 0 140
0 0 140
0 0 140
0 0 140
0 0 140
0 0 140
0 0 140
0 0 140
0 0 140
0 0 140
0 0 140
0 0 140
0 0 140
0 0 140
0 0 140
0 0 140
0 0 140
0 0 140
0 0 140
0 0 140
0 0 140
0 0 140
0 0 140
0 0 140
0 0 140
0 0 140
0 0 140
0 0 140
0 0 140
0 0 140
0 0 140
0 0 140
0 0 140
0 0 140
0 0 140
0 0 140
0 0 140
0 0 140
0 0 140
0 0 140
0 0 140
0 0 140
0 0 140
0 0 140
0 0 140
0 0 140
0 0 140
0 0 140
0 0 140
0 0 140
0 0 140
0 0 140
0 0 140
0 0 140
0 0 140
0 0 140
0 0 140
0 0 140
0 0 140
0 0 140
0 0 140
0 0 140
0 0 140
0 0 140
0 0 140
0 0 140
0 0 140
0 0 140
0 0 140
0 0 140
0 0 140
0 0 140
0 0 140
0 0 140
0 0 140
0 0 140
0 0 140
0 0 140
0 0 140
0 0 140
0 0 140
0 0 140
0 0 140
0 0 140
0 0 140
0 0 140
0 0 140
0 0 140
0 0 140
0 0 140
0 0 140
0 0 140
0 0 140
0 0 140
0 0 140
0 0 140
0 0 140
0 0 140
0 0 140
0 0 140
0 0 140
0 0 140
0 0 140
0 0 140
0 0 140
0 0 140
0 0 140
0 0 140
0 0 140
0 0 140
0 0 140
0 0 140
0 0 140
0 0 140
0 0 140
0 0 140
0 0 140
0 0 140
0 0 140
0 0 140
0 0 140
0 0 140
0 0 140
0 0 140
0 0 140
0 0 140
0 0 140
0 0 140
0 0 140
0 0 140
0 0 140
0 0 140
0 0 140
0 0 140
0 0 140
0 0 140
0 0 140
0 0 140
0 0 140
0 0 140
0 0 140
0 0 140
0 0 140
0 0 140
0 0 140
0 0 140
0 0 140
0 0 140
0 0 140
0 0 140
0 0 140
0 0 140
0 0 140
0 0 140
0 0 140
0 0 140
0 0 140
0 0 140
0 0 140
0 0 140
0 0 140
0 0 140
0 0 140
0 0 140
0 0 140
0 0 140
0 0 140
0 0 140
0 0 140
0 0 140
0 0 140
0 0 140
0 0 140
0 0 140
0 0 140
0 0 140
0 0 140
0 0 140
0 0 140
0 0 140
0 0 140
0 0 140
0 0 140
0 0 140
0 0 140
0 0 140
0 0 140
0 0 140
0 0 140
0 0 140
0 0 140
0 0 140
0 0 140
0 0 140
0 0 140
0 0 140
0 0 140
0 0 140
0 0 140
0 0 140
0 0 140
0 0 140
0 0 140
0 0 140
0 0 140
0 0 140
0 0 140
0 0 140
0 0 140
0 0 140
0 0 140
0 0 140
0 0 140
0 0 140
0 0 140
0 0 140
0 0 140
0 0 140
0 0 140
0 0 140
0 0 140
0 0 140
0 0 140
0 0 140
0 0 140
0 0 140
0 0 140
0 0 140
0 0 140
0 0 140
0 0 138
0 0 137
0 0 125
0 0 126
0 0 116
0 0 104
0 0 113
0 0 97
0 0 76
0 0 56
0 0 56
0 0 34
0 0 0
0 0 0
0 0 0
0 0 0
0 0 0
0 0 0
0 0 0
0 0 0
0 0 0
0 0 0
0 0 0
0 0 0
0 0 0
0 0 0
0 0 0
0 0 0
0 0 0
0 0 0
0 0 0
0 0 0
0 0 0
0 0 0
0 0 0
0 0 0
0 0 0
0 0 0
0 0 0
0 0 0
0 0 0
0 0 0
0 0 0
0 0 0
0 0 0
0 0 0
0 0 0
0 0 0
0 0 0
0 0 0
0 0 0
0 0 0
0 0 0
0 0 0
0 0 0
0 0 0
0 0 0
0 0 0
0 0 0
0 0 0
0 0 0
0 0 0
0 0 0
0 0 0
0 0 0
0 0 0
0 0 0
0 0 0
0 0 0
0 0 0
0 0 0
0 0 0
0 0 0
0 0 0
0 0 0
0 0 0
0 0 0
0 0 0
0 0 0
0 0 0
0 0 0
0 0 0
0 0 0
0 0 0
0 0 0
0 0 0
0 0 0
0 0 0
0 0 0
0 0 0
0 0 0
0 0 0
0 0 0
0 0 0
0 0 0
0 0 0
0 0 0
0 0 0
0 0 0
0 0 0
0 0 0
0 0 14
0 0 28
0 0 59
0 0 57
0 0 90
0 0 81
0 0 95
0 0 113
0 0 115
0 0 122
0 0 130
0 0 135
0 0 139
0 0 140
0 0 140
0 0 140
0 0 140
0 0 140
0 0 140
0 0 140
0 0 140
0 0 140
0 0 140
0 0 140
0 0 140
0 0 140
0 0 140
0 0 140
0 0 140
0 0 140
0 0 140
0 0 140
0 0 140
0 0 140
0 0 140
0 0 140
0 0 140
0 0 140
0 0 140
0 0 140
0 0 140
0 0 140
0 0 140
0 0 140
0 0 140
0 0 140
0 0 140
0 0 140
0 0 140
0 0 140
0 0 140
0 0 140
0 0 140
0 0 140
0 0 140
0 0 140
0 0 140
0 0 140
0 0 140
0 0 140
0 0 140
0 0 140
0 0 140
0 0 140
0 0 140
0 0 140
0 0 140
0 0 140
0 0 140
0 0 140
0 0 140
0 0 140
0 0 140
0 0 140
0 0 140
0 0 140
0 0 140
0 0 140
0 0 140
0 0 140
0 0 140
0 0 140
0 0 140
0 0 140
0 0 140
0 0 140
0 0 140
0 0 140
0 0 140
0 0 140
0 0 140
0 0 140
0 0 140
0 0 140
0 0 140
0 0 140
0 0 140
0 0 140
0 0 140
0 0 140
0 0 140
0 0 140
0 0 140
0 0 140
0 0 140
0 0 140
0 0 140
0 0 140
0 0 140
0 0 140
0 0 140
0 0 140
0 0 140
0 0 140
0 0 140
0 0 140
0 0 140
0 0 140
0 0 140
0 0 140
0 0 140
0 0 140
0 0 140
0 0 140
0 0 140
0 0 140
0 0 140
0 0 140
0 0 140
0 0 140
0 0 140
0 0 140
0 0 140
0 0 140
0 0 140
0 0 140
0 0 140
0 0 140
0 0 140
0 0 140
0 0 140
0 0 140
0 0 140
0 0 140
0 0 140
0 0 140
0 0 140
0 0 140
0 0 140
0 0 140
0 0 140
0 0 140
0 0 140
0 0 140
0 0 140
0 0 140
0 0 140
0 0 140
0 0 140
0 0 140
0 0 140
0 0 140
0 0 140
0 0 140
0 0 140
0 0 140
0 0 140
0 0 140
0 0 140
0 0 140
0 0 140
0 0 140
0 0 140
0 0 140
0 0 140
0 0 140
0 0 140
0 0 140
0 0 140
0 0 140
0 0 140
0 0 140
0 0 140
0 0 140
0 0 140
0 0 140
0 0 140
0 0 140
0 0 140
0 0 140
0 0 140
0 0 140
0 0 140
0 0 140
0 0 140
0 0 140
0 0 140
0 0 140
0 0 140
0 0 140
0 0 140
0 0 140
0 0 140
0 0 140
0 0 140
0 0 140
0 0 140
0 0 140
0 0 140
0 0 140
0 0 140
0 0 140
0 0 140
0 0 140
0 0 140
0 0 140
0 0 140
0 0 140
0 0 140
0 0 140
0 0 140
0 0 140
0 0 140
0 0 140
0 0 140
0 0 140
0 0 140
0 0 140
0 0 140
0 0 140
0 0 140
0 0 140
0 0 140
0 0 140
0 0 140
0 0 140
0 0 140
0 0 140
0 0 140
0 0 140
0 0 140
0 0 140
0 0 140
0 0 140
0 0 140
0 0 140
0 0 140
0 0 140
0 0 140
0 0 140
0 0 140
0 0 140
0 0 140
0 0 140
0 0 140
0 0 140
0 0 140
0 0 140
0 0 140
0 0 140
0 0 140
0 0 140
0 0 140
0 0 140
0 0 140
0 0 140
0 0 140
0 0 140
0 0 140
0 0 140
0 0 140
0 0 140
0 0 140
0 0 140
0 0 140
0 0 140
0 0 140
0 0 140
0 0 140
0 0 140
0 0 140
0 0 140
0 0 140
0 0 140
0 0 140
0 0 140
0 0 140
0 0 140
0 0 140
0 0 140
0 0 140
0 0 140
0 0 140
0 0 140
0 0 140
0 0 140
0 0 140
0 0 140
0 0 140
0 0 137
0 0 135
0 0 125
0 0 110
0 0 118
0 0 100
0 0 103
0 0 98
0 0 82
0 0 68
0 0 50
0 0 14
0 0 0
0 0 0
0 0 0
0 0 0
0 0 0
0 0 0
0 0 0
0 0 0
0 0 0
0 0 0
0 0 0
0 0 0
0 0 0
0 0 0
0 0 0
0 0 0
0 0 0
0 0 0
0 0 0
0 0 0
0 0 0
0 0 0
0 0 0
0 0 0
0 0 0
0 0 0
0 0 0
0 0 0
0 0 0
0 0 0
0 0 0
0 0 0
0 0 0
0 0 0
0 0 0
0 0 0
0 0 0
0 0 0
0 0 0
0 0 0
0 0 0
0 0 0
0 0 0
0 0 0
0 0 0
0 0 0
0 0 0
0 0 0
0 0 0
0 0 0
0 0 0
0 0 0
0 0 0
0 0 0
0 0 0
0 0 0
0 0 0
0 0 0
0 0 0
0 0 0
0 0 0
0 0 0
0 0 0
0 0 0
0 0 0
0 0 0
0 0 0
0 0 0
0 0 0
0 0 0
0 0 0
0 0 0
0 0 0
0 0 0
0 0 0
0 0 0
0 0 0
0 0 0
0 0 0
0 0 0
0 0 0
0 0 0
0 0 0
0 0 0
0 0 0
0 0 0
0 0 0
0 0 0
0 0 0
0 0 0
0 0 24
0 0 44
0 0 76
0 0 81
0 0 89
0 0 94
0 0 106
0 0 108
0 0 115
0 0 124
0 0 130
0 0 135
0 0 140
0 0 140
0 0 140
0 0 140
0 0 140
0 0 140
0 0 140
0 0 140
0 0 140
0 0 140
0 0 140
0 0 140
0 0 140
0 0 140
0 0 140
0 0 140
0 0 140
0 0 140
0 0 140
0 0 140
0 0 140
0 0 140
0 0 140
0 0 140
0 0 140
0 0 140
0 0 140
0 0 140
0 0 140
0 0 140
0 0 140
0 0 140
0 0 140
0 0 140
0 0 140
0 0 140
0 0 140
0 0 140
0 0 140
0 0 140
0 0 140
0 0 140
0 0 140
0 0 140
0 0 140
0 0 140
0 0 140
0 0 140
0 0 140
0 0 140
0 0 140
0 0 140
0 0 140
0 0 140
0 0 140
0 0 140
0 0 140
0 0 140
0 0 140
0 0 140
0 0 140
0 0 140
0 0 140
0 0 140
0 0 140
0 0 140
0 0 140
0 0 140
0 0 140
0 0 140
0 0 140
0 0 140
0 0 140
0 0 140
0 0 140
0 0 140
0 0 140
0 0 140
0 0 140
0 0 140
0 0 140
0 0 140
0 0 140
0 0 140
0 0 140
0 0 140
0 0 140
0 0 140
0 0 140
0 0 140
0 0 140
0 0 140
0 0 140
0 0 140
0 0 140
0 0 140
0 0 140
0 0 140
0 0 140
0 0 140
0 0 140
0 0 140
0 0 140
0 0 140
0 0 140
0 0 140
0 0 140
0 0 140
0 0 140
0 0 140
0 0 140
0 0 140
0 0 140
0 0 140
0 0 140
0 0 140
0 0 140
0 0 140
0 0 140
0 0 140
0 0 140
0 0 140
0 0 140
0 0 140
0 0 140
0 0 140
0 0 140
0 0 140
0 0 140
0 0 140
0 0 140
0 0 140
0 0 140
0 0 140
0 0 140
0 0 140
0 0 140
0 0 140
0 0 140
0 0 140
0 0 140
0 0 140
0 0 140
0 0 140
0 0 140
0 0 140
0 0 140
0 0 140
0 0 140
0 0 140
0 0 140
0 0 140
0 0 140
0 0 140
0 0 140
0 0 140
0 0 140
0 0 140
0 0 140
0 0 140
0 0 140
0 0 140
0 0 140
0 0 140
0 0 140
0 0 140
0 0 140
0 0 140
0 0 140
0 0 140
0 0 140
0 0 140
0 0 140
0 0 140
0 0 140
0 0 140
0 0 140
0 0 140
0 0 140
0 0 140
0 0 140
0 0 140
0 0 140
0 0 140
0 0 140
0 0 140
0 0 140
0 0 140
0 0 140
0 0 140
0 0 140
0 0 140
0 0 140
0 0 140
0 0 140
0 0 140
0 0 140
0 0 140
0 0 140
0 0 140
0 0 140
0 0 140
0 0 140
0 0 140
0 0 140
0 0 140
0 0 140
0 0 140
0 0 140
0 0 140
0 0 140
0 0 140
0 0 140
0 0 140
0 0 140
0 0 140
0 0 140
0 0 140
0 0 140
0 0 140
0 0 140
0 0 140
0 0 140
0 0 140
0 0 140
0 0 140
0 0 140
0 0 140
0 0 140
0 0 140
0 0 140
0 0 140
0 0 140
0 0 140
0 0 140
0 0 140
0 0 140
0 0 140
0 0 140
0 0 140
0 0 140
0 0 140
0 0 140
0 0 140
0 0 140
0 0 140
0 0 140
0 0 140
0 0 140
0 0 140
0 0 140
0 0 140
0 0 140
0 0 140
0 0 140
0 0 140
0 0 140
0 0 140
0 0 140
0 0 140
0 0 140
0 0 140
0 0 140
0 0 140
0 0 140
0 0 140
0 0 140
0 0 140
0 0 140
0 0 140
0 0 140
0 0 140
0 0 140
0 0 140
0 0 140
0 0 140
0 0 140
0 0 140
0 0 140
0 0 140
0 0 140
0 0 140
0 0 140
0 0 140
0 0 140
0 0 138
0 0 133
0 0 130
0 0 117
0 0 106
0 0 109
0 0 93
0 0 86
0 0 81
0 0 71
0 0 56
0 0 42
0 0 14
0 0 0
0 0 0
0 0 0
0 0 0
0 0 0
0 0 0
0 0 0
0 0 0
0 0 0
0 0 0
0 0 0
0 0 0
0 0 0
0 0 0
0 0 0
0 0 0
0 0 0
0 0 0
0 0 0
0 0 0
0 0 0
0 0 0
0 0 0
0 0 0
0 0 0
0 0 0
0 0 0
0 0 0
0 0 0
0 0 0
0 0 0
0 0 0
0 0 0
0 0 0
0 0 0
0 0 0
0 0 0
0 0 0
0 0 0
0 0 0
0 0 0
0 0 0
0 0 0
0 0 0
0 0 0
0 0 0
0 0 0
0 0 0
0 0 0
0 0 0
0 0 0
0 0 0
0 0 0
0 0 0
0 0 0
0 0 0
0 0 0
0 0 0
0 0 0
0 0 0
0 0 0
0 0 0
0 0 0
0 0 0
0 0 0
0 0 0
0 0 0
0 0 0
0 0 0
0 0 0
0 0 0
0 0 0
0 0 0
0 0 0
0 0 0
0 0 0
0 0 0
0 0 0
0 0 0
0 0 0
0 0 0
0 0 0
0 0 0
0 0 0
0 0 0
0 0 0
0 0 0
0 0 0
0 0 0
0 0 0
0 0 0
0 0 31
0 0 57
0 0 71
0 0 80
0 0 99
0 0 104
0 0 99
0 0 122
0 0 114
0 0 132
0 0 134
0 0 138
0 0 140
0 0 140
0 0 140
0 0 140
0 0 140
0 0 140
0 0 140
0 0 140
0 0 140
0 0 140
0 0 140
0 0 140
0 0 140
0 0 140
0 0 140
0 0 140
0 0 140
0 0 140
0 0 140
0 0 140
0 0 140
0 0 140
0 0 140
0 0 140
0 0 140
0 0 140
0 0 140
0 0 140
0 0 140
0 0 140
0 0 140
0 0 140
0 0 140
0 0 140
0 0 140
0 0 140
0 0 140
0 0 140
0 0 140
0 0 140
0 0 140
0 0 140
0 0 140
0 0 140
0 0 140
0 0 140
0 0 140
0 0 140
0 0 140
0 0 140
0 0 140
0 0 140
0 0 140
0 0 140
0 0 140
0 0 140
0 0 140
0 0 140
0 0 140
0 0 140
0 0 140
0 0 140
0 0 140
0 0 140
0 0 140
0 0 140
0 0 140
0 0 140
0 0 140
0 0 140
0 0 140
0 0 140
0 0 140
0 0 140
0 0 140
0 0 140
0 0 140
0 0 140
0 0 140
0 0 140
0 0 140
0 0 140
0 0 140
0 0 140
0 0 140
0 0 140
0 0 140
0 0 140
0 0 140
0 0 140
0 0 140
0 0 140
0 0 140
0 0 140
0 0 140
0 0 140
0 0 140
0 0 140
0 0 140
0 0 140
0 0 140
0 0 140
0 0 140
0 0 140
0 0 140
0 0 140
0 0 140
0 0 140
0 0 140
0 0 140
0 0 140
0 0 140
0 0 140
0 0 140
0 0 140
0 0 140
0 0 140
0 0 140
0 0 140
0 0 140
0 0 140
0 0 140
0 0 140
0 0 140
0 0 140
0 0 140
0 0 140
0 0 140
0 0 140
0 0 140
0 0 140
0 0 140
0 0 140
0 0 140
0 0 140
0 0 140
0 0 140
0 0 140
0 0 140
0 0 140
0 0 140
0 0 140
0 0 140
0 0 140
0 0 140
0 0 140
0 0 140
0 0 140
0 0 140
0 0 140
0 0 140
0 0 140
0 0 140
0 0 140
0 0 140
0 0 140
0 0 140
0 0 140
0 0 140
0 0 140
0 0 140
0 0 140
0 0 140
0 0 140
0 0 140
0 0 140
0 0 140
0 0 140
0 0 140
0 0 140
0 0 140
0 0 140
0 0 140
0 0 140
0 0 140
0 0 140
0 0 140
0 0 140
0 0 140
0 0 140
0 0 140
0 0 140
0 0 140
0 0 140
0 0 140
0 0 140
0 0 140
0 0 140
0 0 140
0 0 140
0 0 140
0 0 140
0 0 140
0 0 140
0 0 140
0 0 140
0 0 140
0 0 140
0 0 140
0 0 140
0 0 140
0 0 140
0 0 140
0 0 140
0 0 140
0 0 140
0 0 140
0 0 140
0 0 140
0 0 140
0 0 140
0 0 140
0 0 140
0 0 140
0 0 140
0 0 140
0 0 140
0 0 140
0 0 140
0 0 140
0 0 140
0 0 140
0 0 140
0 0 140
0 0 140
0 0 140
0 0 140
0 0 140
0 0 140
0 0 140
0 0 140
0 0 140
0 0 140
0 0 140
0 0 140
0 0 140
0 0 140
0 0 140
0 0 140
0 0 140
0 0 140
0 0 140
0 0 140
0 0 140
0 0 140
0 0 140
0 0 140
0 0 140
0 0 140
0 0 140
0 0 140
0 0 140
0 0 140
0 0 140
0 0 140
0 0 140
0 0 140
0 0 140
0 0 140
0 0 140
0 0 140
0 0 140
0 0 140
0 0 140
0 0 140
0 0 140
0 0 140
0 0 140
0 0 140
0 0 140
0 0 140
0 0 140
0 0 140
0 0 140
0 0 140
0 0 140
0 0 140
0 0 140
0 0 140
0 0 140
0 0 140
0 0 140
0 0 140
0 0 140
0 0 135
0 0 131
0 0 114
0 0 118
0 0 105
0 0 105
0 0 88
0 0 87
0 0 80
0 0 62
0 0 46
0 0 31
0 0 0
0 0 0
0 0 0
0 0 0
0 0 0
0 0 0
0 0 0
0 0 0
0 0 0
0 0 0
0 0 0
0 0 0
0 0 0
0 0 0
0 0 0
0 0 0
0 0 0
0 0 0
0 0 0
0 0 0
0 0 0
0 0 0
0 0 0
0 0 0
0 0 0
0 0 0
0 0 0
0 0 0
0 0 0
0 0 0
0 0 0
0 0 0
0 0 0
0 0 0
0 0 0
0 0 0
0 0 0
0 0 0
0 0 0
0 0 0
0 0 0
0 0 0
0 0 0
0 0 0
0 0 0
0 0 0
0 0 0
0 0 0
0 0 0
0 0 0
0 0 0
0 0 0
0 0 0
0 0 0
0 0 0
0 0 0
0 0 0
0 0 0
0 0 0
0 0 0
0 0 0
0 0 0
0 0 0
0 0 0
0 0 0
0 0 0
0 0 0
0 0 0
0 0 0
0 0 0
0 0 0
0 0 0
0 0 0
0 0 0
0 0 0
0 0 0
0 0 0
0 0 0
0 0 0
0 0 0
0 0 0
0 0 0
0 0 0
0 0 0
0 0 0
0 0 0
0 0 0
0 0 0
0 0 0
0 0 0
0 0 0
0 0 0
0 0 31
0 0 50
0 0 59
0 0 76
0 0 85
0 0 90
0 0 104
0 0 113
0 0 122
0 0 125
0 0 133
0 0 136
0 0 140
0 0 140
0 0 140
0 0 140
0 0 140
0 0 140
0 0 140
0 0 140
0 0 140
0 0 140
0 0 140
0 0 140
0 0 140
0 0 140
0 0 140
0 0 140
0 0 140
0 0 140
0 0 140
0 0 140
0 0 140
0 0 140
0 0 140
0 0 140
0 0 140
0 0 140
0 0 140
0 0 140
0 0 140
0 0 140
0 0 140
0 0 140
0 0 140
0 0 140
0 0 140
0 0 140
0 0 140
0 0 140
0 0 140
0 0 140
0 0 140
0 0 140
0 0 140
0 0 140
0 0 140
0 0 140
0 0 140
0 0 140
0 0 140
0 0 140
0 0 140
0 0 140
0 0 140
0 0 140
0 0 140
0 0 140
0 0 140
0 0 140
0 0 140
0 0 140
0 0 140
0 0 140
0 0 140
0 0 140
0 0 140
0 0 140
0 0 140
0 0 140
0 0 140
0 0 140
0 0 140
0 0 140
0 0 140
0 0 140
0 0 140
0 0 140
0 0 140
0 0 140
0 0 140
0 0 140
0 0 140
0 0 140
0 0 140
0 0 140
0 0 140
0 0 140
0 0 140
0 0 140
0 0 140
0 0 140
0 0 140
0 0 140
0 0 140
0 0 140
0 0 140
0 0 140
0 0 140
0 0 140
0 0 140
0 0 140
0 0 140
0 0 140
0 0 140
0 0 140
0 0 140
0 0 140
0 0 140
0 0 140
0 0 140
0 0 140
0 0 140
0 0 140
0 0 140
0 0 140
0 0 140
0 0 140
0 0 140
0 0 140
0 0 140
0 0 140
0 0 140
0 0 140
0 0 140
0 0 140
0 0 140
0 0 140
0 0 140
0 0 140
0 0 140
0 0 140
0 0 140
0 0 140
0 0 140
0 0 140
0 0 140
0 0 140
0 0 140
0 0 140
0 0 140
0 0 140
0 0 140
0 0 140
0 0 140
0 0 140
0 0 140
0 0 140
0 0 140
0 0 140
0 0 140
0 0 140
0 0 140
0 0 140
0 0 140
0 0 140
0 0 140
0 0 140
0 0 140
0 0 140
0 0 140
0 0 140
0 0 140
0 0 140
0 0 140
0 0 140
0 0 140
0 0 140
0 0 140
0 0 140
0 0 140
0 0 140
0 0 140
0 0 140
0 0 140
0 0 140
0 0 140
0 0 140
0 0 140
0 0 140
0 0 140
0 0 140
0 0 140
0 0 140
0 0 140
0 0 140
0 0 140
0 0 140
0 0 140
0 0 140
0 0 140
0 0 140
0 0 140
0 0 140
0 0 140
0 0 140
0 0 140
0 0 140
0 0 140
0 0 140
0 0 140
0 0 140
0 0 140
0 0 140
0 0 140
0 0 140
0 0 140
0 0 140
0 0 140
0 0 140
0 0 140
0 0 140
0 0 140
0 0 140
0 0 140
0 0 140
0 0 140
0 0 140
0 0 140
0 0 140
0 0 140
0 0 140
0 0 140
0 0 140
0 0 140
0 0 140
0 0 140
0 0 140
0 0 140
0 0 140
0 0 140
0 0 140
0 0 140
0 0 140
0 0 140
0 0 140
0 0 140
0 0 140
0 0 140
0 0 140
0 0 140
0 0 140
0 0 140
0 0 140
0 0 140
0 0 140
0 0 140
0 0 140
0 0 140
0 0 140
0 0 140
0 0 140
0 0 140
0 0 140
0 0 140
0 0 140
0 0 140
0 0 140
0 0 140
0 0 140
0 0 140
0 0 140
0 0 140
0 0 140
0 0 140
0 0 140
0 0 140
0 0 140
0 0 140
0 0 140
0 0 140
0 0 140
0 0 140
0 0 140
0 0 140
0 0 140
0 0 140
0 0 140
0 0 140
0 0 140
0 0 140
0 0 140
0 0 140
0 0 140
0 0 140
0 0 139
0 0 128
0 0 125
0 0 123
0 0 108
0 0 113
0 0 101
0 0 99
0 0 86
0 0 78
0 0 65
0 0 44
0 0 19
0 0 0
0 0 0
0 0 0
0 0 0
0 0 0
0 0 0
0 0 0
0 0 0
0 0 0
0 0 0
0 0 0
0 0 0
0 0 0
0 0 0
0 0 0
0 0 0
0 0 0
0 0 0
0 0 0
0 0 0
0 0 0
0 0 0
0 0 0
0 0 0
0 0 0
0 0 0
0 0 0
0 0 0
0 0 0
0 0 0
0 0 0
0 0 0
0 0 0
0 0 0
0 0 0
0 0 0
0 0 0
0 0 0
0 0 0
0 0 0
0 0 0
0 0 0
0 0 0
0 0 0
0 0 0
0 0 0
0 0 0
0 0 0
0 0 0
0 0 0
0 0 0
0 0 0
0 0 0
0 0 0
0 0 0
0 0 0
0 0 0
0 0 0
0 0 0
0 0 0
0 0 0
0 0 0
0 0 0
0 0 0
0 0 0
0 0 0
0 0 0
0 0 0
0 0 0
0 0 0
0 0 0
0 0 0
0 0 0
0 0 0
0 0 0
0 0 0
0 0 0
0 0 0
0 0 0
0 0 0
0 0 0
0 0 0
0 0 0
0 0 0
0 0 0
0 0 0
0 0 0
0 0 0
0 0 0
0 0 0
0 0 0
0 0 0
0 0 14
0 0 39
0 0 65
0 0 65
0 0 88
0 0 94
0 0 97
0 0 104
0 0 112
0 0 118
0 0 123
0 0 133
0 0 140
0 0 140
0 0 140
0 0 140
0 0 140
0 0 140
0 0 140
0 0 140
0 0 140
0 0 140
0 0 140
0 0 140
0 0 140
0 0 140
0 0 140
0 0 140
0 0 140
0 0 140
0 0 140
0 0 140
0 0 140
0 0 140
0 0 140
0 0 140
0 0 140
0 0 140
0 0 140
0 0 140
0 0 140
0 0 140
0 0 140
0 0 140
0 0 140
0 0 140
0 0 140
0 0 140
0 0 140
0 0 140
0 0 140
0 0 140
0 0 140
0 0 140
0 0 140
0 0 140
0 0 140
0 0 140
0 0 140
0 0 140
0 0 140
0 0 140
0 0 140
0 0 140
0 0 140
0 0 140
0 0 140
0 0 140
0 0 140
0 0 140
0 0 140
0 0 140
0 0 140
0 0 140
0 0 140
0 0 140
0 0 140
0 0 140
0 0 140
0 0 140
0 0 140
0 0 140
0 0 140
0 0 140
0 0 140
0 0 140
0 0 140
0 0 140
0 0 140
0 0 140
0 0 140
0 0 140
0 0 140
0 0 140
0 0 140
0 0 140
0 0 140
0 0 140
0 0 140
0 0 140
0 0 140
0 0 140
0 0 140
0 0 140
0 0 140
0 0 140
0 0 140
0 0 140
0 0 140
0 0 140
0 0 140
0 0 140
0 0 140
0 0 140
0 0 140
0 0 140
0 0 140
0 0 140
0 0 140
0 0 140
0 0 140
0 0 140
0 0 140
0 0 140
0 0 140
0 0 140
0 0 140
0 0 140
0 0 140
0 0 140
0 0 140
0 0 140
0 0 140
0 0 140
0 0 140
0 0 140
0 0 140
0 0 140
0 0 140
0 0 140
0 0 140
0 0 140
0 0 140
0 0 140
0 0 140
0 0 140
0 0 140
0 0 140
0 0 140
0 0 140
0 0 140
0 0 140
0 0 140
0 0 140
0 0 140
0 0 140
0 0 140
0 0 140
0 0 140
0 0 140
0 0 140
0 0 140
0 0 140
0 0 140
0 0 140
0 0 140
0 0 140
0 0 140
0 0 140
0 0 140
0 0 140
0 0 140
0 0 140
0 0 140
0 0 140
0 0 140
0 0 140
0 0 140
0 0 140
0 0 140
0 0 140
0 0 140
0 0 140
0 0 140
0 0 140
0 0 140
0 0 140
0 0 140
0 0 140
0 0 140
0 0 140
0 0 140
0 0 140
0 0 140
0 0 140
0 0 140
0 0 140
0 0 140
0 0 140
0 0 140
0 0 140
0 0 140
0 0 140
0 0 140
0 0 140
0 0 140
0 0 140
0 0 140
0 0 140
0 0 140
0 0 140
0 0 140
0 0 140
0 0 140
0 0 140
0 0 140
0 0 140
0 0 140
0 0 140
0 0 140
0 0 140
0 0 140
0 0 140
0 0 140
0 0 140
0 0 140
0 0 140
0 0 140
0 0 140
0 0 140
0 0 140
0 0 140
0 0 140
0 0 140
0 0 140
0 0 140
0 0 140
0 0 140
0 0 140
0 0 140
0 0 140
0 0 140
0 0 140
0 0 140
0 0 140
0 0 140
0 0 140
0 0 140
0 0 140
0 0 140
0 0 140
0 0 140
0 0 140
0 0 140
0 0 140
0 0 140
0 0 140
0 0 140
0 0 140
0 0 140
0 0 140
0 0 140
0 0 140
0 0 140
0 0 140
0 0 140
0 0 140
0 0 140
0 0 140
0 0 140
0 0 140
0 0 140
0 0 140
0 0 140
0 0 140
0 0 140
0 0 140
0 0 140
0 0 140
0 0 140
0 0 140
0 0 140
0 0 140
0 0 140
0 0 140
0 0 140
0 0 140
0 0 140
0 0 140
0 0 140
0 0 140
0 0 140
0 0 140
0 0 140
0 0 139
0 0 135
0 0 132
0 0 119
0 0 116
0 0 112
0 0 98
0 0 93
0 0 86
0 0 80
0 0 52
0 0 62
0 0 34
0 0 0
0 0 0
0 0 0
0 0 0
0 0 0
0 0 0
0 0 0
0 0 0
0 0 0
0 0 0
0 0 0
0 0 0
0 0 0
0 0 0
0 0 0
0 0 0
0 0 0
0 0 0
0 0 0
0 0 0
0 0 0
0 0 0
0 0 0
0 0 0
0 0 0
0 0 0
0 0 0
0 0 0
0 0 0
0 0 0
0 0 0
0 0 0
0 0 0
0 0 0
0 0 0
0 0 0
0 0 0
0 0 0
0 0 0
0 0 0
0 0 0
0 0 0
0 0 0
0 0 0
0 0 0
0 0 0
0 0 0
0 0 0
0 0 0
0 0 0
0 0 0
0 0 0
0 0 0
0 0 0
0 0 0
0 0 0
0 0 0
0 0 0
0 0 0
0 0 0
0 0 0
0 0 0
0 0 0
0 0 0
0 0 0
0 0 0
0 0 0
0 0 0
0 0 0
0 0 0
0 0 0
0 0 0
0 0 0
0 0 0
0 0 0
0 0 0
0 0 0
0 0 0
0 0 0
0 0 0
0 0 0
0 0 0
0 0 0
0 0 0
0 0 0
0 0 0
0 0 0
0 0 0
0 0 0
0 0 0
0 0 0
0 0 0
0 0 0
0 0 0
0 0 39
0 0 54
0 0 64
0 0 74
0 0 90
0 0 97
0 0 106
0 0 110
0 0 113
0 0 126
0 0 128
0 0 136
0 0 138
0 0 140
0 0 140
0 0 140
0 0 140
0 0 140
0 0 140
0 0 140
0 0 140
0 0 140
0 0 140
0 0 140
0 0 140
0 0 140
0 0 140
0 0 140
0 0 140
0 0 140
0 0 140
0 0 140
0 0 140
0 0 140
0 0 140
0 0 140
0 0 140
0 0 140
0 0 140
0 0 140
0 0 140
0 0 140
0 0 140
0 0 140
0 0 140
0 0 140
0 0 140
0 0 140
0 0 140
0 0 140
0 0 140
0 0 140
0 0 140
0 0 140
0 0 140
0 0 140
0 0 140
0 0 140
0 0 140
0 0 140
0 0 140
0 0 140
0 0 140
0 0 140
0 0 140
0 0 140
0 0 140
0 0 140
0 0 140
0 0 140
0 0 140
0 0 140
0 0 140
0 0 140
0 0 140
0 0 140
0 0 140
0 0 140
0 0 140
0 0 140
0 0 140
0 0 140
0 0 140
0 0 140
0 0 140
0 0 140
0 0 140
0 0 140
0 0 140
0 0 140
0 0 140
0 0 140
0 0 140
0 0 140
0 0 140
0 0 140
0 0 140
0 0 140
0 0 140
0 0 140
0 0 140
0 0 140
0 0 140
0 0 140
0 0 140
0 0 140
0 0 140
0 0 140
0 0 140
0 0 140
0 0 140
0 0 140
0 0 140
0 0 140
0 0 140
0 0 140
0 0 140
0 0 140
0 0 140
0 0 140
0 0 140
0 0 140
0 0 140
0 0 140
0 0 140
0 0 140
0 0 140
0 0 140
0 0 140
0 0 140
0 0 140
0 0 140
0 0 140
0 0 140
0 0 140
0 0 140
0 0 140
0 0 140
0 0 140
0 0 140
0 0 140
0 0 140
0 0 140
0 0 140
0 0 140
0 0 140
0 0 140
0 0 140
0 0 140
0 0 140
0 0 140
0 0 140
0 0 140
0 0 140
0 0 140
0 0 140
0 0 140
0 0 140
0 0 140
0 0 140
0 0 140
0 0 140
0 0 140
0 0 140
0 0 140
0 0 140
0 0 140
0 0 140
0 0 140
0 0 140
0 0 140
0 0 140
0 0 140
0 0 140
0 0 140
0 0 140
0 0 140
0 0 140
0 0 140
0 0 140
0 0 140
0 0 140
0 0 140
0 0 140
0 0 140
0 0 140
0 0 140
0 0 140
0 0 140
0 0 140
0 0 140
0 0 140
0 0 140
0 0 140
0 0 140
0 0 140
0 0 140
0 0 140
0 0 140
0 0 140
0 0 140
0 0 140
0 0 140
0 0 140
0 0 140
0 0 140
0 0 140
0 0 140
0 0 140
0 0 140
0 0 140
0 0 140
0 0 140
0 0 140
0 0 140
0 0 140
0 0 140
0 0 140
0 0 140
0 0 140
0 0 140
0 0 140
0 0 140
0 0 140
0 0 140
0 0 140
0 0 140
0 0 140
0 0 140
0 0 140
0 0 140
0 0 140
0 0 140
0 0 140
0 0 140
0 0 140
0 0 140
0 0 140
0 0 140
0 0 140
0 0 140
0 0 140
0 0 140
0 0 140
0 0 140
0 0 140
0 0 140
0 0 140
0 0 140
0 0 140
0 0 140
0 0 140
0 0 140
0 0 140
0 0 140
0 0 140
0 0 140
0 0 140
0 0 140
0 0 140
0 0 140
0 0 140
0 0 140
0 0 140
0 0 140
0 0 140
0 0 140
0 0 140
0 0 140
0 0 140
0 0 140
0 0 140
0 0 140
0 0 140
0 0 140
0 0 140
0 0 140
0 0 140
0 0 140
0 0 140
0 0 140
0 0 140
0 0 140
0 0 140
0 0 140
0 0 140
0 0 140
0 0 140
0 0 140
0 0 140
0 0 140
0 0 140
0 0 140
0 0 135
0 0 133
0 0 125
0 0 124
0 0 114
0 0 97
0 0 103
0 0 88
0 0 70
0 0 79
0 0 67
0 0 52
0 0 14
0 0 0
0 0 0
0 0 0
0 0 0
0 0 0
0 0 0
0 0 0
0 0 0
0 0 0
0 0 0
0 0 0
0 0 0
0 0 0
0 0 0
0 0 0
0 0 0
0 0 0
0 0 0
0 0 0
0 0 0
0 0 0
0 0 0
0 0 0
0 0 0
0 0 0
0 0 0
0 0 0
0 0 0
0 0 0
0 0 0
0 0 0
0 0 0
0 0 0
0 0 0
0 0 0
0 0 0
0 0 0
0 0 0
0 0 0
0 0 0
0 0 0
0 0 0
0 0 0
0 0 0
0 0 0
0 0 0
0 0 0
0 0 0
0 0 0
0 0 0
0 0 0
0 0 0
0 0 0
0 0 0
0 0 0
0 0 0
0 0 0
0 0 0
0 0 0
0 0 0
0 0 0
0 0 0
0 0 0
0 0 0
0 0 0
0 0 0
0 0 0
0 0 0
0 0 0
0 0 0
0 0 0
0 0 0
0 0 0
0 0 0
0 0 0
0 0 0
0 0 0
0 0 0
0 0 0
0 0 0
0 0 0
0 0 0
0 0 0
0 0 0
0 0 0
0 0 0
0 0 0
0 0 0
0 0 0
0 0 0
0 0 0
0 0 0
0 0 0
0 0 0
0 0 31
0 0 42
0 0 64
0 0 78
0 0 82
0 0 87
0 0 103
0 0 106
0 0 116
0 0 123
0 0 123
0 0 135
0 0 136
0 0 140
0 0 140
0 0 140
0 0 140
0 0 140
0 0 140
0 0 140
0 0 140
0 0 140
0 0 140
0 0 140
0 0 140
0 0 140
0 0 140
0 0 140
0 0 140
0 0 140
0 0 140
0 0 140
0 0 140
0 0 140
0 0 140
0 0 140
0 0 140
0 0 140
0 0 140
0 0 140
0 0 140
0 0 140
0 0 140
0 0 140
0 0 140
0 0 140
0 0 140
0 0 140
0 0 140
0 0 140
0 0 140
0 0 140
0 0 140
0 0 140
0 0 140
0 0 140
0 0 140
0 0 140
0 0 140
0 0 140
0 0 140
0 0 140
0 0 140
0 0 140
0 0 140
0 0 140
0 0 140
0 0 140
0 0 140
0 0 140
0 0 140
0 0 140
0 0 140
0 0 140
0 0 140
0 0 140
0 0 140
0 0 140
0 0 140
0 0 140
0 0 140
0 0 140
0 0 140
0 0 140
0 0 140
0 0 140
0 0 140
0 0 140
0 0 140
0 0 140
0 0 140
0 0 140
0 0 140
0 0 140
0 0 140
0 0 140
0 0 140
0 0 140
0 0 140
0 0 140
0 0 140
0 0 140
0 0 140
0 0 140
0 0 140
0 0 140
0 0 140
0 0 140
0 0 140
0 0 140
0 0 140
0 0 140
0 0 140
0 0 140
0 0 140
0 0 140
0 0 140
0 0 140
0 0 140
0 0 140
0 0 140
0 0 140
0 0 140
0 0 140
0 0 140
0 0 140
0 0 140
0 0 140
0 0 140
0 0 140
0 0 140
0 0 140
0 0 140
0 0 140
0 0 140
0 0 140
0 0 140
0 0 140
0 0 140
0 0 140
0 0 140
0 0 140
0 0 140
0 0 140
0 0 140
0 0 140
0 0 140
0 0 140
0 0 140
0 0 140
0 0 140
0 0 140
0 0 140
0 0 140
0 0 140
0 0 140
0 0 140
0 0 140
0 0 140
0 0 140
0 0 140
0 0 140
0 0 140
0 0 140
0 0 140
0 0 140
0 0 140
0 0 140
0 0 140
0 0 140
0 0 140
0 0 140
0 0 140
0 0 140
0 0 140
0 0 140
0 0 140
0 0 140
0 0 140
0 0 140
0 0 140
0 0 140
0 0 140
0 0 140
0 0 140
0 0 140
0 0 140
0 0 140
0 0 140
0 0 140
0 0 140
0 0 140
0 0 140
0 0 140
0 0 140
0 0 140
0 0 140
0 0 140
0 0 140
0 0 140
0 0 140
0 0 140
0 0 140
0 0 140
0 0 140
0 0 140
0 0 140
0 0 140
0 0 140
0 0 140
0 0 140
0 0 140
0 0 140
0 0 140
0 0 140
0 0 140
0 0 140
0 0 140
0 0 140
0 0 140
0 0 140
0 0 140
0 0 140
0 0 140
0 0 140
0 0 140
0 0 140
0 0 140
0 0 140
0 0 140
0 0 140
0 0 140
0 0 140
0 0 140
0 0 140
0 0 140
0 0 140
0 0 140
0 0 140
0 0 140
0 0 140
0 0 140
0 0 140
0 0 140
0 0 140
0 0 140
0 0 140
0 0 140
0 0 140
0 0 140
0 0 140
0 0 140
0 0 140
0 0 140
0 0 140
0 0 140
0 0 140
0 0 140
0 0 140
0 0 140
0 0 140
0 0 140
0 0 140
0 0 140
0 0 140
0 0 140
0 0 140
0 0 140
0 0 140
0 0 140
0 0 140
0 0 140
0 0 140
0 0 140
0 0 140
0 0 140
0 0 140
0 0 140
0 0 140
0 0 140
0 0 140
0 0 140
0 0 140
0 0 140
0 0 140
0 0 140
0 0 140
0 0 140
0 0 140
0 0 140
0 0 140
0 0 140
0 0 140
0 0 132
0 0 130
0 0 126
0 0 116
0 0 116
0 0 105
0 0 97
0 0 78
0 0 72
0 0 57
0 0 67
0 0 48
0 0 14
0 0 0
0 0 0
0 0 0
0 0 0
0 0 0
0 0 0
0 0 0
0 0 0
0 0 0
0 0 0
0 0 0
0 0 0
0 0 0
0 0 0
0 0 0
0 0 0
0 0 0
0 0 0
0 0 0
0 0 0
0 0 0
0 0 0
0 0 0
0 0 0
0 0 0
0 0 0
0 0 0
0 0 0
0 0 0
0 0 0
0 0 0
0 0 0
0 0 0
0 0 0
0 0 0
0 0 0
0 0 0
0 0 0
0 0 0
0 0 0
0 0 0
0 0 0
0 0 0
0 0 0
0 0 0
0 0 0
0 0 0
0 0 0
0 0 0
0 0 0
0 0 0
0 0 0
0 0 0
0 0 0
0 0 0
0 0 0
0 0 0
0 0 0
0 0 0
0 0 0
0 0 0
0 0 0
0 0 0
0 0 0
0 0 0
0 0 0
0 0 0
0 0 0
0 0 0
0 0 0
0 0 0
0 0 0
0 0 0
0 0 0
0 0 0
0 0 0
0 0 0
0 0 0
0 0 0
0 0 0
0 0 0
0 0 0
0 0 0
0 0 0
0 0 0
0 0 0
0 0 0
0 0 0
0 0 0
0 0 0
0 0 0
0 0 0
0 0 0
0 0 0
0 0 19
0 0 34
0 0 61
0 0 68
0 0 75
0 0 88
0 0 99
0 0 101
0 0 112
0 0 118
0 0 124
0 0 130
0 0 134
0 0 140
0 0 140
0 0 140
0 0 140
0 0 140
0 0 140
0 0 140
0 0 140
0 0 140
0 0 140
0 0 140
0 0 140
0 0 140
0 0 140
0 0 140
0 0 140
0 0 140
0 0 140
0 0 140
0 0 140
0 0 140
0 0 140
0 0 140
0 0 140
0 0 140
0 0 140
0 0 140
0 0 140
0 0 140
0 0 140
0 0 140
0 0 140
0 0 140
0 0 140
0 0 140
0 0 140
0 0 140
0 0 140
0 0 140
0 0 140
0 0 140
0 0 140
0 0 140
0 0 140
0 0 140
0 0 140
0 0 140
0 0 140
0 0 140
0 0 140
0 0 140
0 0 140
0 0 140
0 0 140
0 0 140
0 0 140
0 0 140
0 0 140
0 0 140
0 0 140
0 0 140
0 0 140
0 0 140
0 0 140
0 0 140
0 0 140
0 0 140
0 0 140
0 0 140
0 0 140
0 0 140
0 0 140
0 0 140
0 0 140
0 0 140
0 0 140
0 0 140
0 0 140
0 0 140
0 0 140
0 0 140
0 0 140
0 0 140
0 0 140
0 0 140
0 0 140
0 0 140
0 0 140
0 0 140
0 0 140
0 0 140
0 0 140
0 0 140
0 0 140
0 0 140
0 0 140
0 0 140
0 0 140
0 0 140
0 0 140
0 0 140
0 0 140
0 0 140
0 0 140
0 0 140
0 0 140
0 0 140
0 0 140
0 0 140
0 0 140
0 0 140
0 0 140
0 0 140
0 0 140
0 0 140
0 0 140
0 0 140
0 0 140
0 0 140
0 0 140
0 0 140
0 0 140
0 0 140
0 0 140
0 0 140
0 0 140
0 0 140
0 0 140
0 0 140
0 0 140
0 0 140
0 0 140
0 0 140
0 0 140
0 0 140
0 0 140
0 0 140
0 0 140
0 0 140
0 0 140
0 0 140
0 0 140
0 0 140
0 0 140
0 0 140
0 0 140
0 0 140
0 0 140
0 0 140
0 0 140
0 0 140
0 0 140
0 0 140
0 0 140
0 0 140
0 0 140
0 0 140
0 0 140
0 0 140
0 0 140
0 0 140
0 0 140
0 0 140
0 0 140
0 0 140
0 0 140
0 0 140
0 0 140
0 0 140
0 0 140
0 0 140
0 0 140
0 0 140
0 0 140
0 0 140
0 0 140
0 0 140
0 0 140
0 0 140
0 0 140
0 0 140
0 0 140
0 0 140
0 0 140
0 0 140
0 0 140
0 0 140
0 0 140
0 0 140
0 0 140
0 0 140
0 0 140
0 0 140
0 0 140
0 0 140
0 0 140
0 0 140
0 0 140
0 0 140
0 0 140
0 0 140
0 0 140
0 0 140
0 0 140
0 0 140
0 0 140
0 0 140
0 0 140
0 0 140
0 0 140
0 0 140
0 0 140
0 0 140
0 0 140
0 0 140
0 0 140
0 0 140
0 0 140
0 0 140
0 0 140
0 0 140
0 0 140
0 0 140
0 0 140
0 0 140
0 0 140
0 0 140
0 0 140
0 0 140
0 0 140
0 0 140
0 0 140
0 0 140
0 0 140
0 0 140
0 0 140
0 0 140
0 0 140
0 0 140
0 0 140
0 0 140
0 0 140
0 0 140
0 0 140
0 0 140
0 0 140
0 0 140
0 0 140
0 0 140
0 0 140
0 0 140
0 0 140
0 0 140
0 0 140
0 0 140
0 0 140
0 0 140
0 0 140
0 0 140
0 0 140
0 0 140
0 0 140
0 0 140
0 0 140
0 0 140
0 0 140
0 0 140
0 0 140
0 0 140
0 0 140
0 0 140
0 0 140
0 0 140
0 0 140
0 0 140
0 0 140
0 0 140
0 0 140
0 0 140
0 0 136
0 0 133
0 0 127
0 0 123
0 0 120
0 0 102
0 0 96
0 0 87
0 0 70
0 0 80
0 0 65
0 0 56
0 0 28
0 0 0
0 0 0
0 0 0
0 0 0
0 0 0
0 0 0
0 0 0
0 0 0
0 0 0
0 0 0
0 0 0
0 0 0
0 0 0
0 0 0
0 0 0
0 0 0
0 0 0
0 0 0
0 0 0
0 0 0
0 0 0
0 0 0
0 0 0
0 0 0
0 0 0
0 0 0
0 0 0
0 0 0
0 0 0
0 0 0
0 0 0
0 0 0
0 0 0
0 0 0
0 0 0
0 0 0
0 0 0
0 0 0
0 0 0
0 0 0
0 0 0
0 0 0
0 0 0
0 0 0
0 0 0
0 0 0
0 0 0
0 0 0
0 0 0
0 0 0
0 0 0
0 0 0
0 0 0
0 0 0
0 0 0
0 0 0
0 0 0
0 0 0
0 0 0
0 0 0
0 0 0
0 0 0
0 0 0
0 0 0
0 0 0
0 0 0
0 0 0
0 0 0
0 0 0
0 0 0
0 0 0
0 0 0
0 0 0
0 0 0
0 0 0
0 0 0
0 0 0
0 0 0
0 0 0
0 0 0
0 0 0
0 0 0
0 0 0
0 0 0
0 0 0
0 0 0
0 0 0
0 0 0
0 0 0
0 0 0
0 0 0
0 0 0
0 0 0
0 0 0
0 0 0
0 0 0
0 0 42
0 0 54
0 0 52
0 0 75
0 0 86
0 0 90
0 0 100
0 0 118
0 0 118
0 0 127
0 0 130
0 0 135
0 0 136
0 0 140
0 0 140
0 0 140
0 0 140
0 0 140
0 0 140
0 0 140
0 0 140
0 0 140
0 0 140
0 0 140
0 0 140
0 0 140
0 0 140
0 0 140
0 0 140
0 0 140
0 0 140
0 0 140
0 0 140
0 0 140
0 0 140
0 0 140
0 0 140
0 0 140
0 0 140
0 0 140
0 0 140
0 0 140
0 0 140
0 0 140
0 0 140
0 0 140
0 0 140
0 0 140
0 0 140
0 0 140
0 0 140
0 0 140
0 0 140
0 0 140
0 0 140
0 0 140
0 0 140
0 0 140
0 0 140
0 0 140
0 0 140
0 0 140
0 0 140
0 0 140
0 0 140
0 0 140
0 0 140
0 0 140
0 0 140
0 0 140
0 0 140
0 0 140
0 0 140
0 0 140
0 0 140
0 0 140
0 0 140
0 0 140
0 0 140
0 0 140
0 0 140
0 0 140
0 0 140
0 0 140
0 0 140
0 0 140
0 0 140
0 0 140
0 0 140
0 0 140
0 0 140
0 0 140
0 0 140
0 0 140
0 0 140
0 0 140
0 0 140
0 0 140
0 0 140
0 0 140
0 0 140
0 0 140
0 0 140
0 0 140
0 0 140
0 0 140
0 0 140
0 0 140
0 0 140
0 0 140
0 0 140
0 0 140
0 0 140
0 0 140
0 0 140
0 0 140
0 0 140
0 0 140
0 0 140
0 0 140
0 0 140
0 0 140
0 0 140
0 0 140
0 0 140
0 0 140
0 0 140
0 0 140
0 0 140
0 0 140
0 0 140
0 0 140
0 0 140
0 0 140
0 0 140
0 0 140
0 0 140
0 0 140
0 0 140
0 0 140
0 0 140
0 0 140
0 0 140
0 0 140
0 0 140
0 0 140
0 0 140
0 0 140
0 0 140
0 0 140
0 0 140
0 0 140
0 0 140
0 0 140
0 0 140
0 0 140
0 0 140
0 0 140
0 0 140
0 0 140
0 0 140
0 0 140
0 0 140
0 0 140
0 0 140
0 0 140
0 0 140
0 0 140
0 0 140
0 0 140
0 0 140
0 0 140
0 0 140
0 0 140
0 0 140
0 0 140
0 0 140
0 0 140
0 0 140
0 0 140
0 0 140
0 0 140
0 0 140
0 0 140
0 0 140
0 0 140
0 0 140
0 0 140
0 0 140
0 0 140
0 0 140
0 0 140
0 0 140
0 0 140
0 0 140
0 0 140
0 0 140
0 0 140
0 0 140
0 0 140
0 0 140
0 0 140
0 0 140
0 0 140
0 0 140
0 0 140
0 0 140
0 0 140
0 0 140
0 0 140
0 0 140
0 0 140
0 0 140
0 0 140
0 0 140
0 0 140
0 0 140
0 0 140
0 0 140
0 0 140
0 0 140
0 0 140
0 0 140
0 0 140
0 0 140
0 0 140
0 0 140
0 0 140
0 0 140
0 0 140
0 0 140
0 0 140
0 0 140
0 0 140
0 0 140
0 0 140
0 0 140
0 0 140
0 0 140
0 0 140
0 0 140
0 0 140
0 0 140
0 0 140
0 0 140
0 0 140
0 0 140
0 0 140
0 0 140
0 0 140
0 0 140
0 0 140
0 0 140
0 0 140
0 0 140
0 0 140
0 0 140
0 0 140
0 0 140
0 0 140
0 0 140
0 0 140
0 0 140
0 0 140
0 0 140
0 0 140
0 0 140
0 0 140
0 0 140
0 0 140
0 0 140
0 0 140
0 0 140
0 0 140
0 0 140
0 0 140
0 0 140
0 0 140
0 0 140
0 0 140
0 0 140
0 0 140
0 0 140
0 0 140
0 0 140
0 0 140
0 0 140
0 0 140
0 0 140
0 0 140
0 0 138
0 0 138
0 0 131
0 0 121
0 0 123
0 0 109
0 0 103
0 0 100
0 0 96
0 0 89
0 0 71
0 0 70
0 0 42
0 0 31
0 0 0
0 0 0
0 0 0
0 0 0
0 0 0
0 0 0
0 0 0
0 0 0
0 0 0
0 0 0
0 0 0
0 0 0
0 0 0
0 0 0
0 0 0
0 0 0
0 0 0
0 0 0
0 0 0
0 0 0
0 0 0
0 0 0
0 0 0
0 0 0
0 0 0
0 0 0
0 0 0
0 0 0
0 0 0
0 0 0
0 0 0
0 0 0
0 0 0
0 0 0
0 0 0
0 0 0
0 0 0
0 0 0
0 0 0
0 0 0
0 0 0
0 0 0
0 0 0
0 0 0
0 0 0
0 0 0
0 0 0
0 0 0
0 0 0
0 0 0
0 0 0
0 0 0
0 0 0
0 0 0
0 0 0
0 0 0
0 0 0
0 0 0
0 0 0
0 0 0
0 0 0
0 0 0
0 0 0
0 0 0
0 0 0
0 0 0
0 0 0
0 0 0
0 0 0
0 0 0
0 0 0
0 0 0
0 0 0
0 0 0
0 0 0
0 0 0
0 0 0
0 0 0
0 0 0
0 0 0
0 0 0
0 0 0
0 0 0
0 0 0
0 0 0
0 0 0
0 0 0
0 0 0
0 0 0
0 0 0
0 0 0
0 0 0
0 0 0
0 0 0
0 0 0
0 0 0
0 0 0
0 0 42
0 0 61
0 0 71
0 0 78
0 0 97
0 0 95
0 0 97
0 0 113
0 0 118
0 0 122
0 0 135
0 0 137
0 0 139
0 0 140
0 0 140
0 0 140
0 0 140
0 0 140
0 0 140
0 0 140
0 0 140
0 0 140
0 0 140
0 0 140
0 0 140
0 0 140
0 0 140
0 0 140
0 0 140
0 0 140
0 0 140
0 0 140
0 0 140
0 0 140
0 0 140
0 0 140
0 0 140
0 0 140
0 0 140
0 0 140
0 0 140
0 0 140
0 0 140
0 0 140
0 0 140
0 0 140
0 0 140
0 0 140
0 0 140
0 0 140
0 0 140
0 0 140
0 0 140
0 0 140
0 0 140
0 0 140
0 0 140
0 0 140
0 0 140
0 0 140
0 0 140
0 0 140
0 0 140
0 0 140
0 0 140
0 0 140
0 0 140
0 0 140
0 0 140
0 0 140
0 0 140
0 0 140
0 0 140
0 0 140
0 0 140
0 0 140
0 0 140
0 0 140
0 0 140
0 0 140
0 0 140
0 0 140
0 0 140
0 0 140
0 0 140
0 0 140
0 0 140
0 0 140
0 0 140
0 0 140
0 0 140
0 0 140
0 0 140
0 0 140
0 0 140
0 0 140
0 0 140
0 0 140
0 0 140
0 0 140
0 0 140
0 0 140
0 0 140
0 0 140
0 0 140
0 0 140
0 0 140
0 0 140
0 0 140
0 0 140
0 0 140
0 0 140
0 0 140
0 0 140
0 0 140
0 0 140
0 0 140
0 0 140
0 0 140
0 0 140
0 0 140
0 0 140
0 0 140
0 0 140
0 0 140
0 0 140
0 0 140
0 0 140
0 0 140
0 0 140
0 0 140
0 0 140
0 0 140
0 0 140
0 0 140
0 0 140
0 0 140
0 0 140
0 0 140
0 0 140
0 0 140
0 0 140
0 0 140
0 0 140
0 0 140
0 0 140
0 0 140
0 0 140
0 0 140
0 0 140
0 0 140
0 0 140
0 0 140
0 0 140
0 0 140
0 0 140
0 0 140
0 0 140
0 0 140
0 0 140
0 0 140
0 0 140
0 0 140
0 0 140
0 0 140
0 0 140
0 0 140
0 0 140
0 0 140
0 0 140
0 0 140
0 0 140
0 0 140
0 0 140
0 0 140
0 0 140
0 0 140
0 0 140
0 0 140
0 0 140
0 0 140
0 0 140
0 0 140
0 0 140
0 0 140
0 0 140
0 0 140
0 0 140
0 0 140
0 0 140
0 0 140
0 0 140
0 0 140
0 0 140
0 0 140
0 0 140
0 0 140
0 0 140
0 0 140
0 0 140
0 0 140
0 0 140
0 0 140
0 0 140
0 0 140
0 0 140
0 0 140
0 0 140
0 0 140
0 0 140
0 0 140
0 0 140
0 0 140
0 0 140
0 0 140
0 0 140
0 0 140
0 0 140
0 0 140
0 0 140
0 0 140
0 0 140
0 0 140
0 0 140
0 0 140
0 0 140
0 0 140
0 0 140
0 0 140
0 0 140
0 0 140
0 0 140
0 0 140
0 0 140
0 0 140
0 0 140
0 0 140
0 0 140
0 0 140
0 0 140
0 0 140
0 0 140
0 0 140
0 0 140
0 0 140
0 0 140
0 0 140
0 0 140
0 0 140
0 0 140
0 0 140
0 0 140
0 0 140
0 0 140
0 0 140
0 0 140
0 0 140
0 0 140
0 0 140
0 0 140
0 0 140
0 0 140
0 0 140
0 0 140
0 0 140
0 0 140
0 0 140
0 0 140
0 0 140
0 0 140
0 0 140
0 0 140
0 0 140
0 0 140
0 0 140
0 0 140
0 0 140
0 0 140
0 0 140
0 0 140
0 0 140
0 0 140
0 0 140
0 0 140
0 0 140
0 0 140
0 0 140
0 0 140
0 0 140
0 0 140
0 0 135
0 0 122
0 0 124
0 0 118
0 0 109
0 0 102
0 0 93
0 0 87
0 0 74
0 0 65
0 0 61
0 0 48
0 0 14
0 0 0
0 0 0
0 0 0
0 0 0
0 0 0
0 0 0
0 0 0
0 0 0
0 0 0
0 0 0
0 0 0
0 0 0
0 0 0
0 0 0
0 0 0
0 0 0
0 0 0
0 0 0
0 0 0
0 0 0
0 0 0
0 0 0
0 0 0
0 0 0
0 0 0
0 0 0
0 0 0
0 0 0
0 0 0
0 0 0
0 0 0
0 0 0
0 0 0
0 0 0
0 0 0
0 0 0
0 0 0
0 0 0
0 0 0
0 0 0
0 0 0
0 0 0
0 0 0
0 0 0
0 0 0
0 0 0
0 0 0
0 0 0
0 0 0
0 0 0
0 0 0
0 0 0
0 0 0
0 0 0
0 0 0
0 0 0
0 0 0
0 0 0
0 0 0
0 0 0
0 0 0
0 0 0
0 0 0
0 0 0
0 0 0
0 0 0
0 0 0
0 0 0
0 0 0
0 0 0
0 0 0
0 0 0
0 0 0
0 0 0
0 0 0
0 0 0
0 0 0
0 0 0
0 0 0
0 0 0
0 0 0
0 0 0
0 0 0
0 0 0
0 0 0
0 0 0
0 0 0
0 0 0
0 0 0
0 0 0
0 0 0
0 0 0
0 0 0
0 0 0
0 0 0
0 0 0
0 0 24
0 0 37
0 0 48
0 0 80
0 0 75
0 0 89
0 0 100
0 0 100
0 0 111
0 0 115
0 0 120
0 0 123
0 0 130
0 0 138
0 0 140
0 0 140
0 0 140
0 0 140
0 0 140
0 0 140
0 0 140
0 0 140
0 0 140
0 0 140
0 0 140
0 0 140
0 0 140
0 0 140
0 0 140
0 0 140
0 0 140
0 0 140
0 0 140
0 0 140
0 0 140
0 0 140
0 0 140
0 0 140
0 0 140
0 0 140
0 0 140
0 0 140
0 0 140
0 0 140
0 0 140
0 0 140
0 0 140
0 0 140
0 0 140
0 0 140
0 0 140
0 0 140
0 0 140
0 0 140
0 0 140
0 0 140
0 0 140
0 0 140
0 0 140
0 0 140
0 0 140
0 0 140
0 0 140
0 0 140
0 0 140
0 0 140
0 0 140
0 0 140
0 0 140
0 0 140
0 0 140
0 0 140
0 0 140
0 0 140
0 0 140
0 0 140
0 0 140
0 0 140
0 0 140
0 0 140
0 0 140
0 0 140
0 0 140
0 0 140
0 0 140
0 0 140
0 0 140
0 0 140
0 0 140
0 0 140
0 0 140
0 0 140
0 0 140
0 0 140
0 0 140
0 0 140
0 0 140
0 0 140
0 0 140
0 0 140
0 0 140
0 0 140
0 0 140
0 0 140
0 0 140
0 0 140
0 0 140
0 0 140
0 0 140
0 0 140
0 0 140
0 0 140
0 0 140
0 0 140
0 0 140
0 0 140
0 0 140
0 0 140
0 0 140
0 0 140
0 0 140
0 0 140
0 0 140
0 0 140
0 0 140
0 0 140
0 0 140
0 0 140
0 0 140
0 0 140
0 0 140
0 0 140
0 0 140
0 0 140
0 0 140
0 0 140
0 0 140
0 0 140
0 0 140
0 0 140
0 0 140
0 0 140
0 0 140
0 0 140
0 0 140
0 0 140
0 0 140
0 0 140
0 0 140
0 0 140
0 0 140
0 0 140
0 0 140
0 0 140
0 0 140
0 0 140
0 0 140
0 0 140
0 0 140
0 0 140
0 0 140
0 0 140
0 0 140
0 0 140
0 0 140
0 0 140
0 0 140
0 0 140
0 0 140
0 0 140
0 0 140
0 0 140
0 0 140
0 0 140
0 0 140
0 0 140
0 0 140
0 0 140
0 0 140
0 0 140
0 0 140
0 0 140
0 0 140
0 0 140
0 0 140
0 0 140
0 0 140
0 0 140
0 0 140
0 0 140
0 0 140
0 0 140
0 0 140
0 0 140
0 0 140
0 0 140
0 0 140
0 0 140
0 0 140
0 0 140
0 0 140
0 0 140
0 0 140
0 0 140
0 0 140
0 0 140
0 0 140
0 0 140
0 0 140
0 0 140
0 0 140
0 0 140
0 0 140
0 0 140
0 0 140
0 0 140
0 0 140
0 0 140
0 0 140
0 0 140
0 0 140
0 0 140
0 0 140
0 0 140
0 0 140
0 0 140
0 0 140
0 0 140
0 0 140
0 0 140
0 0 140
0 0 140
0 0 140
0 0 140
0 0 140
0 0 140
0 0 140
0 0 140
0 0 140
0 0 140
0 0 140
0 0 140
0 0 140
0 0 140
0 0 140
0 0 140
0 0 140
0 0 140
0 0 140
0 0 140
0 0 140
0 0 140
0 0 140
0 0 140
0 0 140
0 0 140
0 0 140
0 0 140
0 0 140
0 0 140
0 0 140
0 0 140
0 0 140
0 0 140
0 0 140
0 0 140
0 0 140
0 0 140
0 0 140
0 0 140
0 0 140
0 0 140
0 0 140
0 0 140
0 0 140
0 0 140
0 0 140
0 0 140
0 0 140
0 0 140
0 0 140
0 0 140
0 0 140
0 0 140
0 0 140
0 0 140
0 0 140
0 0 140
0 0 140
0 0 138
0 0 137
0 0 124
0 0 123
0 0 119
0 0 118
0 0 106
0 0 105
0 0 85
0 0 84
0 0 87
0 0 78
0 0 52
0 0 34
0 0 0
0 0 0
0 0 0
0 0 0
0 0 0
0 0 0
0 0 0
0 0 0
0 0 0
0 0 0
0 0 0
0 0 0
0 0 0
0 0 0
0 0 0
0 0 0
0 0 0
0 0 0
0 0 0
0 0 0
0 0 0
0 0 0
0 0 0
0 0 0
0 0 0
0 0 0
0 0 0
0 0 0
0 0 0
0 0 0
0 0 0
0 0 0
0 0 0
0 0 0
0 0 0
0 0 0
0 0 0
0 0 0
0 0 0
0 0 0
0 0 0
0 0 0
0 0 0
0 0 0
0 0 0
0 0 0
0 0 0
0 0 0
0 0 0
0 0 0
0 0 0
0 0 0
0 0 0
0 0 0
0 0 0
0 0 0
0 0 0
0 0 0
0 0 0
0 0 0
0 0 0
0 0 0
0 0 0
0 0 0
0 0 0
0 0 0
0 0 0
0 0 0
0 0 0
0 0 0
0 0 0
0 0 0
0 0 0
0 0 0
0 0 0
0 0 0
0 0 0
0 0 0
0 0 0
0 0 0
0 0 0
0 0 0
0 0 0
0 0 0
0 0 0
0 0 0
0 0 0
0 0 0
0 0 0
0 0 0
0 0 0
0 0 0
0 0 0
0 0 0
0 0 0
0 0 0
0 0 0
0 0 0
0 0 28
0 0 54
0 0 67
0 0 62
0 0 86
0 0 90
0 0 108
0 0 102
0 0 110
0 0 118
0 0 128
0 0 130
0 0 136
0 0 139
0 0 140
0 0 140
0 0 140
0 0 140
0 0 140
0 0 140
0 0 140
0 0 140
0 0 140
0 0 140
0 0 140
0 0 140
0 0 140
0 0 140
0 0 140
0 0 140
0 0 140
0 0 140
0 0 140
0 0 140
0 0 140
0 0 140
0 0 140
0 0 140
0 0 140
0 0 140
0 0 140
0 0 140
0 0 140
0 0 140
0 0 140
0 0 140
0 0 140
0 0 140
0 0 140
0 0 140
0 0 140
0 0 140
0 0 140
0 0 140
0 0 140
0 0 140
0 0 140
0 0 140
0 0 140
0 0 140
0 0 140
0 0 140
0 0 140
0 0 140
0 0 140
0 0 140
0 0 140
0 0 140
0 0 140
0 0 140
0 0 140
0 0 140
0 0 140
0 0 140
0 0 140
0 0 140
0 0 140
0 0 140
0 0 140
0 0 140
0 0 140
0 0 140
0 0 140
0 0 140
0 0 140
0 0 140
0 0 140
0 0 140
0 0 140
0 0 140
0 0 140
0 0 140
0 0 140
0 0 140
0 0 140
0 0 140
0 0 140
0 0 140
0 0 140
0 0 140
0 0 140
0 0 140
0 0 140
0 0 140
0 0 140
0 0 140
0 0 140
0 0 140
0 0 140
0 0 140
0 0 140
0 0 140
0 0 140
0 0 140
0 0 140
0 0 140
0 0 140
0 0 140
0 0 140
0 0 140
0 0 140
0 0 140
0 0 140
0 0 140
0 0 140
0 0 140
0 0 140
0 0 140
0 0 140
0 0 140
0 0 140
0 0 140
0 0 140
0 0 140
0 0 140
0 0 140
0 0 140
0 0 140
0 0 140
0 0 140
0 0 140
0 0 140
0 0 140
0 0 140
0 0 140
0 0 140
0 0 140
0 0 140
0 0 140
0 0 140
0 0 140
0 0 140
0 0 140
0 0 140
0 0 140
0 0 140
0 0 140
0 0 140
0 0 140
0 0 140
0 0 140
0 0 140
0 0 140
0 0 140
0 0 140
0 0 140
0 0 140
0 0 140
0 0 140
0 0 140
0 0 140
0 0 140
0 0 140
0 0 140
0 0 140
0 0 140
0 0 140
0 0 140
0 0 140
0 0 140
0 0 140
0 0 140
0 0 140
0 0 140
0 0 140
0 0 140
0 0 140
0 0 140
0 0 140
0 0 140
0 0 140
0 0 140
0 0 140
0 0 140
0 0 140
0 0 140
0 0 140
0 0 140
0 0 140
0 0 140
0 0 140
0 0 140
0 0 140
0 0 140
0 0 140
0 0 140
0 0 140
0 0 140
0 0 140
0 0 140
0 0 140
0 0 140
0 0 140
0 0 140
0 0 140
0 0 140
0 0 140
0 0 140
0 0 140
0 0 140
0 0 140
0 0 140
0 0 140
0 0 140
0 0 140
0 0 140
0 0 140
0 0 140
0 0 140
0 0 140
0 0 140
0 0 140
0 0 140
0 0 140
0 0 140
0 0 140
0 0 140
0 0 140
0 0 140
0 0 140
0 0 140
0 0 140
0 0 140
0 0 140
0 0 140
0 0 140
0 0 140
0 0 140
0 0 140
0 0 140
0 0 140
0 0 140
0 0 140
0 0 140
0 0 140
0 0 140
0 0 140
0 0 140
0 0 140
0 0 140
0 0 140
0 0 140
0 0 140
0 0 140
0 0 140
0 0 140
0 0 140
0 0 140
0 0 140
0 0 140
0 0 140
0 0 140
0 0 140
0 0 140
0 0 140
0 0 140
0 0 140
0 0 140
0 0 140
0 0 140
0 0 140
0 0 140
0 0 140
0 0 140
0 0 140
0 0 140
0 0 140
0 0 140
0 0 140
0 0 133
0 0 132
0 0 122
0 0 110
0 0 102
0 0 102
0 0 95
0 0 82
0 0 90
0 0 64
0 0 64
0 0 34
0 0 34
0 0 0
0 0 0
0 0 0
0 0 0
0 0 0
0 0 0
0 0 0
0 0 0
0 0 0
0 0 0
0 0 0
0 0 0
0 0 0
0 0 0
0 0 0
0 0 0
0 0 0
0 0 0
0 0 0
0 0 0
0 0 0
0 0 0
0 0 0
0 0 0
0 0 0
0 0 0
0 0 0
0 0 0
0 0 0
0 0 0
0 0 0
0 0 0
0 0 0
0 0 0
0 0 0
0 0 0
0 0 0
0 0 0
0 0 0
0 0 0
0 0 0
0 0 0
0 0 0
0 0 0
0 0 0
0 0 0
0 0 0
0 0 0
0 0 0
0 0 0
0 0 0
0 0 0
0 0 0
0 0 0
0 0 0
0 0 0
0 0 0
0 0 0
0 0 0
0 0 0
0 0 0
0 0 0
0 0 0
0 0 0
0 0 0
0 0 0
0 0 0
0 0 0
0 0 0
0 0 0
0 0 0
0 0 0
0 0 0
0 0 0
0 0 0
0 0 0
0 0 0
0 0 0
0 0 0
0 0 0
0 0 0
0 0 0
0 0 0
0 0 0
0 0 0
0 0 0
0 0 0
0 0 0
0 0 0
0 0 0
0 0 0
0 0 0
0 0 0
0 0 0
0 0 0
0 0 0
0 0 0
0 0 0
0 0 19
0 0 37
0 0 56
0 0 64
0 0 79
0 0 95
0 0 99
0 0 99
0 0 115
0 0 123
0 0 125
0 0 127
0 0 132
0 0 137
0 0 140
0 0 140
0 0 140
0 0 140
0 0 140
0 0 140
0 0 140
0 0 140
0 0 140
0 0 140
0 0 140
0 0 140
0 0 140
0 0 140
0 0 140
0 0 140
0 0 140
0 0 140
0 0 140
0 0 140
0 0 140
0 0 140
0 0 140
0 0 140
0 0 140
0 0 140
0 0 140
0 0 140
0 0 140
0 0 140
0 0 140
0 0 140
0 0 140
0 0 140
0 0 140
0 0 140
0 0 140
0 0 140
0 0 140
0 0 140
0 0 140
0 0 140
0 0 140
0 0 140
0 0 140
0 0 140
0 0 140
0 0 140
0 0 140
0 0 140
0 0 140
0 0 140
0 0 140
0 0 140
0 0 140
0 0 140
0 0 140
0 0 140
0 0 140
0 0 140
0 0 140
0 0 140
0 0 140
0 0 140
0 0 140
0 0 140
0 0 140
0 0 140
0 0 140
0 0 140
0 0 140
0 0 140
0 0 140
0 0 140
0 0 140
0 0 140
0 0 140
0 0 140
0 0 140
0 0 140
0 0 140
0 0 140
0 0 140
0 0 140
0 0 140
0 0 140
0 0 140
0 0 140
0 0 140
0 0 140
0 0 140
0 0 140
0 0 140
0 0 140
0 0 140
0 0 140
0 0 140
0 0 140
0 0 140
0 0 140
0 0 140
0 0 140
0 0 140
0 0 140
0 0 140
0 0 140
0 0 140
0 0 140
0 0 140
0 0 140
0 0 140
0 0 140
0 0 140
0 0 140
0 0 140
0 0 140
0 0 140
0 0 140
0 0 140
0 0 140
0 0 140
0 0 140
0 0 140
0 0 140
0 0 140
0 0 140
0 0 140
0 0 140
0 0 140
0 0 140
0 0 140
0 0 140
0 0 140
0 0 140
0 0 140
0 0 140
0 0 140
0 0 140
0 0 140
0 0 140
0 0 140
0 0 140
0 0 140
0 0 140
0 0 140
0 0 140
0 0 140
0 0 140
0 0 140
0 0 140
0 0 140
0 0 140
0 0 140
0 0 140
0 0 140
0 0 140
0 0 140
0 0 140
0 0 140
0 0 140
0 0 140
0 0 140
0 0 140
0 0 140
0 0 140
0 0 140
0 0 140
0 0 140
0 0 140
0 0 140
0 0 140
0 0 140
0 0 140
0 0 140
0 0 140
0 0 140
0 0 140
0 0 140
0 0 140
0 0 140
0 0 140
0 0 140
0 0 140
0 0 140
0 0 140
0 0 140
0 0 140
0 0 140
0 0 140
0 0 140
0 0 140
0 0 140
0 0 140
0 0 140
0 0 140
0 0 140
0 0 140
0 0 140
0 0 140
0 0 140
0 0 140
0 0 140
0 0 140
0 0 140
0 0 140
0 0 140
0 0 140
0 0 140
0 0 140
0 0 140
0 0 140
0 0 140
0 0 140
0 0 140
0 0 140
0 0 140
0 0 140
0 0 140
0 0 140
0 0 140
0 0 140
0 0 140
0 0 140
0 0 140
0 0 140
0 0 140
0 0 140
0 0 140
0 0 140
0 0 140
0 0 140
0 0 140
0 0 140
0 0 140
0 0 140
0 0 140
0 0 140
0 0 140
0 0 140
0 0 140
0 0 140
0 0 140
0 0 140
0 0 140
0 0 140
0 0 140
0 0 140
0 0 140
0 0 140
0 0 140
0 0 140
0 0 140
0 0 140
0 0 140
0 0 140
0 0 140
0 0 140
0 0 140
0 0 140
0 0 140
0 0 140
0 0 140
0 0 140
0 0 140
0 0 140
0 0 140
0 0 140
0 0 140
0 0 140
0 0 140
0 0 140
0 0 140
0 0 140
0 0 140
0 0 138
0 0 135
0 0 125
0 0 124
0 0 118
0 0 104
0 0 102
0 0 90
0 0 72
0 0 68
0 0 65
0 0 39
0 0 37
0 0 19
0 0 0
0 0 0
0 0 0
0 0 0
0 0 0
0 0 0
0 0 0
0 0 0
0 0 0
0 0 0
0 0 0
0 0 0
0 0 0
0 0 0
0 0 0
0 0 0
0 0 0
0 0 0
0 0 0
0 0 0
0 0 0
0 0 0
0 0 0
0 0 0
0 0 0
0 0 0
0 0 0
0 0 0
0 0 0
0 0 0
0 0 0
0 0 0
0 0 0
0 0 0
0 0 0
0 0 0
0 0 0
0 0 0
0 0 0
0 0 0
0 0 0
0 0 0
0 0 0
0 0 0
0 0 0
0 0 0
0 0 0
0 0 0
0 0 0
0 0 0
0 0 0
0 0 0
0 0 0
0 0 0
0 0 0
0 0 0
0 0 0
0 0 0
0 0 0
0 0 0
0 0 0
0 0 0
0 0 0
0 0 0
0 0 0
0 0 0
0 0 0
0 0 0
0 0 0
0 0 0
0 0 0
0 0 0
0 0 0
0 0 0
0 0 0
0 0 0
0 0 0
0 0 0
0 0 0
0 0 0
0 0 0
0 0 0
0 0 0
0 0 0
0 0 0
0 0 0
0 0 0
0 0 0
0 0 0
0 0 0
0 0 0
0 0 0
0 0 0
0 0 0
0 0 0
0 0 0
0 0 0
0 0 0
0 0 19
0 0 39
0 0 59
0 0 54
0 0 86
0 0 88
0 0 91
0 0 103
0 0 107
0 0 114
0 0 116
0 0 121
0 0 131
0 0 135
0 0 140
0 0 140
0 0 140
0 0 140
0 0 140
0 0 140
0 0 140
0 0 140
0 0 140
0 0 140
0 0 140
0 0 140
0 0 140
0 0 140
0 0 140
0 0 140
0 0 140
0 0 140
0 0 140
0 0 140
0 0 140
0 0 140
0 0 140
0 0 140
0 0 140
0 0 140
0 0 140
0 0 140
0 0 140
0 0 140
0 0 140
0 0 140
0 0 140
0 0 140
0 0 140
0 0 140
0 0 140
0 0 140
0 0 140
0 0 140
0 0 140
0 0 140
0 0 140
0 0 140
0 0 140
0 0 140
0 0 140
0 0 140
0 0 140
0 0 140
0 0 140
0 0 140
0 0 140
0 0 140
0 0 140
0 0 140
0 0 140
0 0 140
0 0 140
0 0 140
0 0 140
0 0 140
0 0 140
0 0 140
0 0 140
0 0 140
0 0 140
0 0 140
0 0 140
0 0 140
0 0 140
0 0 140
0 0 140
0 0 140
0 0 140
0 0 140
0 0 140
0 0 140
0 0 140
0 0 140
0 0 140
0 0 140
0 0 140
0 0 140
0 0 140
0 0 140
0 0 140
0 0 140
0 0 140
0 0 140
0 0 140
0 0 140
0 0 140
0 0 140
0 0 140
0 0 140
0 0 140
0 0 140
0 0 140
0 0 140
0 0 140
0 0 140
0 0 140
0 0 140
0 0 140
0 0 140
0 0 140
0 0 140
0 0 140
0 0 140
0 0 140
0 0 140
0 0 140
0 0 140
0 0 140
0 0 140
0 0 140
0 0 140
0 0 140
0 0 140
0 0 140
0 0 140
0 0 140
0 0 140
0 0 140
0 0 140
0 0 140
0 0 140
0 0 140
0 0 140
0 0 140
0 0 140
0 0 140
0 0 140
0 0 140
0 0 140
0 0 140
0 0 140
0 0 140
0 0 140
0 0 140
0 0 140
0 0 140
0 0 140
0 0 140
0 0 140
0 0 140
0 0 140
0 0 140
0 0 140
0 0 140
0 0 140
0 0 140
0 0 140
0 0 140
0 0 140
0 0 140
0 0 140
0 0 140
0 0 140
0 0 140
0 0 140
0 0 140
0 0 140
0 0 140
0 0 140
0 0 140
0 0 140
0 0 140
0 0 140
0 0 140
0 0 140
0 0 140
0 0 140
0 0 140
0 0 140
0 0 140
0 0 140
0 0 140
0 0 140
0 0 140
0 0 140
0 0 140
0 0 140
0 0 140
0 0 140
0 0 140
0 0 140
0 0 140
0 0 140
0 0 140
0 0 140
0 0 140
0 0 140
0 0 140
0 0 140
0 0 140
0 0 140
0 0 140
0 0 140
0 0 140
0 0 140
0 0 140
0 0 140
0 0 140
0 0 140
0 0 140
0 0 140
0 0 140
0 0 140
0 0 140
0 0 140
0 0 140
0 0 140
0 0 140
0 0 140
0 0 140
0 0 140
0 0 140
0 0 140
0 0 140
0 0 140
0 0 140
0 0 140
0 0 140
0 0 140
0 0 140
0 0 140
0 0 140
0 0 140
0 0 140
0 0 140
0 0 140
0 0 140
0 0 140
0 0 140
0 0 140
0 0 140
0 0 140
0 0 140
0 0 140
0 0 140
0 0 140
0 0 140
0 0 140
0 0 140
0 0 140
0 0 140
0 0 140
0 0 140
0 0 140
0 0 140
0 0 140
0 0 140
0 0 140
0 0 140
0 0 140
0 0 140
0 0 140
0 0 140
0 0 140
0 0 140
0 0 140
0 0 140
0 0 140
0 0 140
0 0 140
0 0 140
0 0 140
0 0 140
0 0 140
0 0 140
0 0 140
0 0 140
0 0 133
0 0 133
0 0 125
0 0 113
0 0 109
0 0 109
0 0 101
0 0 87
0 0 85
0 0 56
0 0 72
0 0 42
0 0 31
0 0 14
0 0 0
0 0 0
0 0 0
0 0 0
0 0 0
0 0 0
0 0 0
0 0 0
0 0 0
0 0 0
0 0 0
0 0 0
0 0 0
0 0 0
0 0 0
0 0 0
0 0 0
0 0 0
0 0 0
0 0 0
0 0 0
0 0 0
0 0 0
0 0 0
0 0 0
0 0 0
0 0 0
0 0 0
0 0 0
0 0 0
0 0 0
0 0 0
0 0 0
0 0 0
0 0 0
0 0 0
0 0 0
0 0 0
0 0 0
0 0 0
0 0 0
0 0 0
0 0 0
0 0 0
0 0 0
0 0 0
0 0 0
0 0 0
0 0 0
0 0 0
0 0 0
0 0 0
0 0 0
0 0 0
0 0 0
0 0 0
0 0 0
0 0 0
0 0 0
0 0 0
0 0 0
0 0 0
0 0 0
0 0 0
0 0 0
0 0 0
0 0 0
0 0 0
0 0 0
0 0 0
0 0 0
0 0 0
0 0 0
0 0 0
0 0 0
0 0 0
0 0 0
0 0 0
0 0 0
0 0 0
0 0 0
0 0 0
0 0 0
0 0 0
0 0 0
0 0 0
0 0 0
0 0 0
0 0 0
0 0 0
0 0 0
0 0 0
0 0 0
0 0 0
0 0 0
0 0 0
0 0 0
0 0 0
0 0 14
0 0 39
0 0 44
0 0 65
0 0 71
0 0 70
0 0 86
0 0 106
0 0 102
0 0 117
0 0 120
0 0 119
0 0 130
0 0 136
0 0 138
0 0 140
0 0 140
0 0 140
0 0 140
0 0 140
0 0 140
0 0 140
0 0 140
0 0 140
0 0 140
0 0 140
0 0 140
0 0 140
0 0 140
0 0 140
0 0 140
0 0 140
0 0 140
0 0 140
0 0 140
0 0 140
0 0 140
0 0 140
0 0 140
0 0 140
0 0 140
0 0 140
0 0 140
0 0 140
0 0 140
0 0 140
0 0 140
0 0 140
0 0 140
0 0 140
0 0 140
0 0 140
0 0 140
0 0 140
0 0 140
0 0 140
0 0 140
0 0 140
0 0 140
0 0 140
0 0 140
0 0 140
0 0 140
0 0 140
0 0 140
0 0 140
0 0 140
0 0 140
0 0 140
0 0 140
0 0 140
0 0 140
0 0 140
0 0 140
0 0 140
0 0 140
0 0 140
0 0 140
0 0 140
0 0 140
0 0 140
0 0 140
0 0 140
0 0 140
0 0 140
0 0 140
0 0 140
0 0 140
0 0 140
0 0 140
0 0 140
0 0 140
0 0 140
0 0 140
0 0 140
0 0 140
0 0 140
0 0 140
0 0 140
0 0 140
0 0 140
0 0 140
0 0 140
0 0 140
0 0 140
0 0 140
0 0 140
0 0 140
0 0 140
0 0 140
0 0 140
0 0 140
0 0 140
0 0 140
0 0 140
0 0 140
0 0 140
0 0 140
0 0 140
0 0 140
0 0 140
0 0 140
0 0 140
0 0 140
0 0 140
0 0 140
0 0 140
0 0 140
0 0 140
0 0 140
0 0 140
0 0 140
0 0 140
0 0 140
0 0 140
0 0 140
0 0 140
0 0 140
0 0 140
0 0 140
0 0 140
0 0 140
0 0 140
0 0 140
0 0 140
0 0 140
0 0 140
0 0 140
0 0 140
0 0 140
0 0 140
0 0 140
0 0 140
0 0 140
0 0 140
0 0 140
0 0 140
0 0 140
0 0 140
0 0 140
0 0 140
0 0 140
0 0 140
0 0 140
0 0 140
0 0 140
0 0 140
0 0 140
0 0 140
0 0 140
0 0 140
0 0 140
0 0 140
0 0 140
0 0 140
0 0 140
0 0 140
0 0 140
0 0 140
0 0 140
0 0 140
0 0 140
0 0 140
0 0 140
0 0 140
0 0 140
0 0 140
0 0 140
0 0 140
0 0 140
0 0 140
0 0 140
0 0 140
0 0 140
0 0 140
0 0 140
0 0 140
0 0 140
0 0 140
0 0 140
0 0 140
0 0 140
0 0 140
0 0 140
0 0 140
0 0 140
0 0 140
0 0 140
0 0 140
0 0 140
0 0 140
0 0 140
0 0 140
0 0 140
0 0 140
0 0 140
0 0 140
0 0 140
0 0 140
0 0 140
0 0 140
0 0 140
0 0 140
0 0 140
0 0 140
0 0 140
0 0 140
0 0 140
0 0 140
0 0 140
0 0 140
0 0 140
0 0 140
0 0 140
0 0 140
0 0 140
0 0 140
0 0 140
0 0 140
0 0 140
0 0 140
0 0 140
0 0 140
0 0 140
0 0 140
0 0 140
0 0 140
0 0 140
0 0 140
0 0 140
0 0 140
0 0 140
0 0 140
0 0 140
0 0 140
0 0 140
0 0 140
0 0 140
0 0 140
0 0 140
0 0 140
0 0 140
0 0 140
0 0 140
0 0 140
0 0 140
0 0 140
0 0 140
0 0 140
0 0 140
0 0 140
0 0 140
0 0 140
0 0 140
0 0 140
0 0 140
0 0 140
0 0 140
0 0 140
0 0 140
0 0 140
0 0 140
0 0 140
0 0 140
0 0 140
0 0 140
0 0 140
0 0 136
0 0 133
0 0 125
0 0 124
0 0 116
0 0 103
0 0 111
0 0 101
0 0 87
0 0 90
0 0 70
0 0 67
0 0 42
0 0 24
0 0 0
0 0 0
0 0 0
0 0 0
0 0 0
0 0 0
0 0 0
0 0 0
0 0 0
0 0 0
0 0 0
0 0 0
0 0 0
0 0 0
0 0 0
0 0 0
0 0 0
0 0 0
0 0 0
0 0 0
0 0 0
0 0 0
0 0 0
0 0 0
0 0 0
0 0 0
0 0 0
0 0 0
0 0 0
0 0 0
0 0 0
0 0 0
0 0 0
0 0 0
0 0 0
0 0 0
0 0 0
0 0 0
0 0 0
0 0 0
0 0 0
0 0 0
0 0 0
0 0 0
0 0 0
0 0 0
0 0 0
0 0 0
0 0 0
0 0 0
0 0 0
0 0 0
0 0 0
0 0 0
0 0 0
0 0 0
0 0 0
0 0 0
0 0 0
0 0 0
0 0 0
0 0 0
0 0 0
0 0 0
0 0 0
0 0 0
0 0 0
0 0 0
0 0 0
0 0 0
0 0 0
0 0 0
0 0 0
0 0 0
0 0 0
0 0 0
0 0 0
0 0 0
0 0 0
0 0 0
0 0 0
0 0 0
0 0 0
0 0 0
0 0 0
0 0 0
0 0 0
0 0 0
0 0 0
0 0 0
0 0 0
0 0 0
0 0 0
0 0 0
0 0 0
0 0 0
0 0 0
0 0 0
0 0 0
0 0 0
0 0 28
0 0 50
0 0 70
0 0 68
0 0 80
0 0 91
0 0 91
0 0 104
0 0 115
0 0 117
0 0 126
0 0 124
0 0 134
0 0 139
0 0 140
0 0 140
0 0 140
0 0 140
0 0 140
0 0 140
0 0 140
0 0 140
0 0 140
0 0 140
0 0 140
0 0 140
0 0 140
0 0 140
0 0 140
0 0 140
0 0 140
0 0 140
0 0 140
0 0 140
0 0 140
0 0 140
0 0 140
0 0 140
0 0 140
0 0 140
0 0 140
0 0 140
0 0 140
0 0 140
0 0 140
0 0 140
0 0 140
0 0 140
0 0 140
0 0 140
0 0 140
0 0 140
0 0 140
0 0 140
0 0 140
0 0 140
0 0 140
0 0 140
0 0 140
0 0 140
0 0 140
0 0 140
0 0 140
0 0 140
0 0 140
0 0 140
0 0 140
0 0 140
0 0 140
0 0 140
0 0 140
0 0 140
0 0 140
0 0 140
0 0 140
0 0 140
0 0 140
0 0 140
0 0 140
0 0 140
0 0 140
0 0 140
0 0 140
0 0 140
0 0 140
0 0 140
0 0 140
0 0 140
0 0 140
0 0 140
0 0 140
0 0 140
0 0 140
0 0 140
0 0 140
0 0 140
0 0 140
0 0 140
0 0 140
0 0 140
0 0 140
0 0 140
0 0 140
0 0 140
0 0 140
0 0 140
0 0 140
0 0 140
0 0 140
0 0 140
0 0 140
0 0 140
0 0 140
0 0 140
0 0 140
0 0 140
0 0 140
0 0 140
0 0 140
0 0 140
0 0 140
0 0 140
0 0 140
0 0 140
0 0 140
0 0 140
0 0 140
0 0 140
0 0 140
0 0 140
0 0 140
0 0 140
0 0 140
0 0 140
0 0 140
0 0 140
0 0 140
0 0 140
0 0 140
0 0 140
0 0 140
0 0 140
0 0 140
0 0 140
0 0 140
0 0 140
0 0 140
0 0 140
0 0 140
0 0 140
0 0 140
0 0 140
0 0 140
0 0 140
0 0 140
0 0 140
0 0 140
0 0 140
0 0 140
0 0 140
0 0 140
0 0 140
0 0 140
0 0 140
0 0 140
0 0 140
0 0 140
0 0 140
0 0 140
0 0 140
0 0 140
0 0 140
0 0 140
0 0 140
0 0 140
0 0 140
0 0 140
0 0 140
0 0 140
0 0 140
0 0 140
0 0 140
0 0 140
0 0 140
0 0 140
0 0 140
0 0 140
0 0 140
0 0 140
0 0 140
0 0 140
0 0 140
0 0 140
0 0 140
0 0 140
0 0 140
0 0 140
0 0 140
0 0 140
0 0 140
0 0 140
0 0 140
0 0 140
0 0 140
0 0 140
0 0 140
0 0 140
0 0 140
0 0 140
0 0 140
0 0 140
0 0 140
0 0 140
0 0 140
0 0 140
0 0 140
0 0 140
0 0 140
0 0 140
0 0 140
0 0 140
0 0 140
0 0 140
0 0 140
0 0 140
0 0 140
0 0 140
0 0 140
0 0 140
0 0 140
0 0 140
0 0 140
0 0 140
0 0 140
0 0 140
0 0 140
0 0 140
0 0 140
0 0 140
0 0 140
0 0 140
0 0 140
0 0 140
0 0 140
0 0 140
0 0 140
0 0 140
0 0 140
0 0 140
0 0 140
0 0 140
0 0 140
0 0 140
0 0 140
0 0 140
0 0 140
0 0 140
0 0 140
0 0 140
0 0 140
0 0 140
0 0 140
0 0 140
0 0 140
0 0 140
0 0 140
0 0 140
0 0 140
0 0 140
0 0 140
0 0 140
0 0 140
0 0 140
0 0 140
0 0 140
0 0 140
0 0 140
0 0 140
0 0 140
0 0 140
0 0 140
0 0 140
0 0 140
0 0 140
0 0 140
0 0 140
0 0 136
0 0 133
0 0 122
0 0 118
0 0 105
0 0 101
0 0 99
0 0 91
0 0 96
0 0 82
0 0 71
0 0 50
0 0 37
0 0 14
0 0 0
0 0 0
0 0 0
0 0 0
0 0 0
0 0 0
0 0 0
0 0 0
0 0 0
0 0 0
0 0 0
0 0 0
0 0 0
0 0 0
0 0 0
0 0 0
0 0 0
0 0 0
0 0 0
0 0 0
0 0 0
0 0 0
0 0 0
0 0 0
0 0 0
0 0 0
0 0 0
0 0 0
0 0 0
0 0 0
0 0 0
0 0 0
0 0 0
0 0 0
0 0 0
0 0 0
0 0 0
0 0 0
0 0 0
0 0 0
0 0 0
0 0 0
0 0 0
0 0 0
0 0 0
0 0 0
0 0 0
0 0 0
0 0 0
0 0 0
0 0 0
0 0 0
0 0 0
0 0 0
0 0 0
0 0 0
0 0 0
0 0 0
0 0 0
0 0 0
0 0 0
0 0 0
0 0 0
0 0 0
0 0 0
0 0 0
0 0 0
0 0 0
0 0 0
0 0 0
0 0 0
0 0 0
0 0 0
0 0 0
0 0 0
0 0 0
0 0 0
0 0 0
0 0 0
0 0 0
0 0 0
0 0 0
0 0 0
0 0 0
0 0 0
0 0 0
0 0 0
0 0 0
0 0 0
0 0 0
0 0 0
0 0 0
0 0 0
0 0 0
0 0 0
0 0 0
0 0 0
0 0 0
0 0 0
0 0 0
0 0 19
0 0 31
0 0 59
0 0 71
0 0 79
0 0 90
0 0 98
0 0 104
0 0 107
0 0 115
0 0 123
0 0 120
0 0 129
0 0 135
0 0 139
0 0 140
0 0 140
0 0 140
0 0 140
0 0 140
0 0 140
0 0 140
0 0 140
0 0 140
0 0 140
0 0 140
0 0 140
0 0 140
0 0 140
0 0 140
0 0 140
0 0 140
0 0 140
0 0 140
0 0 140
0 0 140
0 0 140
0 0 140
0 0 140
0 0 140
0 0 140
0 0 140
0 0 140
0 0 140
0 0 140
0 0 140
0 0 140
0 0 140
0 0 140
0 0 140
0 0 140
0 0 140
0 0 140
0 0 140
0 0 140
0 0 140
0 0 140
0 0 140
0 0 140
0 0 140
0 0 140
0 0 140
0 0 140
0 0 140
0 0 140
0 0 140
0 0 140
0 0 140
0 0 140
0 0 140
0 0 140
0 0 140
0 0 140
0 0 140
0 0 140
0 0 140
0 0 140
0 0 140
0 0 140
0 0 140
0 0 140
0 0 140
0 0 140
0 0 140
0 0 140
0 0 140
0 0 140
0 0 140
0 0 140
0 0 140
0 0 140
0 0 140
0 0 140
0 0 140
0 0 140
0 0 140
0 0 140
0 0 140
0 0 140
0 0 140
0 0 140
0 0 140
0 0 140
0 0 140
0 0 140
0 0 140
0 0 140
0 0 140
0 0 140
0 0 140
0 0 140
0 0 140
0 0 140
0 0 140
0 0 140
0 0 140
0 0 140
0 0 140
0 0 140
0 0 140
0 0 140
0 0 140
0 0 140
0 0 140
0 0 140
0 0 140
0 0 140
0 0 140
0 0 140
0 0 140
0 0 140
0 0 140
0 0 140
0 0 140
0 0 140
0 0 140
0 0 140
0 0 140
0 0 140
0 0 140
0 0 140
0 0 140
0 0 140
0 0 140
0 0 140
0 0 140
0 0 140
0 0 140
0 0 140
0 0 140
0 0 140
0 0 140
0 0 140
0 0 140
0 0 140
0 0 140
0 0 140
0 0 140
0 0 140
0 0 140
0 0 140
0 0 140
0 0 140
0 0 140
0 0 140
0 0 140
0 0 140
0 0 140
0 0 140
0 0 140
0 0 140
0 0 140
0 0 140
0 0 140
0 0 140
0 0 140
0 0 140
0 0 140
0 0 140
0 0 140
0 0 140
0 0 140
0 0 140
0 0 140
0 0 140
0 0 140
0 0 140
0 0 140
0 0 140
0 0 140
0 0 140
0 0 140
0 0 140
0 0 140
0 0 140
0 0 140
0 0 140
0 0 140
0 0 140
0 0 140
0 0 140
0 0 140
0 0 140
0 0 140
0 0 140
0 0 140
0 0 140
0 0 140
0 0 140
0 0 140
0 0 140
0 0 140
0 0 140
0 0 140
0 0 140
0 0 140
0 0 140
0 0 140
0 0 140
0 0 140
0 0 140
0 0 140
0 0 140
0 0 140
0 0 140
0 0 140
0 0 140
0 0 140
0 0 140
0 0 140
0 0 140
0 0 140
0 0 140
0 0 140
0 0 140
0 0 140
0 0 140
0 0 140
0 0 140
0 0 140
0 0 140
0 0 140
0 0 140
0 0 140
0 0 140
0 0 140
0 0 140
0 0 140
0 0 140
0 0 140
0 0 140
0 0 140
0 0 140
0 0 140
0 0 140
0 0 140
0 0 140
0 0 140
0 0 140
0 0 140
0 0 140
0 0 140
0 0 140
0 0 140
0 0 140
0 0 140
0 0 140
0 0 140
0 0 140
0 0 140
0 0 140
0 0 140
0 0 140
0 0 140
0 0 140
0 0 140
0 0 140
0 0 140
0 0 140
0 0 140
0 0 140
0 0 140
0 0 140
0 0 140
0 0 140
0 0 136
0 0 132
0 0 124
0 0 124
0 0 117
0 0 113
0 0 97
0 0 104
0 0 94
0 0 78
0 0 74
0 0 65
0 0 37
0 0 34
0 0 14
0 0 0
0 0 0
0 0 0
0 0 0
0 0 0
0 0 0
0 0 0
0 0 0
0 0 0
0 0 0
0 0 0
0 0 0
0 0 0
0 0 0
0 0 0
0 0 0
0 0 0
0 0 0
0 0 0
0 0 0
0 0 0
0 0 0
0 0 0
0 0 0
0 0 0
0 0 0
0 0 0
0 0 0
0 0 0
0 0 0
0 0 0
0 0 0
0 0 0
0 0 0
0 0 0
0 0 0
0 0 0
0 0 0
0 0 0
0 0 0
0 0 0
0 0 0
0 0 0
0 0 0
0 0 0
0 0 0
0 0 0
0 0 0
0 0 0
0 0 0
0 0 0
0 0 0
0 0 0
0 0 0
0 0 0
0 0 0
0 0 0
0 0 0
0 0 0
0 0 0
0 0 0
0 0 0
0 0 0
0 0 0
0 0 0
0 0 0
0 0 0
0 0 0
0 0 0
0 0 0
0 0 0
0 0 0
0 0 0
0 0 0
0 0 0
0 0 0
0 0 0
0 0 0
0 0 0
0 0 0
0 0 0
0 0 0
0 0 0
0 0 0
0 0 0
0 0 0
0 0 0
0 0 0
0 0 0
0 0 0
0 0 0
0 0 0
0 0 0
0 0 0
0 0 0
0 0 0
0 0 0
0 0 0
0 0 0
0 0 0
0 0 0
0 0 34
0 0 59
0 0 71
0 0 85
0 0 86
0 0 91
0 0 99
0 0 103
0 0 115
0 0 121
0 0 125
0 0 129
0 0 131
0 0 138
0 0 140
0 0 140
0 0 140
0 0 140
0 0 140
0 0 140
0 0 140
0 0 140
0 0 140
0 0 140
0 0 140
0 0 140
0 0 140
0 0 140
0 0 140
0 0 140
0 0 140
0 0 140
0 0 140
0 0 140
0 0 140
0 0 140
0 0 140
0 0 140
0 0 140
0 0 140
0 0 140
0 0 140
0 0 140
0 0 140
0 0 140
0 0 140
0 0 140
0 0 140
0 0 140
0 0 140
0 0 140
0 0 140
0 0 140
0 0 140
0 0 140
0 0 140
0 0 140
0 0 140
0 0 140
0 0 140
0 0 140
0 0 140
0 0 140
0 0 140
0 0 140
0 0 140
0 0 140
0 0 140
0 0 140
0 0 140
0 0 140
0 0 140
0 0 140
0 0 140
0 0 140
0 0 140
0 0 140
0 0 140
0 0 140
0 0 140
0 0 140
0 0 140
0 0 140
0 0 140
0 0 140
0 0 140
0 0 140
0 0 140
0 0 140
0 0 140
0 0 140
0 0 140
0 0 140
0 0 140
0 0 140
0 0 140
0 0 140
0 0 140
0 0 140
0 0 140
0 0 140
0 0 140
0 0 140
0 0 140
0 0 140
0 0 140
0 0 140
0 0 140
0 0 140
0 0 140
0 0 140
0 0 140
0 0 140
0 0 140
0 0 140
0 0 140
0 0 140
0 0 140
0 0 140
0 0 140
0 0 140
0 0 140
0 0 140
0 0 140
0 0 140
0 0 140
0 0 140
0 0 140
0 0 140
0 0 140
0 0 140
0 0 140
0 0 140
0 0 140
0 0 140
0 0 140
0 0 140
0 0 140
0 0 140
0 0 140
0 0 140
0 0 140
0 0 140
0 0 140
0 0 140
0 0 140
0 0 140
0 0 140
0 0 140
0 0 140
0 0 140
0 0 140
0 0 140
0 0 140
0 0 140
0 0 140
0 0 140
0 0 140
0 0 140
0 0 140
0 0 140
0 0 140
0 0 140
0 0 140
0 0 140
0 0 140
0 0 140
0 0 140
0 0 140
0 0 140
0 0 140
0 0 140
0 0 140
0 0 140
0 0 140
0 0 140
0 0 140
0 0 140
0 0 140
0 0 140
0 0 140
0 0 140
0 0 140
0 0 140
0 0 140
0 0 140
0 0 140
0 0 140
0 0 140
0 0 140
0 0 140
0 0 140
0 0 140
0 0 140
0 0 140
0 0 140
0 0 140
0 0 140
0 0 140
0 0 140
0 0 140
0 0 140
0 0 140
0 0 140
0 0 140
0 0 140
0 0 140
0 0 140
0 0 140
0 0 140
0 0 140
0 0 140
0 0 140
0 0 140
0 0 140
0 0 140
0 0 140
0 0 140
0 0 140
0 0 140
0 0 140
0 0 140
0 0 140
0 0 140
0 0 140
0 0 140
0 0 140
0 0 140
0 0 140
0 0 140
0 0 140
0 0 140
0 0 140
0 0 140
0 0 140
0 0 140
0 0 140
0 0 140
0 0 140
0 0 140
0 0 140
0 0 140
0 0 140
0 0 140
0 0 140
0 0 140
0 0 140
0 0 140
0 0 140
0 0 140
0 0 140
0 0 140
0 0 140
0 0 140
0 0 140
0 0 140
0 0 140
0 0 140
0 0 140
0 0 140
0 0 140
0 0 140
0 0 140
0 0 140
0 0 140
0 0 140
0 0 140
0 0 140
0 0 140
0 0 140
0 0 140
0 0 140
0 0 140
0 0 140
0 0 140
0 0 140
0 0 140
0 0 140
0 0 140
0 0 140
0 0 140
0 0 140
0 0 140
0 0 140
0 0 136
0 0 135
0 0 130
0 0 111
0 0 120
0 0 112
0 0 98
0 0 95
0 0 84
0 0 80
0 0 76
0 0 56
0 0 62
0 0 28
0 0 0
0 0 0
0 0 0
0 0 0
0 0 0
0 0 0
0 0 0
0 0 0
0 0 0
0 0 0
0 0 0
0 0 0
0 0 0
0 0 0
0 0 0
0 0 0
0 0 0
0 0 0
0 0 0
0 0 0
0 0 0
0 0 0
0 0 0
0 0 0
0 0 0
0 0 0
0 0 0
0 0 0
0 0 0
0 0 0
0 0 0
0 0 0
0 0 0
0 0 0
0 0 0
0 0 0
0 0 0
0 0 0
0 0 0
0 0 0
0 0 0
0 0 0
0 0 0
0 0 0
0 0 0
0 0 0
0 0 0
0 0 0
0 0 0
0 0 0
0 0 0
0 0 0
0 0 0
0 0 0
0 0 0
0 0 0
0 0 0
0 0 0
0 0 0
0 0 0
0 0 0
0 0 0
0 0 0
0 0 0
0 0 0
0 0 0
0 0 0
0 0 0
0 0 0
0 0 0
0 0 0
0 0 0
0 0 0
0 0 0
0 0 0
0 0 0
0 0 0
0 0 0
0 0 0
0 0 0
0 0 0
0 0 0
0 0 0
0 0 0
0 0 0
0 0 0
0 0 0
0 0 0
0 0 0
0 0 0
0 0 0
0 0 0
0 0 0
0 0 0
0 0 0
0 0 0
0 0 0
0 0 0
0 0 0
0 0 0
0 0 0
0 0 0
0 0 19
0 0 46
0 0 65
0 0 62
0 0 68
0 0 82
0 0 100
0 0 97
0 0 106
0 0 113
0 0 119
0 0 123
0 0 130
0 0 135
0 0 140
0 0 140
0 0 140
0 0 140
0 0 140
0 0 140
0 0 140
0 0 140
0 0 140
0 0 140
0 0 140
0 0 140
0 0 140
0 0 140
0 0 140
0 0 140
0 0 140
0 0 140
0 0 140
0 0 140
0 0 140
0 0 140
0 0 140
0 0 140
0 0 140
0 0 140
0 0 140
0 0 140
0 0 140
0 0 140
0 0 140
0 0 140
0 0 140
0 0 140
0 0 140
0 0 140
0 0 140
0 0 140
0 0 140
0 0 140
0 0 140
0 0 140
0 0 140
0 0 140
0 0 140
0 0 140
0 0 140
0 0 140
0 0 140
0 0 140
0 0 140
0 0 140
0 0 140
0 0 140
0 0 140
0 0 140
0 0 140
0 0 140
0 0 140
0 0 140
0 0 140
0 0 140
0 0 140
0 0 140
0 0 140
0 0 140
0 0 140
0 0 140
0 0 140
0 0 140
0 0 140
0 0 140
0 0 140
0 0 140
0 0 140
0 0 140
0 0 140
0 0 140
0 0 140
0 0 140
0 0 140
0 0 140
0 0 140
0 0 140
0 0 140
0 0 140
0 0 140
0 0 140
0 0 140
0 0 140
0 0 140
0 0 140
0 0 140
0 0 140
0 0 140
0 0 140
0 0 140
0 0 140
0 0 140
0 0 140
0 0 140
0 0 140
0 0 140
0 0 140
0 0 140
0 0 140
0 0 140
0 0 140
0 0 140
0 0 140
0 0 140
0 0 140
0 0 140
0 0 140
0 0 140
0 0 140
0 0 140
0 0 140
0 0 140
0 0 140
0 0 140
0 0 140
0 0 140
0 0 140
0 0 140
0 0 140
0 0 140
0 0 140
0 0 140
0 0 140
0 0 140
0 0 140
0 0 140
0 0 140
0 0 140
0 0 140
0 0 140
0 0 140
0 0 140
0 0 140
0 0 140
0 0 140
0 0 140
0 0 140
0 0 140
0 0 140
0 0 140
0 0 140
0 0 140
0 0 140
0 0 140
0 0 140
0 0 140
0 0 140
0 0 140
0 0 140
0 0 140
0 0 140
0 0 140
0 0 140
0 0 140
0 0 140
0 0 140
0 0 140
0 0 140
0 0 140
0 0 140
0 0 140
0 0 140
0 0 140
0 0 140
0 0 140
0 0 140
0 0 140
0 0 140
0 0 140
0 0 140
0 0 140
0 0 140
0 0 140
0 0 140
0 0 140
0 0 140
0 0 140
0 0 140
0 0 140
0 0 140
0 0 140
0 0 140
0 0 140
0 0 140
0 0 140
0 0 140
0 0 140
0 0 140
0 0 140
0 0 140
0 0 140
0 0 140
0 0 140
0 0 140
0 0 140
0 0 140
0 0 140
0 0 140
0 0 140
0 0 140
0 0 140
0 0 140
0 0 140
0 0 140
0 0 140
0 0 140
0 0 140
0 0 140
0 0 140
0 0 140
0 0 140
0 0 140
0 0 140
0 0 140
0 0 140
0 0 140
0 0 140
0 0 140
0 0 140
0 0 140
0 0 140
0 0 140
0 0 140
0 0 140
0 0 140
0 0 140
0 0 140
0 0 140
0 0 140
0 0 140
0 0 140
0 0 140
0 0 140
0 0 140
0 0 140
0 0 140
0 0 140
0 0 140
0 0 140
0 0 140
0 0 140
0 0 140
0 0 140
0 0 140
0 0 140
0 0 140
0 0 140
0 0 140
0 0 140
0 0 140
0 0 140
0 0 140
0 0 140
0 0 140
0 0 140
0 0 140
0 0 140
0 0 140
0 0 140
0 0 140
0 0 140
0 0 140
0 0 138
0 0 136
0 0 131
0 0 123
0 0 113
0 0 116
0 0 110
0 0 81
0 0 88
0 0 84
0 0 84
0 0 72
0 0 57
0 0 42
0 0 0
0 0 0
0 0 0
0 0 0
0 0 0
0 0 0
0 0 0
0 0 0
0 0 0
0 0 0
0 0 0
0 0 0
0 0 0
0 0 0
0 0 0
0 0 0
0 0 0
0 0 0
0 0 0
0 0 0
0 0 0
0 0 0
0 0 0
0 0 0
0 0 0
0 0 0
0 0 0
0 0 0
0 0 0
0 0 0
0 0 0
0 0 0
0 0 0
0 0 0
0 0 0
0 0 0
0 0 0
0 0 0
0 0 0
0 0 0
0 0 0
0 0 0
0 0 0
0 0 0
0 0 0
0 0 0
0 0 0
0 0 0
0 0 0
0 0 0
0 0 0
0 0 0
0 0 0
0 0 0
0 0 0
0 0 0
0 0 0
0 0 0
0 0 0
0 0 0
0 0 0
0 0 0
0 0 0
0 0 0
0 0 0
0 0 0
0 0 0
0 0 0
0 0 0
0 0 0
0 0 0
0 0 0
0 0 0
0 0 0
0 0 0
0 0 0
0 0 0
0 0 0
0 0 0
0 0 0
0 0 0
0 0 0
0 0 0
0 0 0
0 0 0
0 0 0
0 0 0
0 0 0
0 0 0
0 0 0
0 0 0
0 0 0
0 0 0
0 0 0
0 0 0
0 0 0
0 0 0
0 0 0
0 0 0
0 0 0
0 0 0
0 0 0
0 0 0
0 0 19
0 0 42
0 0 37
0 0 61
0 0 84
0 0 94
0 0 101
0 0 99
0 0 109
0 0 111
0 0 118
0 0 122
0 0 130
0 0 137
0 0 140
0 0 140
0 0 140
0 0 140
0 0 140
0 0 140
0 0 140
0 0 140
0 0 140
0 0 140
0 0 140
0 0 140
0 0 140
0 0 140
0 0 140
0 0 140
0 0 140
0 0 140
0 0 140
0 0 140
0 0 140
0 0 140
0 0 140
0 0 140
0 0 140
0 0 140
0 0 140
0 0 140
0 0 140
0 0 140
0 0 140
0 0 140
0 0 140
0 0 140
0 0 140
0 0 140
0 0 140
0 0 140
0 0 140
0 0 140
0 0 140
0 0 140
0 0 140
0 0 140
0 0 140
0 0 140
0 0 140
0 0 140
0 0 140
0 0 140
0 0 140
0 0 140
0 0 140
0 0 140
0 0 140
0 0 140
0 0 140
0 0 140
0 0 140
0 0 140
0 0 140
0 0 140
0 0 140
0 0 140
0 0 140
0 0 140
0 0 140
0 0 140
0 0 140
0 0 140
0 0 140
0 0 140
0 0 140
0 0 140
0 0 140
0 0 140
0 0 140
0 0 140
0 0 140
0 0 140
0 0 140
0 0 140
0 0 140
0 0 140
0 0 140
0 0 140
0 0 140
0 0 140
0 0 140
0 0 140
0 0 140
0 0 140
0 0 140
0 0 140
0 0 140
0 0 140
0 0 140
0 0 140
0 0 140
0 0 140
0 0 140
0 0 140
0 0 140
0 0 140
0 0 140
0 0 140
0 0 140
0 0 140
0 0 140
0 0 140
0 0 140
0 0 140
0 0 140
0 0 140
0 0 140
0 0 140
0 0 140
0 0 140
0 0 140
0 0 140
0 0 140
0 0 140
0 0 140
0 0 140
0 0 140
0 0 140
0 0 140
0 0 140
0 0 140
0 0 140
0 0 140
0 0 140
0 0 140
0 0 140
0 0 140
0 0 140
0 0 140
0 0 140
0 0 140
0 0 140
0 0 140
0 0 140
0 0 140
0 0 140
0 0 140
0 0 140
0 0 140
0 0 140
0 0 140
0 0 140
0 0 140
0 0 140
0 0 140
0 0 140
0 0 140
0 0 140
0 0 140
0 0 140
0 0 140
0 0 140
0 0 140
0 0 140
0 0 140
0 0 140
0 0 140
0 0 140
0 0 140
0 0 140
0 0 140
0 0 140
0 0 140
0 0 140
0 0 140
0 0 140
0 0 140
0 0 140
0 0 140
0 0 140
0 0 140
0 0 140
0 0 140
0 0 140
0 0 140
0 0 140
0 0 140
0 0 140
0 0 140
0 0 140
0 0 140
0 0 140
0 0 140
0 0 140
0 0 140
0 0 140
0 0 140
0 0 140
0 0 140
0 0 140
0 0 140
0 0 140
0 0 140
0 0 140
0 0 140
0 0 140
0 0 140
0 0 140
0 0 140
0 0 140
0 0 140
0 0 140
0 0 140
0 0 140
0 0 140
0 0 140
0 0 140
0 0 140
0 0 140
0 0 140
0 0 140
0 0 140
0 0 140
0 0 140
0 0 140
0 0 140
0 0 140
0 0 140
0 0 140
0 0 140
0 0 140
0 0 140
0 0 140
0 0 140
0 0 140
0 0 140
0 0 140
0 0 140
0 0 140
0 0 140
0 0 140
0 0 140
0 0 140
0 0 140
0 0 140
0 0 140
0 0 140
0 0 140
0 0 140
0 0 140
0 0 140
0 0 140
0 0 140
0 0 140
0 0 140
0 0 140
0 0 140
0 0 140
0 0 140
0 0 140
0 0 140
0 0 140
0 0 140
0 0 140
0 0 140
0 0 140
0 0 140
0 0 140
0 0 140
0 0 140
0 0 140
0 0 136
0 0 128
0 0 125
0 0 126
0 0 114
0 0 105
0 0 103
0 0 96
0 0 90
0 0 88
0 0 70
0 0 72
0 0 46
0 0 46
0 0 19
0 0 0
0 0 0
0 0 0
0 0 0
0 0 0
0 0 0
0 0 0
0 0 0
0 0 0
0 0 0
0 0 0
0 0 0
0 0 0
0 0 0
0 0 0
0 0 0
0 0 0
0 0 0
0 0 0
0 0 0
0 0 0
0 0 0
0 0 0
0 0 0
0 0 0
0 0 0
0 0 0
0 0 0
0 0 0
0 0 0
0 0 0
0 0 0
0 0 0
0 0 0
0 0 0
0 0 0
0 0 0
0 0 0
0 0 0
0 0 0
0 0 0
0 0 0
0 0 0
0 0 0
0 0 0
0 0 0
0 0 0
0 0 0
0 0 0
0 0 0
0 0 0
0 0 0
0 0 0
0 0 0
0 0 0
0 0 0
0 0 0
0 0 0
0 0 0
0 0 0
0 0 0
0 0 0
0 0 0
0 0 0
0 0 0
0 0 0
0 0 0
0 0 0
0 0 0
0 0 0
0 0 0
0 0 0
0 0 0
0 0 0
0 0 0
0 0 0
0 0 0
0 0 0
0 0 0
0 0 0
0 0 0
0 0 0
0 0 0
0 0 0
0 0 0
0 0 0
0 0 0
0 0 0
0 0 0
0 0 0
0 0 0
0 0 0
0 0 0
0 0 0
0 0 0
0 0 0
0 0 0
0 0 0
0 0 0
0 0 0
0 0 0
0 0 0
0 0 14
0 0 44
0 0 52
0 0 79
0 0 74
0 0 75
0 0 87
0 0 94
0 0 106
0 0 103
0 0 119
0 0 118
0 0 121
0 0 130
0 0 138
0 0 140
0 0 140
0 0 140
0 0 140
0 0 140
0 0 140
0 0 140
0 0 140
0 0 140
0 0 140
0 0 140
0 0 140
0 0 140
0 0 140
0 0 140
0 0 140
0 0 140
0 0 140
0 0 140
0 0 140
0 0 140
0 0 140
0 0 140
0 0 140
0 0 140
0 0 140
0 0 140
0 0 140
0 0 140
0 0 140
0 0 140
0 0 140
0 0 140
0 0 140
0 0 140
0 0 140
0 0 140
0 0 140
0 0 140
0 0 140
0 0 140
0 0 140
0 0 140
0 0 140
0 0 140
0 0 140
0 0 140
0 0 140
0 0 140
0 0 140
0 0 140
0 0 140
0 0 140
0 0 140
0 0 140
0 0 140
0 0 140
0 0 140
0 0 140
0 0 140
0 0 140
0 0 140
0 0 140
0 0 140
0 0 140
0 0 140
0 0 140
0 0 140
0 0 140
0 0 140
0 0 140
0 0 140
0 0 140
0 0 140
0 0 140
0 0 140
0 0 140
0 0 140
0 0 140
0 0 140
0 0 140
0 0 140
0 0 140
0 0 140
0 0 140
0 0 140
0 0 140
0 0 140
0 0 140
0 0 140
0 0 140
0 0 140
0 0 140
0 0 140
0 0 140
0 0 140
0 0 140
0 0 140
0 0 140
0 0 140
0 0 140
0 0 140
0 0 140
0 0 140
0 0 140
0 0 140
0 0 140
0 0 140
0 0 140
0 0 140
0 0 140
0 0 140
0 0 140
0 0 140
0 0 140
0 0 140
0 0 140
0 0 140
0 0 140
0 0 140
0 0 140
0 0 140
0 0 140
0 0 140
0 0 140
0 0 140
0 0 140
0 0 140
0 0 140
0 0 140
0 0 140
0 0 140
0 0 140
0 0 140
0 0 140
0 0 140
0 0 140
0 0 140
0 0 140
0 0 140
0 0 140
0 0 140
0 0 140
0 0 140
0 0 140
0 0 140
0 0 140
0 0 140
0 0 140
0 0 140
0 0 140
0 0 140
0 0 140
0 0 140
0 0 140
0 0 140
0 0 140
0 0 140
0 0 140
0 0 140
0 0 140
0 0 140
0 0 140
0 0 140
0 0 140
0 0 140
0 0 140
0 0 140
0 0 140
0 0 140
0 0 140
0 0 140
0 0 140
0 0 140
0 0 140
0 0 140
0 0 140
0 0 140
0 0 140
0 0 140
0 0 140
0 0 140
0 0 140
0 0 140
0 0 140
0 0 140
0 0 140
0 0 140
0 0 140
0 0 140
0 0 140
0 0 140
0 0 140
0 0 140
0 0 140
0 0 140
0 0 140
0 0 140
0 0 140
0 0 140
0 0 140
0 0 140
0 0 140
0 0 140
0 0 140
0 0 140
0 0 140
0 0 140
0 0 140
0 0 140
0 0 140
0 0 140
0 0 140
0 0 140
0 0 140
0 0 140
0 0 140
0 0 140
0 0 140
0 0 140
0 0 140
0 0 140
0 0 140
0 0 140
0 0 140
0 0 140
0 0 140
0 0 140
0 0 140
0 0 140
0 0 140
0 0 140
0 0 140
0 0 140
0 0 140
0 0 140
0 0 140
0 0 140
0 0 140
0 0 140
0 0 140
0 0 140
0 0 140
0 0 140
0 0 140
0 0 140
0 0 140
0 0 140
0 0 140
0 0 140
0 0 140
0 0 140
0 0 140
0 0 140
0 0 140
0 0 140
0 0 140
0 0 140
0 0 140
0 0 140
0 0 140
0 0 140
0 0 140
0 0 140
0 0 140
0 0 140
0 0 140
0 0 139
0 0 134
0 0 136
0 0 130
0 0 113
0 0 113
0 0 109
0 0 103
0 0 98
0 0 89
0 0 81
0 0 79
0 0 74
0 0 59
0 0 42
0 0 0
0 0 0
0 0 0
0 0 0
0 0 0
0 0 0
0 0 0
0 0 0
0 0 0
0 0 0
0 0 0
0 0 0
0 0 0
0 0 0
0 0 0
0 0 0
0 0 0
0 0 0
0 0 0
0 0 0
0 0 0
0 0 0
0 0 0
0 0 0
0 0 0
0 0 0
0 0 0
0 0 0
0 0 0
0 0 0
0 0 0
0 0 0
0 0 0
0 0 0
0 0 0
0 0 0
0 0 0
0 0 0
0 0 0
0 0 0
0 0 0
0 0 0
0 0 0
0 0 0
0 0 0
0 0 0
0 0 0
0 0 0
0 0 0
0 0 0
0 0 0
0 0 0
0 0 0
0 0 0
0 0 0
0 0 0
0 0 0
0 0 0
0 0 0
0 0 0
0 0 0
0 0 0
0 0 0
0 0 0
0 0 0
0 0 0
0 0 0
0 0 0
0 0 0
0 0 0
0 0 0
0 0 0
0 0 0
0 0 0
0 0 0
0 0 0
0 0 0
0 0 0
0 0 0
0 0 0
0 0 0
0 0 0
0 0 0
0 0 0
0 0 0
0 0 0
0 0 0
0 0 0
0 0 0
0 0 0
0 0 0
0 0 0
0 0 0
0 0 0
0 0 0
0 0 0
0 0 0
0 0 0
0 0 0
0 0 0
0 0 0
0 0 0
0 0 0
0 0 0
0 0 46
0 0 52
0 0 68
0 0 70
0 0 80
0 0 86
0 0 99
0 0 107
0 0 110
0 0 115
0 0 120
0 0 132
0 0 131
0 0 136
0 0 138
0 0 140
0 0 140
0 0 140
0 0 140
0 0 140
0 0 140
0 0 140
0 0 140
0 0 140
0 0 140
0 0 140
0 0 140
0 0 140
0 0 140
0 0 140
0 0 140
0 0 140
0 0 140
0 0 140
0 0 140
0 0 140
0 0 140
0 0 140
0 0 140
0 0 140
0 0 140
0 0 140
0 0 140
0 0 140
0 0 140
0 0 140
0 0 140
0 0 140
0 0 140
0 0 140
0 0 140
0 0 140
0 0 140
0 0 140
0 0 140
0 0 140
0 0 140
0 0 140
0 0 140
0 0 140
0 0 140
0 0 140
0 0 140
0 0 140
0 0 140
0 0 140
0 0 140
0 0 140
0 0 140
0 0 140
0 0 140
0 0 140
0 0 140
0 0 140
0 0 140
0 0 140
0 0 140
0 0 140
0 0 140
0 0 140
0 0 140
0 0 140
0 0 140
0 0 140
0 0 140
0 0 140
0 0 140
0 0 140
0 0 140
0 0 140
0 0 140
0 0 140
0 0 140
0 0 140
0 0 140
0 0 140
0 0 140
0 0 140
0 0 140
0 0 140
0 0 140
0 0 140
0 0 140
0 0 140
0 0 140
0 0 140
0 0 140
0 0 140
0 0 140
0 0 140
0 0 140
0 0 140
0 0 140
0 0 140
0 0 140
0 0 140
0 0 140
0 0 140
0 0 140
0 0 140
0 0 140
0 0 140
0 0 140
0 0 140
0 0 140
0 0 140
0 0 140
0 0 140
0 0 140
0 0 140
0 0 140
0 0 140
0 0 140
0 0 140
0 0 140
0 0 140
0 0 140
0 0 140
0 0 140
0 0 140
0 0 140
0 0 140
0 0 140
0 0 140
0 0 140
0 0 140
0 0 140
0 0 140
0 0 140
0 0 140
0 0 140
0 0 140
0 0 140
0 0 140
0 0 140
0 0 140
0 0 140
0 0 140
0 0 140
0 0 140
0 0 140
0 0 140
0 0 140
0 0 140
0 0 140
0 0 140
0 0 140
0 0 140
0 0 140
0 0 140
0 0 140
0 0 140
0 0 140
0 0 140
0 0 140
0 0 140
0 0 140
0 0 140
0 0 140
0 0 140
0 0 140
0 0 140
0 0 140
0 0 140
0 0 140
0 0 140
0 0 140
0 0 140
0 0 140
0 0 140
0 0 140
0 0 140
0 0 140
0 0 140
0 0 140
0 0 140
0 0 140
0 0 140
0 0 140
0 0 140
0 0 140
0 0 140
0 0 140
0 0 140
0 0 140
0 0 140
0 0 140
0 0 140
0 0 140
0 0 140
0 0 140
0 0 140
0 0 140
0 0 140
0 0 140
0 0 140
0 0 140
0 0 140
0 0 140
0 0 140
0 0 140
0 0 140
0 0 140
0 0 140
0 0 140
0 0 140
0 0 140
0 0 140
0 0 140
0 0 140
0 0 140
0 0 140
0 0 140
0 0 140
0 0 140
0 0 140
0 0 140
0 0 140
0 0 140
0 0 140
0 0 140
0 0 140
0 0 140
0 0 140
0 0 140
0 0 140
0 0 140
0 0 140
0 0 140
0 0 140
0 0 140
0 0 140
0 0 140
0 0 140
0 0 140
0 0 140
0 0 140
0 0 140
0 0 140
0 0 140
0 0 140
0 0 140
0 0 140
0 0 140
0 0 140
0 0 140
0 0 140
0 0 140
0 0 140
0 0 140
0 0 140
0 0 140
0 0 140
0 0 140
0 0 140
0 0 140
0 0 140
0 0 140
0 0 140
0 0 140
0 0 140
0 0 138
0 0 134
0 0 132
0 0 126
0 0 121
0 0 113
0 0 110
0 0 104
0 0 94
0 0 80
0 0 72
0 0 67
0 0 56
0 0 44
0 0 44
0 0 0
0 0 0
0 0 0
0 0 0
0 0 0
0 0 0
0 0 0
0 0 0
0 0 0
0 0 0
0 0 0
0 0 0
0 0 0
0 0 0
0 0 0
0 0 0
0 0 0
0 0 0
0 0 0
0 0 0
0 0 0
0 0 0
0 0 0
0 0 0
0 0 0
0 0 0
0 0 0
0 0 0
0 0 0
0 0 0
0 0 0
0 0 0
0 0 0
0 0 0
0 0 0
0 0 0
0 0 0
0 0 0
0 0 0
0 0 0
0 0 0
0 0 0
0 0 0
0 0 0
0 0 0
0 0 0
0 0 0
0 0 0
0 0 0
0 0 0
0 0 0
0 0 0
0 0 0
0 0 0
0 0 0
0 0 0
0 0 0
0 0 0
0 0 0
0 0 0
0 0 0
0 0 0
0 0 0
0 0 0
0 0 0
0 0 0
0 0 0
0 0 0
0 0 0
0 0 0
0 0 0
0 0 0
0 0 0
0 0 0
0 0 0
0 0 0
0 0 0
0 0 0
0 0 0
0 0 0
0 0 0
0 0 0
0 0 0
0 0 0
0 0 0
0 0 0
0 0 0
0 0 0
0 0 0
0 0 0
0 0 0
0 0 0
0 0 0
0 0 0
0 0 0
0 0 0
0 0 0
0 0 0
0 0 0
0 0 0
0 0 0
0 0 0
0 0 0
0 0 0
0 0 28
0 0 62
0 0 61
0 0 67
0 0 72
0 0 88
0 0 100
0 0 96
0 0 117
0 0 108
0 0 121
0 0 126
0 0 126
0 0 133
0 0 138
0 0 140
0 0 140
0 0 140
0 0 140
0 0 140
0 0 140
0 0 140
0 0 140
0 0 140
0 0 140
0 0 140
0 0 140
0 0 140
0 0 140
0 0 140
0 0 140
0 0 140
0 0 140
0 0 140
0 0 140
0 0 140
0 0 140
0 0 140
0 0 140
0 0 140
0 0 140
0 0 140
0 0 140
0 0 140
0 0 140
0 0 140
0 0 140
0 0 140
0 0 140
0 0 140
0 0 140
0 0 140
0 0 140
0 0 140
0 0 140
0 0 140
0 0 140
0 0 140
0 0 140
0 0 140
0 0 140
0 0 140
0 0 140
0 0 140
0 0 140
0 0 140
0 0 140
0 0 140
0 0 140
0 0 140
0 0 140
0 0 140
0 0 140
0 0 140
0 0 140
0 0 140
0 0 140
0 0 140
0 0 140
0 0 140
0 0 140
0 0 140
0 0 140
0 0 140
0 0 140
0 0 140
0 0 140
0 0 140
0 0 140
0 0 140
0 0 140
0 0 140
0 0 140
0 0 140
0 0 140
0 0 140
0 0 140
0 0 140
0 0 140
0 0 140
0 0 140
0 0 140
0 0 140
0 0 140
0 0 140
0 0 140
0 0 140
0 0 140
0 0 140
0 0 140
0 0 140
0 0 140
0 0 140
0 0 140
0 0 140
0 0 140
0 0 140
0 0 140
0 0 140
0 0 140
0 0 140
0 0 140
0 0 140
0 0 140
0 0 140
0 0 140
0 0 140
0 0 140
0 0 140
0 0 140
0 0 140
0 0 140
0 0 140
0 0 140
0 0 140
0 0 140
0 0 140
0 0 140
0 0 140
0 0 140
0 0 140
0 0 140
0 0 140
0 0 140
0 0 140
0 0 140
0 0 140
0 0 140
0 0 140
0 0 140
0 0 140
0 0 140
0 0 140
0 0 140
0 0 140
0 0 140
0 0 140
0 0 140
0 0 140
0 0 140
0 0 140
0 0 140
0 0 140
0 0 140
0 0 140
0 0 140
0 0 140
0 0 140
0 0 140
0 0 140
0 0 140
0 0 140
0 0 140
0 0 140
0 0 140
0 0 140
0 0 140
0 0 140
0 0 140
0 0 140
0 0 140
0 0 140
0 0 140
0 0 140
0 0 140
0 0 140
0 0 140
0 0 140
0 0 140
0 0 140
0 0 140
0 0 140
0 0 140
0 0 140
0 0 140
0 0 140
0 0 140
0 0 140
0 0 140
0 0 140
0 0 140
0 0 140
0 0 140
0 0 140
0 0 140
0 0 140
0 0 140
0 0 140
0 0 140
0 0 140
0 0 140
0 0 140
0 0 140
0 0 140
0 0 140
0 0 140
0 0 140
0 0 140
0 0 140
0 0 140
0 0 140
0 0 140
0 0 140
0 0 140
0 0 140
0 0 140
0 0 140
0 0 140
0 0 140
0 0 140
0 0 140
0 0 140
0 0 140
0 0 140
0 0 140
0 0 140
0 0 140
0 0 140
0 0 140
0 0 140
0 0 140
0 0 140
0 0 140
0 0 140
0 0 140
0 0 140
0 0 140
0 0 140
0 0 140
0 0 140
0 0 140
0 0 140
0 0 140
0 0 140
0 0 140
0 0 140
0 0 140
0 0 140
0 0 140
0 0 140
0 0 140
0 0 140
0 0 140
0 0 140
0 0 140
0 0 140
0 0 140
0 0 140
0 0 140
0 0 140
0 0 140
0 0 140
0 0 140
0 0 140
0 0 140
0 0 140
0 0 140
0 0 140
0 0 140
0 0 140
0 0 140
0 0 135
0 0 131
0 0 129
0 0 124
0 0 114
0 0 111
0 0 97
0 0 108
0 0 101
0 0 93
0 0 79
0 0 68
0 0 56
0 0 42
0 0 19
0 0 0
0 0 0
0 0 0
0 0 0
0 0 0
0 0 0
0 0 0
0 0 0
0 0 0
0 0 0
0 0 0
0 0 0
0 0 0
0 0 0
0 0 0
0 0 0
0 0 0
0 0 0
0 0 0
0 0 0
0 0 0
0 0 0
0 0 0
0 0 0
0 0 0
0 0 0
0 0 0
0 0 0
0 0 0
0 0 0
0 0 0
0 0 0
0 0 0
0 0 0
0 0 0
0 0 0
0 0 0
0 0 0
0 0 0
0 0 0
0 0 0
0 0 0
0 0 0
0 0 0
0 0 0
0 0 0
0 0 0
0 0 0
0 0 0
0 0 0
0 0 0
0 0 0
0 0 0
0 0 0
0 0 0
0 0 0
0 0 0
0 0 0
0 0 0
0 0 0
0 0 0
0 0 0
0 0 0
0 0 0
0 0 0
0 0 0
0 0 0
0 0 0
0 0 0
0 0 0
0 0 0
0 0 0
0 0 0
0 0 0
0 0 0
0 0 0
0 0 0
0 0 0
0 0 0
0 0 0
0 0 0
0 0 0
0 0 0
0 0 0
0 0 0
0 0 0
0 0 0
0 0 0
0 0 0
0 0 0
0 0 0
0 0 0
0 0 0
0 0 0
0 0 0
0 0 0
0 0 0
0 0 0
0 0 0
0 0 0
0 0 0
0 0 0
0 0 0
0 0 0
0 0 28
0 0 46
0 0 56
0 0 62
0 0 82
0 0 71
0 0 89
0 0 103
0 0 106
0 0 105
0 0 120
0 0 121
0 0 128
0 0 130
0 0 137
0 0 140
0 0 140
0 0 140
0 0 140
0 0 140
0 0 140
0 0 140
0 0 140
0 0 140
0 0 140
0 0 140
0 0 140
0 0 140
0 0 140
0 0 140
0 0 140
0 0 140
0 0 140
0 0 140
0 0 140
0 0 140
0 0 140
0 0 140
0 0 140
0 0 140
0 0 140
0 0 140
0 0 140
0 0 140
0 0 140
0 0 140
0 0 140
0 0 140
0 0 140
0 0 140
0 0 140
0 0 140
0 0 140
0 0 140
0 0 140
0 0 140
0 0 140
0 0 140
0 0 140
0 0 140
0 0 140
0 0 140
0 0 140
0 0 140
0 0 140
0 0 140
0 0 140
0 0 140
0 0 140
0 0 140
0 0 140
0 0 140
0 0 140
0 0 140
0 0 140
0 0 140
0 0 140
0 0 140
0 0 140
0 0 140
0 0 140
0 0 140
0 0 140
0 0 140
0 0 140
0 0 140
0 0 140
0 0 140
0 0 140
0 0 140
0 0 140
0 0 140
0 0 140
0 0 140
0 0 140
0 0 140
0 0 140
0 0 140
0 0 140
0 0 140
0 0 140
0 0 140
0 0 140
0 0 140
0 0 140
0 0 140
0 0 140
0 0 140
0 0 140
0 0 140
0 0 140
0 0 140
0 0 140
0 0 140
0 0 140
0 0 140
0 0 140
0 0 140
0 0 140
0 0 140
0 0 140
0 0 140
0 0 140
0 0 140
0 0 140
0 0 140
0 0 140
0 0 140
0 0 140
0 0 140
0 0 140
0 0 140
0 0 140
0 0 140
0 0 140
0 0 140
0 0 140
0 0 140
0 0 140
0 0 140
0 0 140
0 0 140
0 0 140
0 0 140
0 0 140
0 0 140
0 0 140
0 0 140
0 0 140
0 0 140
0 0 140
0 0 140
0 0 140
0 0 140
0 0 140
0 0 140
0 0 140
0 0 140
0 0 140
0 0 140
0 0 140
0 0 140
0 0 140
0 0 140
0 0 140
0 0 140
0 0 140
0 0 140
0 0 140
0 0 140
0 0 140
0 0 140
0 0 140
0 0 140
0 0 140
0 0 140
0 0 140
0 0 140
0 0 140
0 0 140
0 0 140
0 0 140
0 0 140
0 0 140
0 0 140
0 0 140
0 0 140
0 0 140
0 0 140
0 0 140
0 0 140
0 0 140
0 0 140
0 0 140
0 0 140
0 0 140
0 0 140
0 0 140
0 0 140
0 0 140
0 0 140
0 0 140
0 0 140
0 0 140
0 0 140
0 0 140
0 0 140
0 0 140
0 0 140
0 0 140
0 0 140
0 0 140
0 0 140
0 0 140
0 0 140
0 0 140
0 0 140
0 0 140
0 0 140
0 0 140
0 0 140
0 0 140
0 0 140
0 0 140
0 0 140
0 0 140
0 0 140
0 0 140
0 0 140
0 0 140
0 0 140
0 0 140
0 0 140
0 0 140
0 0 140
0 0 140
0 0 140
0 0 140
0 0 140
0 0 140
0 0 140
0 0 140
0 0 140
0 0 140
0 0 140
0 0 140
0 0 140
0 0 140
0 0 140
0 0 140
0 0 140
0 0 140
0 0 140
0 0 140
0 0 140
0 0 140
0 0 140
0 0 140
0 0 140
0 0 140
0 0 140
0 0 140
0 0 140
0 0 140
0 0 140
0 0 140
0 0 140
0 0 140
0 0 140
0 0 140
0 0 140
0 0 140
0 0 140
0 0 140
0 0 140
0 0 140
0 0 140
0 0 140
0 0 140
0 0 140
0 0 140
0 0 135
0 0 132
0 0 125
0 0 118
0 0 113
0 0 109
0 0 110
0 0 106
0 0 85
0 0 78
0 0 79
0 0 67
0 0 64
0 0 48
0 0 24
0 0 0
0 0 0
0 0 0
0 0 0
0 0 0
0 0 0
0 0 0
0 0 0
0 0 0
0 0 0
0 0 0
0 0 0
0 0 0
0 0 0
0 0 0
0 0 0
0 0 0
0 0 0
0 0 0
0 0 0
0 0 0
0 0 0
0 0 0
0 0 0
0 0 0
0 0 0
0 0 0
0 0 0
0 0 0
0 0 0
0 0 0
0 0 0
0 0 0
0 0 0
0 0 0
0 0 0
0 0 0
0 0 0
0 0 0
0 0 0
0 0 0
0 0 0
0 0 0
0 0 0
0 0 0
0 0 0
0 0 0
0 0 0
0 0 0
0 0 0
0 0 0
0 0 0
0 0 0
0 0 0
0 0 0
0 0 0
0 0 0
0 0 0
0 0 0
0 0 0
0 0 0
0 0 0
0 0 0
0 0 0
0 0 0
0 0 0
0 0 0
0 0 0
0 0 0
0 0 0
0 0 0
0 0 0
0 0 0
0 0 0
0 0 0
0 0 0
0 0 0
0 0 0
0 0 0
0 0 0
0 0 0
0 0 0
0 0 0
0 0 0
0 0 0
0 0 0
0 0 0
0 0 0
0 0 0
0 0 0
0 0 0
0 0 0
0 0 0
0 0 0
0 0 0
0 0 0
0 0 0
0 0 0
0 0 0
0 0 0
0 0 0
0 0 0
0 0 0
0 0 0
0 0 14
0 0 54
0 0 56
0 0 61
0 0 89
0 0 94
0 0 86
0 0 101
0 0 103
0 0 108
0 0 116
0 0 121
0 0 124
0 0 130
0 0 134
0 0 140
0 0 140
0 0 140
0 0 140
0 0 140
0 0 140
0 0 140
0 0 140
0 0 140
0 0 140
0 0 140
0 0 140
0 0 140
0 0 140
0 0 140
0 0 140
0 0 140
0 0 140
0 0 140
0 0 140
0 0 140
0 0 140
0 0 140
0 0 140
0 0 140
0 0 140
0 0 140
0 0 140
0 0 140
0 0 140
0 0 140
0 0 140
0 0 140
0 0 140
0 0 140
0 0 140
0 0 140
0 0 140
0 0 140
0 0 140
0 0 140
0 0 140
0 0 140
0 0 140
0 0 140
0 0 140
0 0 140
0 0 140
0 0 140
0 0 140
0 0 140
0 0 140
0 0 140
0 0 140
0 0 140
0 0 140
0 0 140
0 0 140
0 0 140
0 0 140
0 0 140
0 0 140
0 0 140
0 0 140
0 0 140
0 0 140
0 0 140
0 0 140
0 0 140
0 0 140
0 0 140
0 0 140
0 0 140
0 0 140
0 0 140
0 0 140
0 0 140
0 0 140
0 0 140
0 0 140
0 0 140
0 0 140
0 0 140
0 0 140
0 0 140
0 0 140
0 0 140
0 0 140
0 0 140
0 0 140
0 0 140
0 0 140
0 0 140
0 0 140
0 0 140
0 0 140
0 0 140
0 0 140
0 0 140
0 0 140
0 0 140
0 0 140
0 0 140
0 0 140
0 0 140
0 0 140
0 0 140
0 0 140
0 0 140
0 0 140
0 0 140
0 0 140
0 0 140
0 0 140
0 0 140
0 0 140
0 0 140
0 0 140
0 0 140
0 0 140
0 0 140
0 0 140
0 0 140
0 0 140
0 0 140
0 0 140
0 0 140
0 0 140
0 0 140
0 0 140
0 0 140
0 0 140
0 0 140
